(G-CODE GENERATED BY FLATCAM v8.991 - www.flatcam.org - Version Date: 2019/12/30)

(Name: Cncjob_Bottom_Copper_pyramidal)
(Type: G-code from Geometry)
(Units: MM)

(Created on Monday, 08 December 2025 at 09:38)

(TOOL DIAMETER: 0.1 mm)
(Feedrate: 2500.0 mm/min)
(Feedrate_Z: 250.0 mm/min)
(Feedrate rapids 1500.0 mm/min)

(Z_Cut: -0.04 mm)
(Z_Move: 0.5 mm)
(Z Toolchange: 15.0 mm)
(X,Y Toolchange: 0.0000, 0.0000 mm)
(Z Start: 0.5 mm)
(Z End: 2.0 mm)
(Steps per circle: 64)
(Preprocessor Geometry: default)

(X range:   10.4547 ...  116.4452  mm)
(Y range:    5.2048 ...   87.7943  mm)

(Spindle Speed: None RPM)
G21
G90
G94




G01 F2500.00
G00 Z0.5000
G00 Z0.5000
M03
G4 P1.0
G00 X10.8657 Y16.7891
G01 F250.00
G01 Z-0.0400
G01 F2500.00
G01 X10.8675 Y16.7795
G01 X10.8854 Y16.7081
G01 X10.8882 Y16.6987
G01 X10.9147 Y16.6251
G01 X10.9505 Y16.5492
G01 X10.9933 Y16.4779
G01 X11.0400 Y16.4147
G01 X11.0462 Y16.4072
G01 X11.0990 Y16.3491
G01 X14.1007 Y13.3474
G01 X14.1601 Y13.2937
G01 X14.2238 Y13.2462
G01 X14.2319 Y13.2408
G01 X14.2988 Y13.2008
G01 X14.3703 Y13.1668
G01 X14.3793 Y13.1631
G01 X14.4535 Y13.1367
G01 X14.5335 Y13.1166
G01 X14.6166 Y13.1043
G01 X14.6999 Y13.1002
G01 X27.6999 Y13.1002
G01 X27.7784 Y13.1039
G01 X27.7881 Y13.1049
G01 X27.8664 Y13.1166
G01 X27.9419 Y13.1355
G01 X27.9513 Y13.1383
G01 X28.0249 Y13.1648
G01 X28.0962 Y13.1983
G01 X28.1048 Y13.2029
G01 X28.1721 Y13.2434
G01 X28.2353 Y13.2901
G01 X28.2428 Y13.2963
G01 X28.3009 Y13.3491
G01 X37.3009 Y22.3491
G01 X37.3563 Y22.4102
G01 X37.4070 Y22.4786
G01 X37.4493 Y22.5490
G01 X37.4832 Y22.6204
G01 X37.4869 Y22.6294
G01 X37.5133 Y22.7036
G01 X37.5324 Y22.7795
G01 X37.5343 Y22.7891
G01 X37.5457 Y22.8667
G01 X37.5498 Y22.9476
G01 X37.5498 Y27.0980
G01 X50.8659 Y40.4141
G01 X50.9213 Y40.4752
G01 X50.9720 Y40.5436
G01 X51.0143 Y40.6140
G01 X51.0482 Y40.6854
G01 X51.0519 Y40.6944
G01 X51.0780 Y40.7677
G01 X51.0984 Y40.8486
G01 X51.1107 Y40.9317
G01 X51.1148 Y41.0126
G01 X51.1148 Y44.1325
G01 X51.1796 Y44.2199
G01 X51.2322 Y44.3075
G01 X51.2368 Y44.3161
G01 X51.2788 Y44.4048
G01 X51.2825 Y44.4138
G01 X51.3169 Y44.5102
G01 X51.3423 Y44.6108
G01 X51.3442 Y44.6204
G01 X51.3592 Y44.7223
G01 X51.3644 Y44.8301
G01 X51.3593 Y44.9362
G01 X51.3432 Y45.0452
G01 X51.3169 Y45.1499
G01 X51.2809 Y45.2505
G01 X51.2345 Y45.3486
G01 X51.1794 Y45.4406
G01 X51.1143 Y45.5283
G01 X51.0424 Y45.6075
G01 X50.9632 Y45.6794
G01 X50.8751 Y45.7447
G01 X50.7838 Y45.7995
G01 X50.6846 Y45.8463
G01 X50.5839 Y45.8823
G01 X50.4801 Y45.9083
G01 X50.3727 Y45.9243
G01 X50.2649 Y45.9296
G01 X50.1578 Y45.9243
G01 X50.0498 Y45.9083
G01 X49.9451 Y45.8820
G01 X49.8487 Y45.8476
G01 X49.8397 Y45.8439
G01 X49.7470 Y45.7999
G01 X49.6541 Y45.7443
G01 X49.5713 Y45.6830
G01 X49.5637 Y45.6768
G01 X49.4910 Y45.6109
G01 X49.4841 Y45.6040
G01 X49.4156 Y45.5283
G01 X49.3503 Y45.4402
G01 X49.2955 Y45.3488
G01 X49.2511 Y45.2553
G01 X49.2474 Y45.2463
G01 X49.2143 Y45.1539
G01 X49.2115 Y45.1445
G01 X49.1867 Y45.0452
G01 X49.1713 Y44.9427
G01 X49.1704 Y44.9329
G01 X49.1654 Y44.8301
G01 X49.1707 Y44.7229
G01 X49.1867 Y44.6149
G01 X49.2130 Y44.5102
G01 X49.2490 Y44.4096
G01 X49.2954 Y44.3116
G01 X49.3507 Y44.2192
G01 X49.4151 Y44.1325
G01 X49.4151 Y41.3671
G01 X36.0990 Y28.0510
G01 X36.0436 Y27.9899
G01 X35.9929 Y27.9215
G01 X35.9528 Y27.8549
G01 X35.9482 Y27.8463
G01 X35.9167 Y27.7797
G01 X35.9130 Y27.7707
G01 X35.8866 Y27.6965
G01 X35.8665 Y27.6165
G01 X35.8542 Y27.5334
G01 X35.8502 Y27.4549
G01 X35.8501 Y23.3021
G01 X27.3479 Y14.7999
G01 X15.0520 Y14.7999
G01 X12.5498 Y17.3021
G01 X12.5498 Y78.5980
G01 X18.0520 Y84.1002
G01 X42.3479 Y84.1002
G01 X43.2301 Y83.2180
G01 X43.2301 Y82.6496
G01 X42.9799 Y82.6496
G01 X42.9668 Y82.6487
G01 X42.9581 Y82.6471
G01 X42.9497 Y82.6448
G01 X42.9414 Y82.6418
G01 X42.9330 Y82.6378
G01 X42.9247 Y82.6328
G01 X42.9168 Y82.6270
G01 X42.9096 Y82.6204
G01 X42.9030 Y82.6132
G01 X42.8972 Y82.6053
G01 X42.8900 Y82.5926
G01 X42.8852 Y82.5803
G01 X42.8829 Y82.5719
G01 X42.8813 Y82.5632
G01 X42.8804 Y82.5501
G01 X42.8804 Y80.3501
G01 X42.8813 Y80.3369
G01 X42.8829 Y80.3282
G01 X42.8852 Y80.3198
G01 X42.8882 Y80.3115
G01 X42.8922 Y80.3031
G01 X42.8972 Y80.2948
G01 X42.9030 Y80.2869
G01 X42.9096 Y80.2797
G01 X42.9168 Y80.2731
G01 X42.9247 Y80.2673
G01 X42.9374 Y80.2601
G01 X42.9497 Y80.2553
G01 X42.9581 Y80.2530
G01 X42.9668 Y80.2514
G01 X42.9799 Y80.2506
G01 X45.1799 Y80.2506
G01 X45.1931 Y80.2514
G01 X45.2018 Y80.2530
G01 X45.2102 Y80.2553
G01 X45.2185 Y80.2583
G01 X45.2269 Y80.2623
G01 X45.2352 Y80.2673
G01 X45.2431 Y80.2731
G01 X45.2503 Y80.2797
G01 X45.2569 Y80.2869
G01 X45.2627 Y80.2948
G01 X45.2699 Y80.3075
G01 X45.2747 Y80.3198
G01 X45.2770 Y80.3282
G01 X45.2786 Y80.3369
G01 X45.2794 Y80.3457
G01 X45.2794 Y82.5501
G01 X45.2786 Y82.5632
G01 X45.2770 Y82.5719
G01 X45.2747 Y82.5803
G01 X45.2699 Y82.5926
G01 X45.2627 Y82.6053
G01 X45.2569 Y82.6132
G01 X45.2503 Y82.6204
G01 X45.2431 Y82.6270
G01 X45.2352 Y82.6328
G01 X45.2269 Y82.6378
G01 X45.2185 Y82.6418
G01 X45.2102 Y82.6448
G01 X45.2018 Y82.6471
G01 X45.1931 Y82.6487
G01 X45.1799 Y82.6496
G01 X44.9298 Y82.6496
G01 X44.9298 Y83.5701
G01 X44.9261 Y83.6485
G01 X44.9251 Y83.6582
G01 X44.9143 Y83.7310
G01 X44.9124 Y83.7406
G01 X44.8930 Y83.8174
G01 X44.8652 Y83.8950
G01 X44.8294 Y83.9709
G01 X44.7866 Y84.0422
G01 X44.7363 Y84.1099
G01 X44.6809 Y84.1710
G01 X43.2992 Y85.5527
G01 X43.2398 Y85.6064
G01 X43.1714 Y85.6571
G01 X43.1011 Y85.6993
G01 X43.0296 Y85.7333
G01 X43.0206 Y85.7370
G01 X42.9464 Y85.7634
G01 X42.8664 Y85.7835
G01 X42.7833 Y85.7958
G01 X42.6999 Y85.7999
G01 X17.6999 Y85.7999
G01 X17.6172 Y85.7959
G01 X17.5335 Y85.7835
G01 X17.4531 Y85.7633
G01 X17.3793 Y85.7370
G01 X17.3703 Y85.7333
G01 X17.2997 Y85.6998
G01 X17.2319 Y85.6593
G01 X17.2238 Y85.6539
G01 X17.1601 Y85.6064
G01 X17.0990 Y85.5510
G01 X11.0990 Y79.5510
G01 X11.0436 Y79.4899
G01 X10.9929 Y79.4215
G01 X10.9506 Y79.3511
G01 X10.9167 Y79.2797
G01 X10.9130 Y79.2707
G01 X10.8866 Y79.1965
G01 X10.8665 Y79.1165
G01 X10.8542 Y79.0334
G01 X10.8501 Y78.9501
G01 X10.8501 Y16.9501
G01 X10.8541 Y16.8673
G01 X10.8657 Y16.7891
G00 Z0.5000
G00 X13.3657 Y19.7891
G01 F250.00
G01 Z-0.0400
G01 F2500.00
G01 X13.3675 Y19.7795
G01 X13.3854 Y19.7081
G01 X13.3882 Y19.6987
G01 X13.4147 Y19.6251
G01 X13.4505 Y19.5492
G01 X13.4933 Y19.4779
G01 X13.5400 Y19.4147
G01 X13.5462 Y19.4072
G01 X13.5990 Y19.3491
G01 X15.6025 Y17.3457
G01 X15.6601 Y17.2937
G01 X15.7238 Y17.2462
G01 X15.7319 Y17.2408
G01 X15.7988 Y17.2008
G01 X15.8703 Y17.1668
G01 X15.8793 Y17.1631
G01 X15.9535 Y17.1367
G01 X16.0294 Y17.1176
G01 X16.0390 Y17.1157
G01 X16.1166 Y17.1043
G01 X16.1999 Y17.1002
G01 X23.7024 Y17.1002
G01 X23.7827 Y17.1042
G01 X23.8609 Y17.1157
G01 X23.8705 Y17.1176
G01 X23.9468 Y17.1368
G01 X24.0249 Y17.1648
G01 X24.0962 Y17.1983
G01 X24.1048 Y17.2029
G01 X24.1680 Y17.2408
G01 X24.1761 Y17.2462
G01 X24.2398 Y17.2937
G01 X24.3009 Y17.3491
G01 X48.3259 Y41.3741
G01 X48.3787 Y41.4322
G01 X48.3849 Y41.4397
G01 X48.4288 Y41.4989
G01 X48.4342 Y41.5070
G01 X48.4743 Y41.5740
G01 X48.5106 Y41.6509
G01 X48.5383 Y41.7286
G01 X48.5574 Y41.8045
G01 X48.5593 Y41.8141
G01 X48.5701 Y41.8869
G01 X48.5711 Y41.8966
G01 X48.5748 Y41.9751
G01 X48.5748 Y44.1325
G01 X48.6396 Y44.2199
G01 X48.6922 Y44.3075
G01 X48.6968 Y44.3161
G01 X48.7388 Y44.4048
G01 X48.7425 Y44.4138
G01 X48.7772 Y44.5111
G01 X48.8032 Y44.6149
G01 X48.8192 Y44.7223
G01 X48.8243 Y44.8252
G01 X48.8243 Y44.8349
G01 X48.8195 Y44.9329
G01 X48.8186 Y44.9427
G01 X48.8032 Y45.0452
G01 X48.7771 Y45.1494
G01 X48.7425 Y45.2463
G01 X48.7388 Y45.2553
G01 X48.6945 Y45.3486
G01 X48.6394 Y45.4406
G01 X48.5779 Y45.5237
G01 X48.5717 Y45.5313
G01 X48.5024 Y45.6075
G01 X48.4232 Y45.6794
G01 X48.3351 Y45.7447
G01 X48.2475 Y45.7973
G01 X48.2389 Y45.8019
G01 X48.1446 Y45.8463
G01 X48.0448 Y45.8820
G01 X47.9442 Y45.9074
G01 X47.9346 Y45.9093
G01 X47.8327 Y45.9243
G01 X47.7249 Y45.9296
G01 X47.6221 Y45.9246
G01 X47.6123 Y45.9237
G01 X47.5098 Y45.9083
G01 X47.4056 Y45.8822
G01 X47.3087 Y45.8476
G01 X47.2997 Y45.8439
G01 X47.2070 Y45.7999
G01 X47.1182 Y45.7469
G01 X47.1101 Y45.7414
G01 X47.0267 Y45.6794
G01 X46.9475 Y45.6075
G01 X46.8756 Y45.5283
G01 X46.8103 Y45.4402
G01 X46.7555 Y45.3488
G01 X46.7087 Y45.2497
G01 X46.6730 Y45.1499
G01 X46.6467 Y45.0452
G01 X46.6307 Y44.9378
G01 X46.6254 Y44.8301
G01 X46.6307 Y44.7229
G01 X46.6467 Y44.6149
G01 X46.6730 Y44.5102
G01 X46.7074 Y44.4138
G01 X46.7111 Y44.4048
G01 X46.7531 Y44.3161
G01 X46.7577 Y44.3075
G01 X46.8107 Y44.2192
G01 X46.8751 Y44.1325
G01 X46.8751 Y42.3271
G01 X23.3479 Y18.7999
G01 X16.5520 Y18.7999
G01 X15.0498 Y20.3021
G01 X15.0498 Y74.5980
G01 X21.5520 Y81.1002
G01 X33.3479 Y81.1002
G01 X39.5990 Y74.8491
G01 X39.6571 Y74.7963
G01 X39.6646 Y74.7901
G01 X39.7285 Y74.7430
G01 X39.7988 Y74.7008
G01 X39.8758 Y74.6644
G01 X39.9486 Y74.6383
G01 X39.9580 Y74.6355
G01 X40.0335 Y74.6166
G01 X40.1118 Y74.6049
G01 X40.1215 Y74.6039
G01 X40.1975 Y74.6002
G01 X45.6999 Y74.6002
G01 X45.7827 Y74.6042
G01 X45.8609 Y74.6157
G01 X45.8705 Y74.6176
G01 X45.9468 Y74.6368
G01 X46.0206 Y74.6631
G01 X46.0296 Y74.6668
G01 X46.0962 Y74.6983
G01 X46.1048 Y74.7029
G01 X46.1721 Y74.7434
G01 X46.2398 Y74.7937
G01 X46.3009 Y74.8491
G01 X47.2209 Y75.7691
G01 X47.2737 Y75.8272
G01 X47.2799 Y75.8347
G01 X47.3270 Y75.8986
G01 X47.3693 Y75.9690
G01 X47.4056 Y76.0459
G01 X47.4317 Y76.1187
G01 X47.4345 Y76.1281
G01 X47.4524 Y76.1995
G01 X47.4543 Y76.2091
G01 X47.4657 Y76.2867
G01 X47.4698 Y76.3701
G01 X47.4698 Y80.6037
G01 X47.5466 Y80.6884
G01 X47.6166 Y80.7826
G01 X47.6776 Y80.8842
G01 X47.7286 Y80.9921
G01 X47.7679 Y81.1021
G01 X47.7963 Y81.2154
G01 X47.8137 Y81.3325
G01 X47.8193 Y81.4452
G01 X47.8193 Y81.4549
G01 X47.8137 Y81.5670
G01 X47.7972 Y81.6792
G01 X47.7953 Y81.6888
G01 X47.7678 Y81.7984
G01 X47.7299 Y81.9045
G01 X47.7262 Y81.9135
G01 X47.6777 Y82.0157
G01 X47.6199 Y82.1123
G01 X47.6145 Y82.1204
G01 X47.5466 Y82.2117
G01 X47.4715 Y82.2947
G01 X47.4646 Y82.3016
G01 X47.3816 Y82.3767
G01 X47.2903 Y82.4446
G01 X47.2822 Y82.4500
G01 X47.1859 Y82.5076
G01 X47.0779 Y82.5587
G01 X46.9679 Y82.5980
G01 X46.8546 Y82.6264
G01 X46.7424 Y82.6432
G01 X46.7327 Y82.6441
G01 X46.6248 Y82.6494
G01 X46.6151 Y82.6494
G01 X46.5030 Y82.6438
G01 X46.3908 Y82.6273
G01 X46.3812 Y82.6254
G01 X46.2716 Y82.5979
G01 X46.1612 Y82.5584
G01 X46.0549 Y82.5081
G01 X45.9539 Y82.4476
G01 X45.8583 Y82.3767
G01 X45.7753 Y82.3016
G01 X45.7684 Y82.2947
G01 X45.6959 Y82.2147
G01 X45.6897 Y82.2072
G01 X45.6233 Y82.1175
G01 X45.5645 Y82.0197
G01 X45.5599 Y82.0111
G01 X45.5113 Y81.9080
G01 X45.4720 Y81.7980
G01 X45.4446 Y81.6888
G01 X45.4427 Y81.6792
G01 X45.4262 Y81.5676
G01 X45.4206 Y81.4549
G01 X45.4206 Y81.4452
G01 X45.4262 Y81.3331
G01 X45.4427 Y81.2209
G01 X45.4446 Y81.2113
G01 X45.4721 Y81.1017
G01 X45.5100 Y80.9956
G01 X45.5137 Y80.9866
G01 X45.5622 Y80.8844
G01 X45.6200 Y80.7878
G01 X45.6254 Y80.7797
G01 X45.6933 Y80.6884
G01 X45.7701 Y80.6037
G01 X45.7701 Y76.7221
G01 X45.3479 Y76.2999
G01 X40.5520 Y76.2999
G01 X34.3009 Y82.5510
G01 X34.2398 Y82.6064
G01 X34.1761 Y82.6539
G01 X34.1680 Y82.6593
G01 X34.1011 Y82.6993
G01 X34.0296 Y82.7333
G01 X34.0206 Y82.7370
G01 X33.9513 Y82.7618
G01 X33.9419 Y82.7646
G01 X33.8705 Y82.7825
G01 X33.8609 Y82.7844
G01 X33.7833 Y82.7958
G01 X33.6999 Y82.7999
G01 X21.1999 Y82.7999
G01 X21.1172 Y82.7959
G01 X21.0335 Y82.7835
G01 X20.9531 Y82.7633
G01 X20.8793 Y82.7370
G01 X20.8703 Y82.7333
G01 X20.7997 Y82.6998
G01 X20.7319 Y82.6593
G01 X20.7238 Y82.6539
G01 X20.6601 Y82.6064
G01 X20.5990 Y82.5510
G01 X13.5990 Y75.5510
G01 X13.5462 Y75.4929
G01 X13.5400 Y75.4854
G01 X13.4929 Y75.4215
G01 X13.4506 Y75.3511
G01 X13.4143 Y75.2742
G01 X13.3882 Y75.2014
G01 X13.3854 Y75.1920
G01 X13.3665 Y75.1165
G01 X13.3548 Y75.0382
G01 X13.3538 Y75.0285
G01 X13.3501 Y74.9501
G01 X13.3501 Y19.9501
G01 X13.3541 Y19.8673
G01 X13.3657 Y19.7891
G00 Z0.5000
G00 X19.2397 Y22.5049
G01 F250.00
G01 Z-0.0400
G01 F2500.00
G01 X19.2440 Y22.4779
G01 X19.2487 Y22.4572
G01 X19.2845 Y22.3144
G01 X19.2919 Y22.2878
G01 X19.2986 Y22.2679
G01 X19.3482 Y22.1293
G01 X19.3488 Y22.1295
G01 X19.3563 Y22.1081
G01 X19.3668 Y22.0844
G01 X19.4297 Y21.9514
G01 X19.4302 Y21.9516
G01 X19.4412 Y21.9287
G01 X19.4526 Y21.9085
G01 X19.5283 Y21.7823
G01 X19.5413 Y21.7618
G01 X19.5553 Y21.7419
G01 X19.6429 Y21.6237
G01 X19.6608 Y21.6010
G01 X19.6738 Y21.5861
G01 X19.7726 Y21.4771
G01 X19.7894 Y21.4595
G01 X19.8070 Y21.4427
G01 X19.9160 Y21.3439
G01 X19.9309 Y21.3309
G01 X19.9536 Y21.3130
G01 X20.0718 Y21.2254
G01 X20.0720 Y21.2256
G01 X20.0950 Y21.2091
G01 X20.1122 Y21.1984
G01 X20.2384 Y21.1227
G01 X20.2571 Y21.1121
G01 X20.2813 Y21.0998
G01 X20.4143 Y21.0369
G01 X20.4420 Y21.0248
G01 X20.4592 Y21.0183
G01 X20.5978 Y20.9687
G01 X20.5980 Y20.9692
G01 X20.6220 Y20.9607
G01 X20.6443 Y20.9546
G01 X20.7871 Y20.9188
G01 X20.8078 Y20.9141
G01 X20.8347 Y20.9094
G01 X20.9803 Y20.8878
G01 X21.0044 Y20.8848
G01 X21.0286 Y20.8830
G01 X21.1757 Y20.8758
G01 X21.1999 Y20.8752
G01 X21.2242 Y20.8758
G01 X21.3713 Y20.8830
G01 X21.3926 Y20.8845
G01 X21.4196 Y20.8878
G01 X21.5652 Y20.9094
G01 X21.5651 Y20.9098
G01 X21.5921 Y20.9141
G01 X21.6128 Y20.9188
G01 X21.7556 Y20.9546
G01 X21.7797 Y20.9613
G01 X21.8021 Y20.9687
G01 X21.9407 Y21.0183
G01 X21.9405 Y21.0189
G01 X21.9620 Y21.0264
G01 X21.9856 Y21.0369
G01 X22.1186 Y21.0998
G01 X22.1183 Y21.1004
G01 X22.1385 Y21.1098
G01 X22.1615 Y21.1227
G01 X22.2877 Y21.1984
G01 X22.3082 Y21.2114
G01 X22.3281 Y21.2254
G01 X22.4463 Y21.3130
G01 X22.4690 Y21.3309
G01 X22.4839 Y21.3439
G01 X22.5929 Y21.4427
G01 X22.6105 Y21.4595
G01 X22.6273 Y21.4771
G01 X22.7261 Y21.5861
G01 X22.7391 Y21.6010
G01 X22.7578 Y21.6248
G01 X24.6199 Y21.6248
G01 X24.6442 Y21.6254
G01 X24.7178 Y21.6290
G01 X24.7391 Y21.6305
G01 X24.7661 Y21.6338
G01 X24.8390 Y21.6446
G01 X24.8389 Y21.6450
G01 X24.8659 Y21.6493
G01 X24.8866 Y21.6541
G01 X24.9580 Y21.6719
G01 X24.9846 Y21.6794
G01 X25.0045 Y21.6860
G01 X25.0738 Y21.7108
G01 X25.0736 Y21.7115
G01 X25.0951 Y21.7190
G01 X25.1187 Y21.7294
G01 X25.1853 Y21.7609
G01 X25.1850 Y21.7615
G01 X25.2052 Y21.7709
G01 X25.2281 Y21.7838
G01 X25.2913 Y21.8217
G01 X25.3118 Y21.8347
G01 X25.3316 Y21.8486
G01 X25.3908 Y21.8925
G01 X25.4135 Y21.9104
G01 X25.4283 Y21.9233
G01 X25.4829 Y21.9728
G01 X25.5005 Y21.9895
G01 X34.0805 Y30.5695
G01 X34.0972 Y30.5871
G01 X34.1467 Y30.6417
G01 X34.1596 Y30.6565
G01 X34.1775 Y30.6792
G01 X34.2214 Y30.7384
G01 X34.2211 Y30.7386
G01 X34.2376 Y30.7616
G01 X34.2483 Y30.7787
G01 X34.2862 Y30.8419
G01 X34.2971 Y30.8610
G01 X34.3091 Y30.8847
G01 X34.3406 Y30.9513
G01 X34.3526 Y30.9790
G01 X34.3592 Y30.9962
G01 X34.3840 Y31.0655
G01 X34.3835 Y31.0657
G01 X34.3919 Y31.0897
G01 X34.3981 Y31.1120
G01 X34.4159 Y31.1834
G01 X34.4207 Y31.2041
G01 X34.4254 Y31.2310
G01 X34.4362 Y31.3039
G01 X34.4392 Y31.3280
G01 X34.4410 Y31.3522
G01 X34.4450 Y31.4379
G01 X34.4450 Y41.4622
G01 X34.4410 Y41.5479
G01 X34.4395 Y41.5692
G01 X34.4362 Y41.5962
G01 X34.4254 Y41.6691
G01 X34.4250 Y41.6690
G01 X34.4207 Y41.6960
G01 X34.4159 Y41.7167
G01 X34.3981 Y41.7881
G01 X34.3914 Y41.8122
G01 X34.3840 Y41.8346
G01 X34.3592 Y41.9039
G01 X34.3585 Y41.9037
G01 X34.3510 Y41.9252
G01 X34.3406 Y41.9488
G01 X34.3091 Y42.0154
G01 X34.3086 Y42.0151
G01 X34.2976 Y42.0380
G01 X34.2862 Y42.0582
G01 X34.2483 Y42.1214
G01 X34.2353 Y42.1419
G01 X34.2214 Y42.1617
G01 X34.1775 Y42.2209
G01 X34.1596 Y42.2436
G01 X34.1467 Y42.2584
G01 X34.0972 Y42.3130
G01 X34.0805 Y42.3306
G01 X34.0629 Y42.3473
G01 X34.0083 Y42.3968
G01 X33.9935 Y42.4097
G01 X33.9708 Y42.4276
G01 X33.9116 Y42.4715
G01 X33.9114 Y42.4712
G01 X33.8884 Y42.4877
G01 X33.8713 Y42.4984
G01 X33.8081 Y42.5363
G01 X33.7895 Y42.5469
G01 X33.7653 Y42.5592
G01 X33.6987 Y42.5907
G01 X33.6710 Y42.6027
G01 X33.6538 Y42.6093
G01 X33.5845 Y42.6341
G01 X33.5843 Y42.6336
G01 X33.5603 Y42.6420
G01 X33.5380 Y42.6482
G01 X33.4666 Y42.6660
G01 X33.4459 Y42.6708
G01 X33.4190 Y42.6755
G01 X33.3461 Y42.6863
G01 X33.3220 Y42.6893
G01 X33.2978 Y42.6911
G01 X33.2242 Y42.6947
G01 X33.1999 Y42.6953
G01 X33.1757 Y42.6947
G01 X33.1021 Y42.6911
G01 X33.0808 Y42.6896
G01 X33.0538 Y42.6863
G01 X32.9809 Y42.6755
G01 X32.9810 Y42.6751
G01 X32.9540 Y42.6708
G01 X32.9333 Y42.6660
G01 X32.8619 Y42.6482
G01 X32.8378 Y42.6415
G01 X32.8154 Y42.6341
G01 X32.7461 Y42.6093
G01 X32.7463 Y42.6086
G01 X32.7248 Y42.6011
G01 X32.7012 Y42.5907
G01 X32.6346 Y42.5592
G01 X32.6349 Y42.5586
G01 X32.6147 Y42.5492
G01 X32.5918 Y42.5363
G01 X32.5286 Y42.4984
G01 X32.5081 Y42.4854
G01 X32.4883 Y42.4715
G01 X32.4291 Y42.4276
G01 X32.4064 Y42.4097
G01 X32.3916 Y42.3968
G01 X32.3370 Y42.3473
G01 X32.3194 Y42.3306
G01 X32.3027 Y42.3130
G01 X32.2532 Y42.2584
G01 X32.2403 Y42.2436
G01 X32.2224 Y42.2209
G01 X32.1785 Y42.1617
G01 X32.1788 Y42.1615
G01 X32.1623 Y42.1385
G01 X32.1516 Y42.1214
G01 X32.1137 Y42.0582
G01 X32.1028 Y42.0391
G01 X32.0908 Y42.0154
G01 X32.0593 Y41.9488
G01 X32.0473 Y41.9211
G01 X32.0407 Y41.9039
G01 X32.0159 Y41.8346
G01 X32.0164 Y41.8344
G01 X32.0080 Y41.8104
G01 X32.0018 Y41.7881
G01 X31.9840 Y41.7167
G01 X31.9792 Y41.6960
G01 X31.9745 Y41.6691
G01 X31.9637 Y41.5962
G01 X31.9607 Y41.5721
G01 X31.9589 Y41.5479
G01 X31.9553 Y41.4743
G01 X31.9547 Y41.4501
G01 X31.9547 Y39.9563
G01 X30.5805 Y41.3306
G01 X30.5629 Y41.3473
G01 X30.5083 Y41.3968
G01 X30.4935 Y41.4097
G01 X30.4708 Y41.4276
G01 X30.4116 Y41.4715
G01 X30.4114 Y41.4712
G01 X30.3884 Y41.4877
G01 X30.3713 Y41.4984
G01 X30.3081 Y41.5363
G01 X30.2895 Y41.5469
G01 X30.2653 Y41.5592
G01 X30.1987 Y41.5907
G01 X30.1710 Y41.6027
G01 X30.1538 Y41.6093
G01 X30.0845 Y41.6341
G01 X30.0843 Y41.6336
G01 X30.0603 Y41.6420
G01 X30.0380 Y41.6482
G01 X29.9666 Y41.6660
G01 X29.9459 Y41.6708
G01 X29.9190 Y41.6755
G01 X29.8461 Y41.6863
G01 X29.8220 Y41.6893
G01 X29.7978 Y41.6911
G01 X29.7121 Y41.6951
G01 X26.7157 Y41.6953
G01 X24.5005 Y43.9106
G01 X24.4829 Y43.9273
G01 X24.4283 Y43.9768
G01 X24.4135 Y43.9897
G01 X24.3908 Y44.0076
G01 X24.3316 Y44.0515
G01 X24.3314 Y44.0512
G01 X24.3084 Y44.0677
G01 X24.2913 Y44.0784
G01 X24.2281 Y44.1163
G01 X24.2095 Y44.1269
G01 X24.1853 Y44.1392
G01 X24.1187 Y44.1707
G01 X24.0910 Y44.1827
G01 X24.0738 Y44.1893
G01 X24.0045 Y44.2141
G01 X24.0042 Y44.2134
G01 X23.9846 Y44.2207
G01 X23.9580 Y44.2282
G01 X23.8866 Y44.2460
G01 X23.8659 Y44.2508
G01 X23.8390 Y44.2555
G01 X23.7661 Y44.2663
G01 X23.7420 Y44.2693
G01 X23.7178 Y44.2711
G01 X23.6321 Y44.2751
G01 X23.1948 Y44.2753
G01 X23.1948 Y44.5301
G01 X23.1943 Y44.5519
G01 X23.1905 Y44.5955
G01 X23.1828 Y44.6385
G01 X23.1713 Y44.6807
G01 X23.1562 Y44.7217
G01 X23.1473 Y44.7416
G01 X23.1364 Y44.7633
G01 X23.1114 Y44.8050
G01 X23.0825 Y44.8440
G01 X23.0499 Y44.8800
G01 X23.0139 Y44.9126
G01 X22.9749 Y44.9415
G01 X22.9332 Y44.9665
G01 X22.9115 Y44.9774
G01 X22.8916 Y44.9863
G01 X22.8506 Y45.0014
G01 X22.8084 Y45.0129
G01 X22.7653 Y45.0206
G01 X22.7218 Y45.0244
G01 X22.6999 Y45.0249
G01 X19.6999 Y45.0249
G01 X19.6781 Y45.0244
G01 X19.6346 Y45.0206
G01 X19.5915 Y45.0129
G01 X19.5493 Y45.0014
G01 X19.5083 Y44.9863
G01 X19.4884 Y44.9774
G01 X19.4667 Y44.9665
G01 X19.4250 Y44.9415
G01 X19.3860 Y44.9126
G01 X19.3500 Y44.8800
G01 X19.3174 Y44.8440
G01 X19.2885 Y44.8050
G01 X19.2635 Y44.7633
G01 X19.2526 Y44.7416
G01 X19.2437 Y44.7217
G01 X19.2286 Y44.6807
G01 X19.2171 Y44.6385
G01 X19.2094 Y44.5955
G01 X19.2056 Y44.5519
G01 X19.2051 Y44.5301
G01 X19.2051 Y41.5301
G01 X19.2056 Y41.5082
G01 X19.2094 Y41.4646
G01 X19.2171 Y41.4216
G01 X19.2286 Y41.3794
G01 X19.2437 Y41.3384
G01 X19.2526 Y41.3184
G01 X19.2635 Y41.2967
G01 X19.2885 Y41.2551
G01 X19.3174 Y41.2161
G01 X19.3500 Y41.1801
G01 X19.3860 Y41.1475
G01 X19.4250 Y41.1186
G01 X19.4667 Y41.0936
G01 X19.4884 Y41.0827
G01 X19.5083 Y41.0738
G01 X19.5493 Y41.0587
G01 X19.5915 Y41.0472
G01 X19.6346 Y41.0395
G01 X19.6781 Y41.0357
G01 X19.6999 Y41.0352
G01 X22.6999 Y41.0352
G01 X22.7218 Y41.0357
G01 X22.7653 Y41.0395
G01 X22.8084 Y41.0472
G01 X22.8506 Y41.0587
G01 X22.8916 Y41.0738
G01 X22.9115 Y41.0827
G01 X22.9332 Y41.0936
G01 X22.9749 Y41.1186
G01 X23.0139 Y41.1475
G01 X23.0499 Y41.1801
G01 X23.0825 Y41.2161
G01 X23.1114 Y41.2551
G01 X23.1364 Y41.2967
G01 X23.1473 Y41.3184
G01 X23.1562 Y41.3384
G01 X23.1713 Y41.3794
G01 X23.1828 Y41.4216
G01 X23.1905 Y41.4646
G01 X23.1943 Y41.5082
G01 X23.1948 Y41.5301
G01 X23.1948 Y41.6941
G01 X25.3281 Y39.5610
G01 X25.3916 Y39.5033
G01 X25.4064 Y39.4904
G01 X25.4291 Y39.4725
G01 X25.4883 Y39.4286
G01 X25.4885 Y39.4289
G01 X25.5115 Y39.4124
G01 X25.5286 Y39.4017
G01 X25.5918 Y39.3638
G01 X25.6104 Y39.3532
G01 X25.6346 Y39.3409
G01 X25.7012 Y39.3094
G01 X25.7289 Y39.2974
G01 X25.7461 Y39.2908
G01 X25.8154 Y39.2660
G01 X25.8156 Y39.2665
G01 X25.8396 Y39.2581
G01 X25.8619 Y39.2519
G01 X25.9333 Y39.2341
G01 X25.9540 Y39.2293
G01 X25.9809 Y39.2246
G01 X26.0538 Y39.2138
G01 X26.0779 Y39.2108
G01 X26.1021 Y39.2090
G01 X26.1878 Y39.2050
G01 X29.1842 Y39.2048
G01 X31.9547 Y36.4343
G01 X31.9547 Y31.9658
G01 X29.6999 Y29.7111
G01 X28.5805 Y30.8306
G01 X28.5629 Y30.8473
G01 X28.5083 Y30.8968
G01 X28.4935 Y30.9097
G01 X28.4708 Y30.9276
G01 X28.4116 Y30.9715
G01 X28.4114 Y30.9712
G01 X28.3884 Y30.9877
G01 X28.3713 Y30.9984
G01 X28.3081 Y31.0363
G01 X28.2895 Y31.0469
G01 X28.2653 Y31.0592
G01 X28.1987 Y31.0907
G01 X28.1710 Y31.1027
G01 X28.1538 Y31.1093
G01 X28.0845 Y31.1341
G01 X28.0843 Y31.1336
G01 X28.0603 Y31.1420
G01 X28.0380 Y31.1482
G01 X27.9666 Y31.1660
G01 X27.9459 Y31.1708
G01 X27.9190 Y31.1755
G01 X27.8461 Y31.1863
G01 X27.8220 Y31.1893
G01 X27.7978 Y31.1911
G01 X27.7242 Y31.1947
G01 X27.6999 Y31.1953
G01 X27.6757 Y31.1947
G01 X27.6021 Y31.1911
G01 X27.5808 Y31.1896
G01 X27.5538 Y31.1863
G01 X27.4809 Y31.1755
G01 X27.4810 Y31.1751
G01 X27.4540 Y31.1708
G01 X27.4333 Y31.1660
G01 X27.3619 Y31.1482
G01 X27.3378 Y31.1415
G01 X27.3154 Y31.1341
G01 X27.2461 Y31.1093
G01 X27.2463 Y31.1086
G01 X27.2248 Y31.1011
G01 X27.2012 Y31.0907
G01 X27.1346 Y31.0592
G01 X27.1349 Y31.0586
G01 X27.1147 Y31.0492
G01 X27.0918 Y31.0363
G01 X27.0286 Y30.9984
G01 X27.0081 Y30.9854
G01 X26.9883 Y30.9715
G01 X26.9291 Y30.9276
G01 X26.9064 Y30.9097
G01 X26.8916 Y30.8968
G01 X26.8370 Y30.8473
G01 X26.8194 Y30.8306
G01 X26.8027 Y30.8130
G01 X26.7532 Y30.7584
G01 X26.7403 Y30.7436
G01 X26.7224 Y30.7209
G01 X26.6785 Y30.6617
G01 X26.6788 Y30.6615
G01 X26.6623 Y30.6385
G01 X26.6516 Y30.6214
G01 X26.6137 Y30.5582
G01 X26.6028 Y30.5391
G01 X26.5908 Y30.5154
G01 X26.5593 Y30.4488
G01 X26.5473 Y30.4211
G01 X26.5407 Y30.4039
G01 X26.5159 Y30.3346
G01 X26.5164 Y30.3344
G01 X26.5080 Y30.3104
G01 X26.5018 Y30.2881
G01 X26.4840 Y30.2167
G01 X26.4792 Y30.1960
G01 X26.4745 Y30.1691
G01 X26.4637 Y30.0962
G01 X26.4607 Y30.0721
G01 X26.4589 Y30.0479
G01 X26.4553 Y29.9743
G01 X26.4547 Y29.9501
G01 X26.4553 Y29.9258
G01 X26.4589 Y29.8522
G01 X26.4604 Y29.8309
G01 X26.4637 Y29.8039
G01 X26.4745 Y29.7310
G01 X26.4749 Y29.7311
G01 X26.4792 Y29.7041
G01 X26.4840 Y29.6834
G01 X26.5018 Y29.6120
G01 X26.5085 Y29.5879
G01 X26.5159 Y29.5655
G01 X26.5407 Y29.4962
G01 X26.5414 Y29.4964
G01 X26.5489 Y29.4749
G01 X26.5593 Y29.4513
G01 X26.5908 Y29.3847
G01 X26.5913 Y29.3850
G01 X26.6023 Y29.3621
G01 X26.6137 Y29.3419
G01 X26.6516 Y29.2787
G01 X26.6646 Y29.2582
G01 X26.6785 Y29.2384
G01 X26.7224 Y29.1792
G01 X26.7403 Y29.1565
G01 X26.7532 Y29.1417
G01 X26.8027 Y29.0871
G01 X26.8194 Y29.0695
G01 X27.9389 Y27.9501
G01 X24.1042 Y24.1153
G01 X22.7578 Y24.1153
G01 X22.7391 Y24.1391
G01 X22.7261 Y24.1540
G01 X22.6273 Y24.2630
G01 X22.6105 Y24.2806
G01 X22.5929 Y24.2974
G01 X22.4839 Y24.3962
G01 X22.4690 Y24.4092
G01 X22.4463 Y24.4271
G01 X22.3281 Y24.5147
G01 X22.3279 Y24.5145
G01 X22.3049 Y24.5310
G01 X22.2877 Y24.5417
G01 X22.1615 Y24.6174
G01 X22.1428 Y24.6280
G01 X22.1186 Y24.6403
G01 X21.9856 Y24.7032
G01 X21.9579 Y24.7153
G01 X21.9407 Y24.7218
G01 X21.8021 Y24.7714
G01 X21.8019 Y24.7707
G01 X21.7822 Y24.7781
G01 X21.7556 Y24.7855
G01 X21.6128 Y24.8213
G01 X21.5921 Y24.8260
G01 X21.5652 Y24.8307
G01 X21.4196 Y24.8523
G01 X21.3955 Y24.8553
G01 X21.3713 Y24.8571
G01 X21.2242 Y24.8643
G01 X21.1999 Y24.8649
G01 X21.1757 Y24.8643
G01 X21.0286 Y24.8571
G01 X21.0073 Y24.8556
G01 X20.9803 Y24.8523
G01 X20.8347 Y24.8307
G01 X20.8348 Y24.8303
G01 X20.8078 Y24.8260
G01 X20.7871 Y24.8213
G01 X20.6443 Y24.7855
G01 X20.6177 Y24.7781
G01 X20.5978 Y24.7714
G01 X20.4592 Y24.7218
G01 X20.4594 Y24.7212
G01 X20.4379 Y24.7137
G01 X20.4143 Y24.7032
G01 X20.2813 Y24.6403
G01 X20.2816 Y24.6397
G01 X20.2614 Y24.6303
G01 X20.2384 Y24.6174
G01 X20.1122 Y24.5417
G01 X20.0917 Y24.5287
G01 X20.0718 Y24.5147
G01 X19.9536 Y24.4271
G01 X19.9309 Y24.4092
G01 X19.9160 Y24.3962
G01 X19.8070 Y24.2974
G01 X19.7894 Y24.2806
G01 X19.7726 Y24.2630
G01 X19.6738 Y24.1540
G01 X19.6608 Y24.1391
G01 X19.6429 Y24.1164
G01 X19.5553 Y23.9982
G01 X19.5555 Y23.9980
G01 X19.5390 Y23.9750
G01 X19.5283 Y23.9578
G01 X19.4526 Y23.8316
G01 X19.4417 Y23.8125
G01 X19.4297 Y23.7887
G01 X19.3668 Y23.6557
G01 X19.3547 Y23.6280
G01 X19.3482 Y23.6108
G01 X19.2986 Y23.4722
G01 X19.2993 Y23.4720
G01 X19.2919 Y23.4523
G01 X19.2845 Y23.4257
G01 X19.2487 Y23.2829
G01 X19.2440 Y23.2622
G01 X19.2393 Y23.2353
G01 X19.2177 Y23.0897
G01 X19.2147 Y23.0656
G01 X19.2129 Y23.0414
G01 X19.2057 Y22.8943
G01 X19.2051 Y22.8701
G01 X19.2057 Y22.8458
G01 X19.2129 Y22.6987
G01 X19.2144 Y22.6774
G01 X19.2177 Y22.6504
G01 X19.2393 Y22.5048
G01 X19.2397 Y22.5049
G00 Z0.5000
G00 X19.4351 Y22.5338
G01 F250.00
G01 Z-0.0400
G01 F2500.00
G01 X19.4377 Y22.5176
G01 X19.4405 Y22.5052
G01 X19.4763 Y22.3624
G01 X19.4807 Y22.3465
G01 X19.4847 Y22.3345
G01 X19.5343 Y22.1959
G01 X19.5347 Y22.1960
G01 X19.5392 Y22.1831
G01 X19.5455 Y22.1690
G01 X19.6084 Y22.0359
G01 X19.6087 Y22.0360
G01 X19.6153 Y22.0223
G01 X19.6222 Y22.0102
G01 X19.6978 Y21.8839
G01 X19.7056 Y21.8716
G01 X19.7140 Y21.8597
G01 X19.8017 Y21.7414
G01 X19.8125 Y21.7278
G01 X19.8202 Y21.7189
G01 X19.9191 Y21.6098
G01 X19.9291 Y21.5992
G01 X19.9397 Y21.5892
G01 X20.0577 Y21.4826
G01 X20.0713 Y21.4718
G01 X20.1896 Y21.3841
G01 X20.2035 Y21.3744
G01 X20.3401 Y21.2923
G01 X20.3513 Y21.2859
G01 X20.3658 Y21.2785
G01 X20.4989 Y21.2156
G01 X20.5155 Y21.2083
G01 X20.5258 Y21.2044
G01 X20.6644 Y21.1548
G01 X20.6645 Y21.1551
G01 X20.6789 Y21.1501
G01 X20.6923 Y21.1464
G01 X20.8351 Y21.1106
G01 X20.8475 Y21.1078
G01 X20.8637 Y21.1049
G01 X21.0093 Y21.0833
G01 X21.0238 Y21.0815
G01 X21.0383 Y21.0804
G01 X21.1854 Y21.0732
G01 X21.1999 Y21.0729
G01 X21.2145 Y21.0732
G01 X21.3616 Y21.0804
G01 X21.3744 Y21.0814
G01 X21.3906 Y21.0833
G01 X21.5362 Y21.1049
G01 X21.5362 Y21.1052
G01 X21.5524 Y21.1078
G01 X21.5648 Y21.1106
G01 X21.7076 Y21.1464
G01 X21.7221 Y21.1504
G01 X21.7355 Y21.1548
G01 X21.8741 Y21.2044
G01 X21.8740 Y21.2048
G01 X21.8869 Y21.2093
G01 X21.9010 Y21.2156
G01 X22.0341 Y21.2785
G01 X22.0339 Y21.2789
G01 X22.0461 Y21.2845
G01 X22.0598 Y21.2923
G01 X22.1861 Y21.3679
G01 X22.1984 Y21.3757
G01 X22.2103 Y21.3841
G01 X22.3286 Y21.4718
G01 X22.3422 Y21.4826
G01 X22.4602 Y21.5892
G01 X22.4708 Y21.5992
G01 X22.4808 Y21.6098
G01 X22.5874 Y21.7278
G01 X22.5982 Y21.7414
G01 X22.6583 Y21.8225
G01 X24.6199 Y21.8225
G01 X24.6345 Y21.8228
G01 X24.7081 Y21.8265
G01 X24.7209 Y21.8274
G01 X24.7371 Y21.8293
G01 X24.8099 Y21.8401
G01 X24.8099 Y21.8404
G01 X24.8261 Y21.8430
G01 X24.9100 Y21.8637
G01 X24.9259 Y21.8682
G01 X25.0072 Y21.8970
G01 X25.0071 Y21.8974
G01 X25.0200 Y21.9019
G01 X25.0342 Y21.9081
G01 X25.1007 Y21.9396
G01 X25.1006 Y21.9400
G01 X25.1127 Y21.9456
G01 X25.1265 Y21.9534
G01 X25.1896 Y21.9912
G01 X25.2019 Y21.9990
G01 X25.2139 Y22.0074
G01 X25.2730 Y22.0513
G01 X25.2867 Y22.0620
G01 X25.2956 Y22.0698
G01 X25.3501 Y22.1193
G01 X25.3607 Y22.1293
G01 X33.9407 Y30.7093
G01 X33.9507 Y30.7199
G01 X34.0080 Y30.7833
G01 X34.0187 Y30.7970
G01 X34.0626 Y30.8561
G01 X34.0723 Y30.8701
G01 X34.0788 Y30.8804
G01 X34.1166 Y30.9435
G01 X34.1232 Y30.9550
G01 X34.1304 Y30.9693
G01 X34.1619 Y31.0358
G01 X34.1691 Y31.0524
G01 X34.1978 Y31.1321
G01 X34.1975 Y31.1322
G01 X34.2026 Y31.1466
G01 X34.2063 Y31.1600
G01 X34.2242 Y31.2314
G01 X34.2270 Y31.2439
G01 X34.2299 Y31.2601
G01 X34.2407 Y31.3329
G01 X34.2425 Y31.3474
G01 X34.2435 Y31.3619
G01 X34.2474 Y31.4428
G01 X34.2474 Y41.4573
G01 X34.2435 Y41.5382
G01 X34.2426 Y41.5510
G01 X34.2407 Y41.5672
G01 X34.2299 Y41.6400
G01 X34.2296 Y41.6400
G01 X34.2270 Y41.6562
G01 X34.2063 Y41.7401
G01 X34.2023 Y41.7545
G01 X34.1978 Y41.7680
G01 X34.1730 Y41.8373
G01 X34.1726 Y41.8372
G01 X34.1681 Y41.8501
G01 X34.1619 Y41.8643
G01 X34.1304 Y41.9308
G01 X34.1301 Y41.9307
G01 X34.1235 Y41.9445
G01 X34.1166 Y41.9566
G01 X34.0788 Y42.0197
G01 X34.0710 Y42.0320
G01 X34.0626 Y42.0440
G01 X34.0187 Y42.1031
G01 X34.0080 Y42.1168
G01 X34.0002 Y42.1257
G01 X33.9507 Y42.1802
G01 X33.9407 Y42.1908
G01 X33.9301 Y42.2008
G01 X33.8667 Y42.2581
G01 X33.8530 Y42.2688
G01 X33.7939 Y42.3127
G01 X33.7799 Y42.3224
G01 X33.7696 Y42.3289
G01 X33.6953 Y42.3731
G01 X33.6807 Y42.3805
G01 X33.6142 Y42.4120
G01 X33.5976 Y42.4192
G01 X33.5179 Y42.4479
G01 X33.5178 Y42.4476
G01 X33.5034 Y42.4527
G01 X33.4900 Y42.4564
G01 X33.4061 Y42.4771
G01 X33.3899 Y42.4800
G01 X33.3171 Y42.4908
G01 X33.3026 Y42.4926
G01 X33.2881 Y42.4936
G01 X33.2145 Y42.4973
G01 X33.1999 Y42.4976
G01 X33.1854 Y42.4973
G01 X33.0990 Y42.4927
G01 X33.0828 Y42.4908
G01 X33.0100 Y42.4800
G01 X33.0100 Y42.4797
G01 X32.9938 Y42.4771
G01 X32.9813 Y42.4743
G01 X32.9099 Y42.4564
G01 X32.8955 Y42.4524
G01 X32.8820 Y42.4479
G01 X32.8127 Y42.4231
G01 X32.8128 Y42.4227
G01 X32.7999 Y42.4182
G01 X32.7857 Y42.4120
G01 X32.7192 Y42.3805
G01 X32.7193 Y42.3801
G01 X32.7072 Y42.3745
G01 X32.6934 Y42.3667
G01 X32.6303 Y42.3289
G01 X32.6180 Y42.3211
G01 X32.6060 Y42.3127
G01 X32.5469 Y42.2688
G01 X32.5332 Y42.2581
G01 X32.5243 Y42.2503
G01 X32.4698 Y42.2008
G01 X32.4592 Y42.1908
G01 X32.4492 Y42.1802
G01 X32.3919 Y42.1168
G01 X32.3812 Y42.1031
G01 X32.3373 Y42.0440
G01 X32.3276 Y42.0300
G01 X32.2833 Y41.9566
G01 X32.2767 Y41.9451
G01 X32.2695 Y41.9308
G01 X32.2380 Y41.8643
G01 X32.2308 Y41.8477
G01 X32.2021 Y41.7680
G01 X32.2024 Y41.7679
G01 X32.1973 Y41.7535
G01 X32.1936 Y41.7401
G01 X32.1729 Y41.6562
G01 X32.1700 Y41.6400
G01 X32.1592 Y41.5672
G01 X32.1574 Y41.5527
G01 X32.1564 Y41.5382
G01 X32.1527 Y41.4646
G01 X32.1524 Y41.4501
G01 X32.1524 Y39.4791
G01 X30.4355 Y41.1959
G01 X30.3667 Y41.2581
G01 X30.3530 Y41.2688
G01 X30.2939 Y41.3127
G01 X30.2799 Y41.3224
G01 X30.2065 Y41.3667
G01 X30.1953 Y41.3731
G01 X30.1807 Y41.3805
G01 X30.1142 Y41.4120
G01 X30.0976 Y41.4192
G01 X30.0872 Y41.4231
G01 X30.0179 Y41.4479
G01 X30.0178 Y41.4476
G01 X30.0034 Y41.4527
G01 X29.9900 Y41.4564
G01 X29.9061 Y41.4771
G01 X29.8899 Y41.4800
G01 X29.8171 Y41.4908
G01 X29.8026 Y41.4926
G01 X29.7881 Y41.4936
G01 X29.7072 Y41.4975
G01 X26.6339 Y41.4976
G01 X24.3607 Y43.7708
G01 X24.3501 Y43.7808
G01 X24.2867 Y43.8381
G01 X24.2730 Y43.8488
G01 X24.2139 Y43.8927
G01 X24.1999 Y43.9024
G01 X24.1896 Y43.9089
G01 X24.1153 Y43.9531
G01 X24.1007 Y43.9605
G01 X24.0342 Y43.9920
G01 X24.0176 Y43.9992
G01 X23.9379 Y44.0279
G01 X23.9377 Y44.0275
G01 X23.9259 Y44.0319
G01 X23.9100 Y44.0364
G01 X23.8386 Y44.0543
G01 X23.8261 Y44.0571
G01 X23.8099 Y44.0600
G01 X23.7371 Y44.0708
G01 X23.7226 Y44.0726
G01 X23.7081 Y44.0736
G01 X23.6272 Y44.0775
G01 X22.9971 Y44.0776
G01 X22.9971 Y44.5301
G01 X22.9968 Y44.5432
G01 X22.9945 Y44.5693
G01 X22.9899 Y44.5952
G01 X22.9830 Y44.6205
G01 X22.9740 Y44.6451
G01 X22.9686 Y44.6571
G01 X22.9620 Y44.6701
G01 X22.9470 Y44.6952
G01 X22.9297 Y44.7186
G01 X22.9101 Y44.7402
G01 X22.8885 Y44.7598
G01 X22.8651 Y44.7772
G01 X22.8400 Y44.7921
G01 X22.8270 Y44.7987
G01 X22.8150 Y44.8041
G01 X22.7904 Y44.8131
G01 X22.7651 Y44.8200
G01 X22.7392 Y44.8246
G01 X22.7131 Y44.8269
G01 X22.6999 Y44.8272
G01 X19.6999 Y44.8272
G01 X19.6868 Y44.8269
G01 X19.6607 Y44.8246
G01 X19.6348 Y44.8200
G01 X19.6095 Y44.8131
G01 X19.5849 Y44.8041
G01 X19.5729 Y44.7987
G01 X19.5599 Y44.7921
G01 X19.5348 Y44.7772
G01 X19.5114 Y44.7598
G01 X19.4898 Y44.7402
G01 X19.4702 Y44.7186
G01 X19.4529 Y44.6952
G01 X19.4379 Y44.6701
G01 X19.4313 Y44.6571
G01 X19.4259 Y44.6451
G01 X19.4169 Y44.6205
G01 X19.4100 Y44.5952
G01 X19.4054 Y44.5693
G01 X19.4031 Y44.5432
G01 X19.4028 Y44.5301
G01 X19.4028 Y41.5301
G01 X19.4031 Y41.5169
G01 X19.4054 Y41.4908
G01 X19.4100 Y41.4649
G01 X19.4169 Y41.4396
G01 X19.4260 Y41.4150
G01 X19.4313 Y41.4030
G01 X19.4379 Y41.3899
G01 X19.4529 Y41.3649
G01 X19.4702 Y41.3415
G01 X19.4898 Y41.3199
G01 X19.5114 Y41.3003
G01 X19.5348 Y41.2829
G01 X19.5599 Y41.2680
G01 X19.5729 Y41.2614
G01 X19.5849 Y41.2560
G01 X19.6095 Y41.2470
G01 X19.6348 Y41.2401
G01 X19.6607 Y41.2355
G01 X19.6868 Y41.2332
G01 X19.6999 Y41.2329
G01 X22.6999 Y41.2329
G01 X22.7131 Y41.2332
G01 X22.7392 Y41.2355
G01 X22.7651 Y41.2401
G01 X22.7904 Y41.2470
G01 X22.8150 Y41.2560
G01 X22.8270 Y41.2614
G01 X22.8400 Y41.2680
G01 X22.8651 Y41.2829
G01 X22.8885 Y41.3003
G01 X22.9101 Y41.3199
G01 X22.9297 Y41.3415
G01 X22.9470 Y41.3649
G01 X22.9620 Y41.3899
G01 X22.9686 Y41.4030
G01 X22.9739 Y41.4150
G01 X22.9830 Y41.4396
G01 X22.9899 Y41.4649
G01 X22.9945 Y41.4908
G01 X22.9968 Y41.5169
G01 X22.9971 Y41.5301
G01 X22.9971 Y41.9825
G01 X23.1860 Y41.9825
G01 X25.4644 Y39.7042
G01 X25.5332 Y39.6420
G01 X25.5469 Y39.6313
G01 X25.6060 Y39.5874
G01 X25.6200 Y39.5777
G01 X25.6934 Y39.5334
G01 X25.7046 Y39.5270
G01 X25.7192 Y39.5196
G01 X25.7857 Y39.4881
G01 X25.8023 Y39.4809
G01 X25.8820 Y39.4522
G01 X25.8821 Y39.4525
G01 X25.8965 Y39.4474
G01 X25.9099 Y39.4437
G01 X25.9938 Y39.4230
G01 X26.0100 Y39.4201
G01 X26.0828 Y39.4093
G01 X26.0973 Y39.4075
G01 X26.1118 Y39.4065
G01 X26.1927 Y39.4026
G01 X29.2660 Y39.4025
G01 X32.1524 Y36.5161
G01 X32.1524 Y31.8840
G01 X29.6999 Y29.4315
G01 X28.4355 Y30.6959
G01 X28.3667 Y30.7581
G01 X28.3530 Y30.7688
G01 X28.2939 Y30.8127
G01 X28.2799 Y30.8224
G01 X28.2696 Y30.8289
G01 X28.1953 Y30.8731
G01 X28.1807 Y30.8805
G01 X28.1142 Y30.9120
G01 X28.0976 Y30.9192
G01 X28.0872 Y30.9231
G01 X28.0179 Y30.9479
G01 X28.0178 Y30.9476
G01 X28.0034 Y30.9527
G01 X27.9900 Y30.9564
G01 X27.9061 Y30.9771
G01 X27.8899 Y30.9800
G01 X27.8171 Y30.9908
G01 X27.8026 Y30.9926
G01 X27.7881 Y30.9936
G01 X27.7145 Y30.9973
G01 X27.6999 Y30.9976
G01 X27.6854 Y30.9973
G01 X27.6118 Y30.9936
G01 X27.5990 Y30.9927
G01 X27.5828 Y30.9908
G01 X27.5100 Y30.9800
G01 X27.5100 Y30.9797
G01 X27.4938 Y30.9771
G01 X27.4099 Y30.9564
G01 X27.3955 Y30.9524
G01 X27.3820 Y30.9479
G01 X27.3127 Y30.9231
G01 X27.3128 Y30.9227
G01 X27.2999 Y30.9182
G01 X27.2857 Y30.9120
G01 X27.2192 Y30.8805
G01 X27.2193 Y30.8801
G01 X27.2072 Y30.8745
G01 X27.1934 Y30.8667
G01 X27.1303 Y30.8289
G01 X27.1180 Y30.8211
G01 X27.1060 Y30.8127
G01 X27.0469 Y30.7688
G01 X27.0332 Y30.7581
G01 X26.9698 Y30.7008
G01 X26.9592 Y30.6908
G01 X26.9492 Y30.6802
G01 X26.8919 Y30.6168
G01 X26.8812 Y30.6031
G01 X26.8373 Y30.5440
G01 X26.8276 Y30.5300
G01 X26.8211 Y30.5197
G01 X26.7833 Y30.4566
G01 X26.7767 Y30.4451
G01 X26.7695 Y30.4308
G01 X26.7380 Y30.3643
G01 X26.7308 Y30.3477
G01 X26.7021 Y30.2680
G01 X26.7024 Y30.2679
G01 X26.6973 Y30.2535
G01 X26.6936 Y30.2401
G01 X26.6729 Y30.1562
G01 X26.6700 Y30.1400
G01 X26.6592 Y30.0672
G01 X26.6574 Y30.0527
G01 X26.6564 Y30.0382
G01 X26.6527 Y29.9646
G01 X26.6524 Y29.9501
G01 X26.6527 Y29.9355
G01 X26.6573 Y29.8491
G01 X26.6592 Y29.8329
G01 X26.6700 Y29.7601
G01 X26.6703 Y29.7601
G01 X26.6729 Y29.7439
G01 X26.6936 Y29.6600
G01 X26.6976 Y29.6456
G01 X26.7021 Y29.6321
G01 X26.7269 Y29.5628
G01 X26.7273 Y29.5629
G01 X26.7318 Y29.5500
G01 X26.7380 Y29.5358
G01 X26.7695 Y29.4693
G01 X26.7698 Y29.4694
G01 X26.7764 Y29.4556
G01 X26.7833 Y29.4435
G01 X26.8211 Y29.3804
G01 X26.8289 Y29.3681
G01 X26.8373 Y29.3561
G01 X26.8812 Y29.2970
G01 X26.8919 Y29.2833
G01 X26.9541 Y29.2145
G01 X28.2185 Y27.9501
G01 X24.1860 Y23.9176
G01 X22.6583 Y23.9176
G01 X22.5982 Y23.9987
G01 X22.5874 Y24.0123
G01 X22.4808 Y24.1303
G01 X22.4708 Y24.1409
G01 X22.4602 Y24.1509
G01 X22.3422 Y24.2575
G01 X22.3286 Y24.2683
G01 X22.2103 Y24.3560
G01 X22.1964 Y24.3657
G01 X22.1861 Y24.3722
G01 X22.0598 Y24.4478
G01 X22.0486 Y24.4542
G01 X22.0341 Y24.4616
G01 X21.9010 Y24.5245
G01 X21.8844 Y24.5318
G01 X21.7355 Y24.5853
G01 X21.7353 Y24.5849
G01 X21.7235 Y24.5893
G01 X21.7076 Y24.5937
G01 X21.5648 Y24.6295
G01 X21.5524 Y24.6323
G01 X21.5362 Y24.6352
G01 X21.3906 Y24.6568
G01 X21.3761 Y24.6586
G01 X21.3616 Y24.6597
G01 X21.2145 Y24.6669
G01 X21.1999 Y24.6672
G01 X21.1854 Y24.6669
G01 X21.0383 Y24.6597
G01 X21.0255 Y24.6587
G01 X21.0093 Y24.6568
G01 X20.8637 Y24.6352
G01 X20.8637 Y24.6349
G01 X20.8475 Y24.6323
G01 X20.8351 Y24.6295
G01 X20.6923 Y24.5937
G01 X20.6764 Y24.5893
G01 X20.5258 Y24.5357
G01 X20.5259 Y24.5353
G01 X20.5130 Y24.5308
G01 X20.4989 Y24.5245
G01 X20.3658 Y24.4616
G01 X20.3660 Y24.4612
G01 X20.3538 Y24.4556
G01 X20.3401 Y24.4478
G01 X20.2138 Y24.3722
G01 X20.2015 Y24.3644
G01 X20.1896 Y24.3560
G01 X20.0713 Y24.2683
G01 X20.0577 Y24.2575
G01 X20.0488 Y24.2498
G01 X19.9397 Y24.1509
G01 X19.9291 Y24.1409
G01 X19.9191 Y24.1303
G01 X19.8125 Y24.0123
G01 X19.8017 Y23.9987
G01 X19.7140 Y23.8804
G01 X19.7043 Y23.8665
G01 X19.6978 Y23.8562
G01 X19.6222 Y23.7299
G01 X19.6156 Y23.7185
G01 X19.6084 Y23.7042
G01 X19.5455 Y23.5711
G01 X19.5382 Y23.5545
G01 X19.4847 Y23.4056
G01 X19.4851 Y23.4054
G01 X19.4807 Y23.3936
G01 X19.4763 Y23.3777
G01 X19.4405 Y23.2349
G01 X19.4377 Y23.2225
G01 X19.4348 Y23.2063
G01 X19.4132 Y23.0607
G01 X19.4114 Y23.0462
G01 X19.4103 Y23.0317
G01 X19.4031 Y22.8846
G01 X19.4028 Y22.8701
G01 X19.4031 Y22.8555
G01 X19.4103 Y22.7084
G01 X19.4113 Y22.6956
G01 X19.4132 Y22.6794
G01 X19.4348 Y22.5338
G01 X19.4351 Y22.5338
G00 Z0.5000
G00 X19.6304 Y22.5628
G01 F250.00
G01 Z-0.0400
G01 F2500.00
G01 X19.6323 Y22.5532
G01 X19.6680 Y22.4104
G01 X19.6709 Y22.4011
G01 X19.7221 Y22.2582
G01 X19.7894 Y22.1159
G01 X19.8700 Y21.9814
G01 X19.9605 Y21.8592
G01 X19.9667 Y21.8516
G01 X20.0656 Y21.7426
G01 X20.0725 Y21.7357
G01 X20.1845 Y21.6342
G01 X20.3120 Y21.5397
G01 X20.4454 Y21.4597
G01 X20.5834 Y21.3943
G01 X20.5924 Y21.3905
G01 X20.7310 Y21.3410
G01 X20.7403 Y21.3381
G01 X20.8873 Y21.3014
G01 X21.0432 Y21.2783
G01 X21.1999 Y21.2706
G01 X21.3519 Y21.2779
G01 X21.3616 Y21.2788
G01 X21.5126 Y21.3014
G01 X21.6596 Y21.3381
G01 X21.6689 Y21.3410
G01 X21.8118 Y21.3922
G01 X21.9496 Y21.4572
G01 X21.9582 Y21.4618
G01 X22.0845 Y21.5375
G01 X22.0926 Y21.5429
G01 X22.2154 Y21.6342
G01 X22.3274 Y21.7357
G01 X22.3343 Y21.7426
G01 X22.4358 Y21.8546
G01 X22.5271 Y21.9774
G01 X22.5325 Y21.9855
G01 X22.5533 Y22.0202
G01 X24.6248 Y22.0203
G01 X24.7027 Y22.0242
G01 X24.7809 Y22.0357
G01 X24.7905 Y22.0376
G01 X24.8619 Y22.0555
G01 X24.8713 Y22.0583
G01 X24.9449 Y22.0848
G01 X25.0162 Y22.1183
G01 X25.0248 Y22.1229
G01 X25.0921 Y22.1634
G01 X25.1553 Y22.2101
G01 X25.1628 Y22.2163
G01 X25.2209 Y22.2691
G01 X33.8009 Y30.8491
G01 X33.8563 Y30.9102
G01 X33.9038 Y30.9739
G01 X33.9092 Y30.9820
G01 X33.9471 Y31.0452
G01 X33.9517 Y31.0538
G01 X33.9856 Y31.1259
G01 X34.0133 Y31.2036
G01 X34.0324 Y31.2795
G01 X34.0343 Y31.2891
G01 X34.0457 Y31.3667
G01 X34.0498 Y31.4476
G01 X34.0498 Y41.4525
G01 X34.0461 Y41.5285
G01 X34.0451 Y41.5382
G01 X34.0334 Y41.6165
G01 X34.0145 Y41.6920
G01 X34.0117 Y41.7014
G01 X33.9852 Y41.7750
G01 X33.9494 Y41.8509
G01 X33.9066 Y41.9222
G01 X33.8599 Y41.9854
G01 X33.8537 Y41.9929
G01 X33.8043 Y42.0475
G01 X33.7974 Y42.0544
G01 X33.7398 Y42.1064
G01 X33.6761 Y42.1539
G01 X33.6680 Y42.1593
G01 X33.6011 Y42.1993
G01 X33.5241 Y42.2357
G01 X33.4464 Y42.2634
G01 X33.3705 Y42.2825
G01 X33.3609 Y42.2844
G01 X33.2833 Y42.2958
G01 X33.2048 Y42.2998
G01 X33.1951 Y42.2998
G01 X33.1215 Y42.2962
G01 X33.1118 Y42.2952
G01 X33.0335 Y42.2835
G01 X32.9531 Y42.2633
G01 X32.8750 Y42.2353
G01 X32.8037 Y42.2018
G01 X32.7951 Y42.1972
G01 X32.7278 Y42.1567
G01 X32.6646 Y42.1100
G01 X32.6571 Y42.1038
G01 X32.6025 Y42.0544
G01 X32.5956 Y42.0475
G01 X32.5436 Y41.9899
G01 X32.4929 Y41.9215
G01 X32.4506 Y41.8511
G01 X32.4143 Y41.7742
G01 X32.3866 Y41.6965
G01 X32.3665 Y41.6165
G01 X32.3542 Y41.5334
G01 X32.3501 Y41.4525
G01 X32.3501 Y39.0018
G01 X30.2992 Y41.0527
G01 X30.2398 Y41.1064
G01 X30.1714 Y41.1571
G01 X30.1011 Y41.1993
G01 X30.0241 Y41.2357
G01 X29.9464 Y41.2634
G01 X29.8664 Y41.2835
G01 X29.7833 Y41.2958
G01 X29.7024 Y41.2999
G01 X26.5520 Y41.2999
G01 X24.2209 Y43.6310
G01 X24.1598 Y43.6864
G01 X24.0914 Y43.7371
G01 X24.0248 Y43.7772
G01 X24.0162 Y43.7818
G01 X23.9441 Y43.8157
G01 X23.8713 Y43.8418
G01 X23.8619 Y43.8446
G01 X23.7864 Y43.8635
G01 X23.7033 Y43.8758
G01 X23.6199 Y43.8799
G01 X22.7994 Y43.8799
G01 X22.7994 Y44.5344
G01 X22.7986 Y44.5432
G01 X22.7970 Y44.5519
G01 X22.7947 Y44.5603
G01 X22.7899 Y44.5726
G01 X22.7827 Y44.5853
G01 X22.7769 Y44.5932
G01 X22.7703 Y44.6004
G01 X22.7631 Y44.6070
G01 X22.7552 Y44.6128
G01 X22.7469 Y44.6178
G01 X22.7385 Y44.6218
G01 X22.7302 Y44.6248
G01 X22.7218 Y44.6271
G01 X22.7131 Y44.6287
G01 X22.6999 Y44.6296
G01 X19.6999 Y44.6296
G01 X19.6868 Y44.6287
G01 X19.6781 Y44.6271
G01 X19.6697 Y44.6248
G01 X19.6614 Y44.6218
G01 X19.6530 Y44.6178
G01 X19.6447 Y44.6128
G01 X19.6368 Y44.6070
G01 X19.6296 Y44.6004
G01 X19.6230 Y44.5932
G01 X19.6172 Y44.5853
G01 X19.6100 Y44.5726
G01 X19.6052 Y44.5603
G01 X19.6029 Y44.5519
G01 X19.6013 Y44.5432
G01 X19.6004 Y44.5301
G01 X19.6004 Y41.5301
G01 X19.6013 Y41.5169
G01 X19.6029 Y41.5082
G01 X19.6052 Y41.4998
G01 X19.6082 Y41.4915
G01 X19.6122 Y41.4831
G01 X19.6172 Y41.4748
G01 X19.6230 Y41.4669
G01 X19.6296 Y41.4597
G01 X19.6368 Y41.4531
G01 X19.6447 Y41.4473
G01 X19.6574 Y41.4401
G01 X19.6697 Y41.4353
G01 X19.6781 Y41.4330
G01 X19.6868 Y41.4314
G01 X19.6999 Y41.4306
G01 X22.6999 Y41.4306
G01 X22.7131 Y41.4314
G01 X22.7218 Y41.4330
G01 X22.7302 Y41.4353
G01 X22.7385 Y41.4383
G01 X22.7469 Y41.4423
G01 X22.7552 Y41.4473
G01 X22.7631 Y41.4531
G01 X22.7703 Y41.4597
G01 X22.7769 Y41.4669
G01 X22.7827 Y41.4748
G01 X22.7899 Y41.4875
G01 X22.7947 Y41.4998
G01 X22.7970 Y41.5082
G01 X22.7986 Y41.5169
G01 X22.7994 Y41.5301
G01 X22.7994 Y42.1802
G01 X23.2679 Y42.1802
G01 X25.6007 Y39.8474
G01 X25.6601 Y39.7937
G01 X25.7285 Y39.7430
G01 X25.7988 Y39.7008
G01 X25.8758 Y39.6644
G01 X25.9535 Y39.6367
G01 X26.0335 Y39.6166
G01 X26.1166 Y39.6043
G01 X26.1975 Y39.6002
G01 X29.3479 Y39.6002
G01 X32.3501 Y36.5980
G01 X32.3501 Y31.8021
G01 X29.6999 Y29.1520
G01 X28.3009 Y30.5510
G01 X28.2398 Y30.6064
G01 X28.1761 Y30.6539
G01 X28.1680 Y30.6593
G01 X28.1011 Y30.6993
G01 X28.0296 Y30.7333
G01 X28.0206 Y30.7370
G01 X27.9464 Y30.7634
G01 X27.8664 Y30.7835
G01 X27.7881 Y30.7952
G01 X27.7784 Y30.7962
G01 X27.6999 Y30.7999
G01 X27.6172 Y30.7959
G01 X27.5390 Y30.7844
G01 X27.5294 Y30.7825
G01 X27.4531 Y30.7633
G01 X27.3750 Y30.7353
G01 X27.3037 Y30.7018
G01 X27.2951 Y30.6972
G01 X27.2319 Y30.6593
G01 X27.2238 Y30.6539
G01 X27.1601 Y30.6064
G01 X27.0990 Y30.5510
G01 X27.0436 Y30.4899
G01 X26.9961 Y30.4262
G01 X26.9907 Y30.4181
G01 X26.9528 Y30.3549
G01 X26.9482 Y30.3463
G01 X26.9143 Y30.2742
G01 X26.8866 Y30.1965
G01 X26.8665 Y30.1165
G01 X26.8542 Y30.0334
G01 X26.8501 Y29.9501
G01 X26.8538 Y29.8716
G01 X26.8548 Y29.8619
G01 X26.8656 Y29.7891
G01 X26.8675 Y29.7795
G01 X26.8867 Y29.7032
G01 X26.9130 Y29.6294
G01 X26.9167 Y29.6204
G01 X26.9505 Y29.5492
G01 X26.9933 Y29.4779
G01 X27.0436 Y29.4102
G01 X27.0973 Y29.3508
G01 X28.4980 Y27.9501
G01 X24.2679 Y23.7199
G01 X22.5533 Y23.7199
G01 X22.5325 Y23.7546
G01 X22.5271 Y23.7627
G01 X22.4394 Y23.8809
G01 X22.4332 Y23.8885
G01 X22.3310 Y24.0011
G01 X22.2154 Y24.1059
G01 X22.0879 Y24.2004
G01 X21.9582 Y24.2783
G01 X21.9496 Y24.2829
G01 X21.8110 Y24.3482
G01 X21.6649 Y24.4005
G01 X21.5168 Y24.4377
G01 X21.5072 Y24.4397
G01 X21.3567 Y24.4618
G01 X21.1999 Y24.4696
G01 X21.0480 Y24.4622
G01 X21.0383 Y24.4613
G01 X20.8927 Y24.4397
G01 X20.8831 Y24.4377
G01 X20.7350 Y24.4005
G01 X20.5881 Y24.3479
G01 X20.4463 Y24.2809
G01 X20.3113 Y24.2000
G01 X20.1845 Y24.1059
G01 X20.0689 Y24.0011
G01 X19.9641 Y23.8855
G01 X19.8696 Y23.7580
G01 X19.7895 Y23.6245
G01 X19.7218 Y23.4811
G01 X19.6695 Y23.3350
G01 X19.6313 Y23.1827
G01 X19.6082 Y23.0268
G01 X19.6004 Y22.8701
G01 X19.6081 Y22.7139
G01 X19.6304 Y22.5628
G00 Z0.5000
G00 X16.3657 Y34.2891
G01 F250.00
G01 Z-0.0400
G01 F2500.00
G01 X16.3675 Y34.2795
G01 X16.3854 Y34.2081
G01 X16.3882 Y34.1987
G01 X16.4147 Y34.1251
G01 X16.4505 Y34.0492
G01 X16.4907 Y33.9820
G01 X16.4961 Y33.9739
G01 X16.5436 Y33.9102
G01 X16.5973 Y33.8508
G01 X20.3501 Y30.0980
G01 X20.3501 Y29.5496
G01 X19.6999 Y29.5496
G01 X19.6868 Y29.5487
G01 X19.6781 Y29.5471
G01 X19.6697 Y29.5448
G01 X19.6574 Y29.5400
G01 X19.6447 Y29.5328
G01 X19.6368 Y29.5270
G01 X19.6296 Y29.5204
G01 X19.6230 Y29.5132
G01 X19.6172 Y29.5053
G01 X19.6122 Y29.4970
G01 X19.6082 Y29.4886
G01 X19.6052 Y29.4803
G01 X19.6029 Y29.4719
G01 X19.6013 Y29.4632
G01 X19.6004 Y29.4501
G01 X19.6004 Y26.4501
G01 X19.6013 Y26.4369
G01 X19.6029 Y26.4282
G01 X19.6052 Y26.4198
G01 X19.6082 Y26.4115
G01 X19.6122 Y26.4031
G01 X19.6172 Y26.3948
G01 X19.6230 Y26.3869
G01 X19.6296 Y26.3797
G01 X19.6368 Y26.3731
G01 X19.6447 Y26.3673
G01 X19.6574 Y26.3601
G01 X19.6697 Y26.3553
G01 X19.6781 Y26.3530
G01 X19.6868 Y26.3514
G01 X19.6999 Y26.3506
G01 X22.6999 Y26.3506
G01 X22.7131 Y26.3514
G01 X22.7218 Y26.3530
G01 X22.7302 Y26.3553
G01 X22.7385 Y26.3583
G01 X22.7469 Y26.3623
G01 X22.7552 Y26.3673
G01 X22.7631 Y26.3731
G01 X22.7703 Y26.3797
G01 X22.7769 Y26.3869
G01 X22.7827 Y26.3948
G01 X22.7899 Y26.4075
G01 X22.7947 Y26.4198
G01 X22.7970 Y26.4282
G01 X22.7986 Y26.4369
G01 X22.7994 Y26.4501
G01 X22.7994 Y29.4501
G01 X22.7986 Y29.4632
G01 X22.7970 Y29.4719
G01 X22.7947 Y29.4803
G01 X22.7917 Y29.4886
G01 X22.7877 Y29.4970
G01 X22.7827 Y29.5053
G01 X22.7769 Y29.5132
G01 X22.7703 Y29.5204
G01 X22.7631 Y29.5270
G01 X22.7552 Y29.5328
G01 X22.7425 Y29.5400
G01 X22.7302 Y29.5448
G01 X22.7218 Y29.5471
G01 X22.7131 Y29.5487
G01 X22.7043 Y29.5495
G01 X22.0498 Y29.5496
G01 X22.0498 Y30.4501
G01 X22.0461 Y30.5285
G01 X22.0451 Y30.5382
G01 X22.0334 Y30.6165
G01 X22.0145 Y30.6920
G01 X22.0117 Y30.7014
G01 X21.9852 Y30.7750
G01 X21.9517 Y30.8463
G01 X21.9471 Y30.8549
G01 X21.9066 Y30.9222
G01 X21.8599 Y30.9854
G01 X21.8537 Y30.9929
G01 X21.8009 Y31.0510
G01 X18.0498 Y34.8021
G01 X18.0498 Y45.0980
G01 X20.0520 Y47.1002
G01 X43.8479 Y47.1002
G01 X44.3351 Y46.6130
G01 X44.3351 Y45.5276
G01 X44.2703 Y45.4402
G01 X44.2177 Y45.3526
G01 X44.2131 Y45.3440
G01 X44.1687 Y45.2497
G01 X44.1327 Y45.1490
G01 X44.1076 Y45.0493
G01 X44.1057 Y45.0397
G01 X44.0907 Y44.9378
G01 X44.0854 Y44.8301
G01 X44.0904 Y44.7272
G01 X44.0913 Y44.7174
G01 X44.1067 Y44.6149
G01 X44.1315 Y44.5156
G01 X44.1343 Y44.5062
G01 X44.1690 Y44.4096
G01 X44.2154 Y44.3116
G01 X44.2681 Y44.2233
G01 X44.2736 Y44.2152
G01 X44.3356 Y44.1318
G01 X44.4041 Y44.0561
G01 X44.4110 Y44.0492
G01 X44.4867 Y43.9807
G01 X44.5731 Y43.9165
G01 X44.6624 Y43.8628
G01 X44.6710 Y43.8582
G01 X44.7653 Y43.8138
G01 X44.8651 Y43.7781
G01 X44.9657 Y43.7527
G01 X44.9753 Y43.7508
G01 X45.0772 Y43.7358
G01 X45.1849 Y43.7306
G01 X45.2921 Y43.7358
G01 X45.4001 Y43.7518
G01 X45.5048 Y43.7781
G01 X45.6012 Y43.8125
G01 X45.6102 Y43.8162
G01 X45.6989 Y43.8582
G01 X45.7075 Y43.8628
G01 X45.7955 Y43.9156
G01 X45.8832 Y43.9807
G01 X45.9624 Y44.0526
G01 X46.0343 Y44.1318
G01 X46.0996 Y44.2199
G01 X46.1522 Y44.3075
G01 X46.1568 Y44.3161
G01 X46.1988 Y44.4048
G01 X46.2025 Y44.4138
G01 X46.2372 Y44.5111
G01 X46.2632 Y44.6149
G01 X46.2792 Y44.7223
G01 X46.2844 Y44.8301
G01 X46.2793 Y44.9362
G01 X46.2642 Y45.0397
G01 X46.2623 Y45.0493
G01 X46.2384 Y45.1445
G01 X46.2356 Y45.1539
G01 X46.2009 Y45.2505
G01 X46.1568 Y45.3440
G01 X46.1522 Y45.3526
G01 X46.0992 Y45.4409
G01 X46.0348 Y45.5276
G01 X46.0348 Y46.9675
G01 X46.0308 Y47.0478
G01 X46.0184 Y47.1315
G01 X45.9982 Y47.2119
G01 X45.9702 Y47.2900
G01 X45.9344 Y47.3659
G01 X45.8918 Y47.4369
G01 X45.8413 Y47.5049
G01 X45.7876 Y47.5643
G01 X44.8009 Y48.5510
G01 X44.7428 Y48.6038
G01 X44.7353 Y48.6100
G01 X44.6761 Y48.6539
G01 X44.6680 Y48.6593
G01 X44.6011 Y48.6993
G01 X44.5241 Y48.7357
G01 X44.4464 Y48.7634
G01 X44.3705 Y48.7825
G01 X44.3609 Y48.7844
G01 X44.2881 Y48.7952
G01 X44.2784 Y48.7962
G01 X44.1999 Y48.7999
G01 X19.6999 Y48.7999
G01 X19.6172 Y48.7959
G01 X19.5335 Y48.7835
G01 X19.4531 Y48.7633
G01 X19.3750 Y48.7353
G01 X19.2997 Y48.6998
G01 X19.2278 Y48.6567
G01 X19.1601 Y48.6064
G01 X19.1007 Y48.5527
G01 X16.5973 Y46.0493
G01 X16.5436 Y45.9899
G01 X16.4961 Y45.9262
G01 X16.4907 Y45.9181
G01 X16.4506 Y45.8511
G01 X16.4167 Y45.7797
G01 X16.4130 Y45.7707
G01 X16.3866 Y45.6965
G01 X16.3665 Y45.6165
G01 X16.3542 Y45.5334
G01 X16.3501 Y45.4501
G01 X16.3501 Y34.4501
G01 X16.3541 Y34.3673
G01 X16.3657 Y34.2891
G00 Z0.5000
G00 X19.2397 Y37.5849
G01 F250.00
G01 Z-0.0400
G01 F2500.00
G01 X19.2440 Y37.5579
G01 X19.2487 Y37.5372
G01 X19.2845 Y37.3944
G01 X19.2919 Y37.3678
G01 X19.2986 Y37.3479
G01 X19.3482 Y37.2093
G01 X19.3488 Y37.2095
G01 X19.3563 Y37.1881
G01 X19.3668 Y37.1644
G01 X19.4297 Y37.0314
G01 X19.4302 Y37.0316
G01 X19.4412 Y37.0087
G01 X19.4526 Y36.9885
G01 X19.5283 Y36.8623
G01 X19.5413 Y36.8418
G01 X19.5553 Y36.8219
G01 X19.6429 Y36.7037
G01 X19.6608 Y36.6810
G01 X19.6738 Y36.6661
G01 X19.7726 Y36.5571
G01 X19.7894 Y36.5395
G01 X19.8070 Y36.5227
G01 X19.9160 Y36.4239
G01 X19.9309 Y36.4109
G01 X19.9536 Y36.3930
G01 X20.0718 Y36.3054
G01 X20.0720 Y36.3056
G01 X20.0950 Y36.2891
G01 X20.1122 Y36.2784
G01 X20.2384 Y36.2027
G01 X20.2571 Y36.1921
G01 X20.2813 Y36.1798
G01 X20.4143 Y36.1169
G01 X20.4420 Y36.1048
G01 X20.4592 Y36.0983
G01 X20.5978 Y36.0487
G01 X20.5980 Y36.0494
G01 X20.6177 Y36.0420
G01 X20.6443 Y36.0346
G01 X20.7871 Y35.9988
G01 X20.8078 Y35.9941
G01 X20.8347 Y35.9894
G01 X20.9803 Y35.9678
G01 X21.0044 Y35.9648
G01 X21.0286 Y35.9630
G01 X21.1757 Y35.9558
G01 X21.1999 Y35.9552
G01 X21.2242 Y35.9558
G01 X21.3713 Y35.9630
G01 X21.3926 Y35.9645
G01 X21.4196 Y35.9678
G01 X21.5652 Y35.9894
G01 X21.5651 Y35.9898
G01 X21.5921 Y35.9941
G01 X21.6128 Y35.9988
G01 X21.7556 Y36.0346
G01 X21.7822 Y36.0420
G01 X21.8021 Y36.0487
G01 X21.9407 Y36.0983
G01 X21.9405 Y36.0989
G01 X21.9620 Y36.1064
G01 X21.9856 Y36.1169
G01 X22.1186 Y36.1798
G01 X22.1183 Y36.1804
G01 X22.1385 Y36.1898
G01 X22.1615 Y36.2027
G01 X22.2877 Y36.2784
G01 X22.3082 Y36.2914
G01 X22.3281 Y36.3054
G01 X22.4463 Y36.3930
G01 X22.4690 Y36.4109
G01 X22.4839 Y36.4239
G01 X22.5929 Y36.5227
G01 X22.6105 Y36.5395
G01 X22.6273 Y36.5571
G01 X22.7261 Y36.6661
G01 X22.7391 Y36.6810
G01 X22.7578 Y36.7048
G01 X23.6842 Y36.7048
G01 X24.4844 Y35.9045
G01 X24.5020 Y35.8878
G01 X24.5566 Y35.8383
G01 X24.5714 Y35.8254
G01 X24.5941 Y35.8075
G01 X24.6533 Y35.7636
G01 X24.6537 Y35.7643
G01 X24.6681 Y35.7531
G01 X24.6936 Y35.7367
G01 X24.7568 Y35.6988
G01 X24.7754 Y35.6882
G01 X24.7996 Y35.6759
G01 X24.8662 Y35.6444
G01 X24.8939 Y35.6324
G01 X24.9111 Y35.6258
G01 X24.9804 Y35.6010
G01 X24.9806 Y35.6015
G01 X25.0046 Y35.5931
G01 X25.0269 Y35.5869
G01 X25.0983 Y35.5691
G01 X25.1190 Y35.5643
G01 X25.1459 Y35.5596
G01 X25.2188 Y35.5488
G01 X25.2429 Y35.5458
G01 X25.2671 Y35.5440
G01 X25.3528 Y35.5400
G01 X27.1291 Y35.5398
G01 X27.2190 Y35.4729
G01 X27.2195 Y35.4736
G01 X27.2339 Y35.4624
G01 X27.2594 Y35.4460
G01 X27.3520 Y35.3905
G01 X27.3706 Y35.3798
G01 X27.3948 Y35.3676
G01 X27.4924 Y35.3214
G01 X27.5201 Y35.3094
G01 X27.5373 Y35.3028
G01 X27.6389 Y35.2665
G01 X27.6391 Y35.2670
G01 X27.6631 Y35.2585
G01 X27.6854 Y35.2524
G01 X27.7901 Y35.2261
G01 X27.8108 Y35.2214
G01 X27.8377 Y35.2167
G01 X27.9445 Y35.2008
G01 X27.9686 Y35.1979
G01 X27.9928 Y35.1961
G01 X28.1007 Y35.1908
G01 X28.1249 Y35.1902
G01 X28.1492 Y35.1908
G01 X28.2571 Y35.1961
G01 X28.2784 Y35.1976
G01 X28.3054 Y35.2008
G01 X28.4122 Y35.2167
G01 X28.4121 Y35.2171
G01 X28.4391 Y35.2214
G01 X28.4598 Y35.2261
G01 X28.5645 Y35.2524
G01 X28.5911 Y35.2598
G01 X28.6110 Y35.2665
G01 X28.7126 Y35.3028
G01 X28.7124 Y35.3035
G01 X28.7339 Y35.3110
G01 X28.7575 Y35.3214
G01 X28.8551 Y35.3676
G01 X28.8548 Y35.3682
G01 X28.8750 Y35.3775
G01 X28.8979 Y35.3905
G01 X28.9905 Y35.4460
G01 X29.0093 Y35.4578
G01 X29.0309 Y35.4729
G01 X29.1176 Y35.5373
G01 X29.1403 Y35.5551
G01 X29.1551 Y35.5681
G01 X29.2351 Y35.6406
G01 X29.2527 Y35.6573
G01 X29.2694 Y35.6749
G01 X29.3419 Y35.7549
G01 X29.3549 Y35.7697
G01 X29.3727 Y35.7924
G01 X29.4371 Y35.8791
G01 X29.4368 Y35.8793
G01 X29.4533 Y35.9024
G01 X29.4640 Y35.9195
G01 X29.5195 Y36.0121
G01 X29.5304 Y36.0312
G01 X29.5424 Y36.0549
G01 X29.5886 Y36.1525
G01 X29.6006 Y36.1802
G01 X29.6072 Y36.1974
G01 X29.6435 Y36.2990
G01 X29.6430 Y36.2992
G01 X29.6515 Y36.3232
G01 X29.6576 Y36.3455
G01 X29.6839 Y36.4502
G01 X29.6886 Y36.4709
G01 X29.6933 Y36.4978
G01 X29.7092 Y36.6046
G01 X29.7121 Y36.6287
G01 X29.7139 Y36.6529
G01 X29.7192 Y36.7608
G01 X29.7198 Y36.7851
G01 X29.7192 Y36.8093
G01 X29.7139 Y36.9172
G01 X29.7124 Y36.9332
G01 X29.7129 Y36.9332
G01 X29.7092 Y36.9655
G01 X29.6933 Y37.0723
G01 X29.6929 Y37.0722
G01 X29.6886 Y37.0992
G01 X29.6839 Y37.1199
G01 X29.6576 Y37.2246
G01 X29.6509 Y37.2487
G01 X29.6435 Y37.2711
G01 X29.6072 Y37.3727
G01 X29.6065 Y37.3725
G01 X29.5990 Y37.3940
G01 X29.5886 Y37.4176
G01 X29.5424 Y37.5152
G01 X29.5419 Y37.5149
G01 X29.5310 Y37.5379
G01 X29.5195 Y37.5580
G01 X29.4640 Y37.6506
G01 X29.4510 Y37.6711
G01 X29.4371 Y37.6910
G01 X29.3727 Y37.7777
G01 X29.3549 Y37.8004
G01 X29.3419 Y37.8152
G01 X29.2694 Y37.8952
G01 X29.2527 Y37.9128
G01 X29.2351 Y37.9295
G01 X29.1551 Y38.0020
G01 X29.1403 Y38.0150
G01 X29.1176 Y38.0328
G01 X29.0309 Y38.0972
G01 X29.0304 Y38.0965
G01 X29.0160 Y38.1077
G01 X28.9905 Y38.1241
G01 X28.8979 Y38.1796
G01 X28.8793 Y38.1903
G01 X28.8551 Y38.2025
G01 X28.7575 Y38.2487
G01 X28.7298 Y38.2607
G01 X28.7126 Y38.2673
G01 X28.6110 Y38.3036
G01 X28.6107 Y38.3029
G01 X28.5911 Y38.3103
G01 X28.5645 Y38.3177
G01 X28.4598 Y38.3440
G01 X28.4391 Y38.3487
G01 X28.4122 Y38.3534
G01 X28.3054 Y38.3693
G01 X28.2813 Y38.3722
G01 X28.2571 Y38.3740
G01 X28.1492 Y38.3793
G01 X28.1249 Y38.3799
G01 X28.1007 Y38.3793
G01 X27.9928 Y38.3740
G01 X27.9715 Y38.3725
G01 X27.9445 Y38.3693
G01 X27.8377 Y38.3534
G01 X27.8378 Y38.3530
G01 X27.8108 Y38.3487
G01 X27.7901 Y38.3440
G01 X27.6854 Y38.3177
G01 X27.6613 Y38.3110
G01 X27.6389 Y38.3036
G01 X27.5373 Y38.2673
G01 X27.5375 Y38.2666
G01 X27.5160 Y38.2591
G01 X27.4924 Y38.2487
G01 X27.3948 Y38.2025
G01 X27.3951 Y38.2019
G01 X27.3749 Y38.1926
G01 X27.3520 Y38.1796
G01 X27.2594 Y38.1241
G01 X27.2406 Y38.1123
G01 X27.2190 Y38.0972
G01 X27.1291 Y38.0303
G01 X25.8807 Y38.0303
G01 X25.0805 Y38.8306
G01 X25.0629 Y38.8473
G01 X25.0083 Y38.8968
G01 X24.9935 Y38.9097
G01 X24.9708 Y38.9276
G01 X24.9116 Y38.9715
G01 X24.9114 Y38.9712
G01 X24.8884 Y38.9877
G01 X24.8713 Y38.9984
G01 X24.8081 Y39.0363
G01 X24.7895 Y39.0469
G01 X24.7653 Y39.0592
G01 X24.6987 Y39.0907
G01 X24.6710 Y39.1027
G01 X24.6538 Y39.1093
G01 X24.5845 Y39.1341
G01 X24.5843 Y39.1336
G01 X24.5603 Y39.1420
G01 X24.5380 Y39.1482
G01 X24.4666 Y39.1660
G01 X24.4459 Y39.1708
G01 X24.4190 Y39.1755
G01 X24.3461 Y39.1863
G01 X24.3220 Y39.1893
G01 X24.2978 Y39.1911
G01 X24.2242 Y39.1947
G01 X24.1999 Y39.1953
G01 X22.7578 Y39.1953
G01 X22.7391 Y39.2191
G01 X22.7261 Y39.2340
G01 X22.6273 Y39.3430
G01 X22.6105 Y39.3606
G01 X22.5929 Y39.3774
G01 X22.4839 Y39.4762
G01 X22.4690 Y39.4892
G01 X22.4463 Y39.5071
G01 X22.3281 Y39.5947
G01 X22.3279 Y39.5945
G01 X22.3049 Y39.6110
G01 X22.2877 Y39.6217
G01 X22.1615 Y39.6974
G01 X22.1428 Y39.7080
G01 X22.1186 Y39.7203
G01 X21.9856 Y39.7832
G01 X21.9579 Y39.7953
G01 X21.9407 Y39.8018
G01 X21.8021 Y39.8514
G01 X21.8019 Y39.8507
G01 X21.7822 Y39.8581
G01 X21.7556 Y39.8655
G01 X21.6128 Y39.9013
G01 X21.5921 Y39.9060
G01 X21.5652 Y39.9107
G01 X21.4196 Y39.9323
G01 X21.3955 Y39.9353
G01 X21.3713 Y39.9371
G01 X21.2242 Y39.9443
G01 X21.1999 Y39.9449
G01 X21.1757 Y39.9443
G01 X21.0286 Y39.9371
G01 X21.0073 Y39.9356
G01 X20.9803 Y39.9323
G01 X20.8347 Y39.9107
G01 X20.8348 Y39.9103
G01 X20.8078 Y39.9060
G01 X20.7871 Y39.9013
G01 X20.6443 Y39.8655
G01 X20.6177 Y39.8581
G01 X20.5978 Y39.8514
G01 X20.4592 Y39.8018
G01 X20.4594 Y39.8012
G01 X20.4379 Y39.7937
G01 X20.4143 Y39.7832
G01 X20.2813 Y39.7203
G01 X20.2816 Y39.7197
G01 X20.2614 Y39.7103
G01 X20.2384 Y39.6974
G01 X20.1122 Y39.6217
G01 X20.0917 Y39.6087
G01 X20.0718 Y39.5947
G01 X19.9536 Y39.5071
G01 X19.9309 Y39.4892
G01 X19.9160 Y39.4762
G01 X19.8070 Y39.3774
G01 X19.7894 Y39.3606
G01 X19.7726 Y39.3430
G01 X19.6738 Y39.2340
G01 X19.6608 Y39.2191
G01 X19.6429 Y39.1964
G01 X19.5553 Y39.0782
G01 X19.5555 Y39.0780
G01 X19.5390 Y39.0550
G01 X19.5283 Y39.0378
G01 X19.4526 Y38.9116
G01 X19.4417 Y38.8925
G01 X19.4297 Y38.8687
G01 X19.3668 Y38.7357
G01 X19.3547 Y38.7080
G01 X19.3482 Y38.6908
G01 X19.2986 Y38.5522
G01 X19.2993 Y38.5520
G01 X19.2919 Y38.5323
G01 X19.2845 Y38.5057
G01 X19.2487 Y38.3629
G01 X19.2440 Y38.3422
G01 X19.2393 Y38.3153
G01 X19.2177 Y38.1697
G01 X19.2147 Y38.1456
G01 X19.2129 Y38.1214
G01 X19.2057 Y37.9743
G01 X19.2051 Y37.9501
G01 X19.2057 Y37.9258
G01 X19.2129 Y37.7787
G01 X19.2144 Y37.7574
G01 X19.2177 Y37.7304
G01 X19.2393 Y37.5848
G01 X19.2397 Y37.5849
G00 Z0.5000
G00 X19.4351 Y37.6138
G01 F250.00
G01 Z-0.0400
G01 F2500.00
G01 X19.4377 Y37.5976
G01 X19.4405 Y37.5852
G01 X19.4763 Y37.4424
G01 X19.4807 Y37.4265
G01 X19.5343 Y37.2759
G01 X19.5347 Y37.2760
G01 X19.5392 Y37.2631
G01 X19.5455 Y37.2490
G01 X19.6084 Y37.1159
G01 X19.6087 Y37.1160
G01 X19.6153 Y37.1023
G01 X19.6222 Y37.0902
G01 X19.6978 Y36.9639
G01 X19.7056 Y36.9516
G01 X19.7140 Y36.9397
G01 X19.8017 Y36.8214
G01 X19.8125 Y36.8078
G01 X19.8202 Y36.7989
G01 X19.9191 Y36.6898
G01 X19.9291 Y36.6792
G01 X19.9397 Y36.6692
G01 X20.0488 Y36.5703
G01 X20.0577 Y36.5626
G01 X20.0713 Y36.5518
G01 X20.1896 Y36.4641
G01 X20.2035 Y36.4544
G01 X20.3401 Y36.3723
G01 X20.3513 Y36.3659
G01 X20.3658 Y36.3585
G01 X20.4989 Y36.2956
G01 X20.5155 Y36.2883
G01 X20.5258 Y36.2844
G01 X20.6644 Y36.2348
G01 X20.6646 Y36.2352
G01 X20.6764 Y36.2308
G01 X20.6923 Y36.2264
G01 X20.8351 Y36.1906
G01 X20.8475 Y36.1878
G01 X20.8637 Y36.1849
G01 X21.0093 Y36.1633
G01 X21.0238 Y36.1615
G01 X21.0383 Y36.1604
G01 X21.1854 Y36.1532
G01 X21.1999 Y36.1529
G01 X21.2145 Y36.1532
G01 X21.3616 Y36.1604
G01 X21.3744 Y36.1614
G01 X21.3906 Y36.1633
G01 X21.5362 Y36.1849
G01 X21.5362 Y36.1852
G01 X21.5524 Y36.1878
G01 X21.5648 Y36.1906
G01 X21.7076 Y36.2264
G01 X21.7235 Y36.2308
G01 X21.7355 Y36.2348
G01 X21.8741 Y36.2844
G01 X21.8740 Y36.2848
G01 X21.8869 Y36.2893
G01 X21.9010 Y36.2956
G01 X22.0341 Y36.3585
G01 X22.0339 Y36.3589
G01 X22.0461 Y36.3645
G01 X22.0598 Y36.3723
G01 X22.1861 Y36.4479
G01 X22.1984 Y36.4557
G01 X22.2103 Y36.4641
G01 X22.3286 Y36.5518
G01 X22.3422 Y36.5626
G01 X22.4602 Y36.6692
G01 X22.4708 Y36.6792
G01 X22.4808 Y36.6898
G01 X22.5874 Y36.8078
G01 X22.5982 Y36.8214
G01 X22.6583 Y36.9025
G01 X23.7660 Y36.9025
G01 X24.6242 Y36.0443
G01 X24.6348 Y36.0343
G01 X24.6982 Y35.9770
G01 X24.7119 Y35.9663
G01 X24.7710 Y35.9224
G01 X24.7713 Y35.9228
G01 X24.7799 Y35.9161
G01 X24.7953 Y35.9062
G01 X24.8696 Y35.8620
G01 X24.8842 Y35.8546
G01 X24.9507 Y35.8231
G01 X24.9673 Y35.8159
G01 X25.0470 Y35.7872
G01 X25.0471 Y35.7875
G01 X25.0615 Y35.7824
G01 X25.0749 Y35.7787
G01 X25.1463 Y35.7608
G01 X25.1588 Y35.7580
G01 X25.1750 Y35.7551
G01 X25.2478 Y35.7443
G01 X25.2623 Y35.7425
G01 X25.2768 Y35.7415
G01 X25.3577 Y35.7376
G01 X27.2022 Y35.7375
G01 X27.2364 Y35.7068
G01 X27.2501 Y35.6960
G01 X27.3368 Y35.6317
G01 X27.3371 Y35.6321
G01 X27.3457 Y35.6254
G01 X27.3610 Y35.6155
G01 X27.4648 Y35.5536
G01 X27.4793 Y35.5463
G01 X27.5769 Y35.5001
G01 X27.5936 Y35.4929
G01 X27.6039 Y35.4890
G01 X27.7055 Y35.4526
G01 X27.7056 Y35.4529
G01 X27.7200 Y35.4478
G01 X27.7334 Y35.4441
G01 X27.8506 Y35.4151
G01 X27.8667 Y35.4122
G01 X27.9735 Y35.3964
G01 X27.9880 Y35.3946
G01 X28.0025 Y35.3935
G01 X28.1104 Y35.3882
G01 X28.1249 Y35.3879
G01 X28.1395 Y35.3882
G01 X28.2602 Y35.3944
G01 X28.2764 Y35.3964
G01 X28.3832 Y35.4122
G01 X28.3831 Y35.4125
G01 X28.3993 Y35.4151
G01 X28.5165 Y35.4441
G01 X28.5324 Y35.4486
G01 X28.6460 Y35.4890
G01 X28.6459 Y35.4893
G01 X28.6588 Y35.4939
G01 X28.6730 Y35.5001
G01 X28.7705 Y35.5463
G01 X28.7704 Y35.5467
G01 X28.7825 Y35.5523
G01 X28.7963 Y35.5600
G01 X28.8889 Y35.6155
G01 X28.9002 Y35.6227
G01 X28.9131 Y35.6317
G01 X28.9998 Y35.6960
G01 X29.0135 Y35.7068
G01 X29.1023 Y35.7870
G01 X29.1129 Y35.7971
G01 X29.1230 Y35.8077
G01 X29.2032 Y35.8965
G01 X29.2140 Y35.9102
G01 X29.2783 Y35.9969
G01 X29.2880 Y36.0108
G01 X29.3500 Y36.1137
G01 X29.3565 Y36.1252
G01 X29.3637 Y36.1395
G01 X29.4099 Y36.2370
G01 X29.4171 Y36.2537
G01 X29.4574 Y36.3656
G01 X29.4571 Y36.3657
G01 X29.4622 Y36.3801
G01 X29.4659 Y36.3935
G01 X29.4949 Y36.5107
G01 X29.4978 Y36.5268
G01 X29.5136 Y36.6336
G01 X29.5154 Y36.6481
G01 X29.5165 Y36.6626
G01 X29.5218 Y36.7705
G01 X29.5221 Y36.7851
G01 X29.5218 Y36.7996
G01 X29.5165 Y36.9075
G01 X29.5155 Y36.9171
G01 X29.5159 Y36.9171
G01 X29.5136 Y36.9365
G01 X29.4978 Y37.0433
G01 X29.4975 Y37.0432
G01 X29.4949 Y37.0594
G01 X29.4921 Y37.0719
G01 X29.4659 Y37.1766
G01 X29.4619 Y37.1910
G01 X29.4574 Y37.2045
G01 X29.4210 Y37.3061
G01 X29.4207 Y37.3060
G01 X29.4161 Y37.3189
G01 X29.4099 Y37.3331
G01 X29.3637 Y37.4307
G01 X29.3634 Y37.4305
G01 X29.3568 Y37.4443
G01 X29.3500 Y37.4564
G01 X29.2945 Y37.5490
G01 X29.2867 Y37.5613
G01 X29.2783 Y37.5732
G01 X29.2140 Y37.6599
G01 X29.2032 Y37.6736
G01 X29.1955 Y37.6825
G01 X29.1230 Y37.7624
G01 X29.1129 Y37.7730
G01 X29.1023 Y37.7831
G01 X29.0135 Y37.8633
G01 X28.9998 Y37.8741
G01 X28.9131 Y37.9384
G01 X28.9128 Y37.9380
G01 X28.9042 Y37.9447
G01 X28.8889 Y37.9546
G01 X28.7963 Y38.0101
G01 X28.7851 Y38.0165
G01 X28.7705 Y38.0238
G01 X28.6730 Y38.0700
G01 X28.6563 Y38.0772
G01 X28.5444 Y38.1175
G01 X28.5442 Y38.1171
G01 X28.5324 Y38.1215
G01 X28.5165 Y38.1260
G01 X28.3993 Y38.1550
G01 X28.3832 Y38.1579
G01 X28.2764 Y38.1737
G01 X28.2619 Y38.1755
G01 X28.2474 Y38.1766
G01 X28.1395 Y38.1819
G01 X28.1249 Y38.1822
G01 X28.1104 Y38.1819
G01 X27.9897 Y38.1757
G01 X27.9735 Y38.1737
G01 X27.8667 Y38.1579
G01 X27.8668 Y38.1576
G01 X27.8506 Y38.1550
G01 X27.8381 Y38.1522
G01 X27.7334 Y38.1260
G01 X27.7190 Y38.1220
G01 X27.7055 Y38.1175
G01 X27.6039 Y38.0811
G01 X27.6040 Y38.0808
G01 X27.5911 Y38.0762
G01 X27.5769 Y38.0700
G01 X27.4793 Y38.0238
G01 X27.4795 Y38.0234
G01 X27.4674 Y38.0178
G01 X27.4536 Y38.0101
G01 X27.3610 Y37.9546
G01 X27.3497 Y37.9474
G01 X27.3368 Y37.9384
G01 X27.2501 Y37.8741
G01 X27.2364 Y37.8633
G01 X27.2022 Y37.8326
G01 X25.7989 Y37.8326
G01 X24.9407 Y38.6908
G01 X24.9301 Y38.7008
G01 X24.8756 Y38.7503
G01 X24.8667 Y38.7581
G01 X24.8530 Y38.7688
G01 X24.7939 Y38.8127
G01 X24.7799 Y38.8224
G01 X24.7696 Y38.8289
G01 X24.6953 Y38.8731
G01 X24.6807 Y38.8805
G01 X24.6142 Y38.9120
G01 X24.5976 Y38.9192
G01 X24.5179 Y38.9479
G01 X24.5178 Y38.9476
G01 X24.5034 Y38.9527
G01 X24.4900 Y38.9564
G01 X24.4061 Y38.9771
G01 X24.3899 Y38.9800
G01 X24.3171 Y38.9908
G01 X24.3026 Y38.9926
G01 X24.2881 Y38.9936
G01 X24.2145 Y38.9973
G01 X24.1999 Y38.9976
G01 X22.6583 Y38.9976
G01 X22.5982 Y39.0787
G01 X22.5874 Y39.0923
G01 X22.4808 Y39.2103
G01 X22.4708 Y39.2209
G01 X22.4602 Y39.2309
G01 X22.3511 Y39.3298
G01 X22.3422 Y39.3375
G01 X22.3286 Y39.3483
G01 X22.2103 Y39.4360
G01 X22.1964 Y39.4457
G01 X22.0598 Y39.5278
G01 X22.0486 Y39.5342
G01 X22.0341 Y39.5416
G01 X21.9010 Y39.6045
G01 X21.8844 Y39.6118
G01 X21.7355 Y39.6653
G01 X21.7353 Y39.6649
G01 X21.7235 Y39.6693
G01 X21.7076 Y39.6737
G01 X21.5648 Y39.7095
G01 X21.5524 Y39.7123
G01 X21.5362 Y39.7152
G01 X21.3906 Y39.7368
G01 X21.3761 Y39.7386
G01 X21.3616 Y39.7397
G01 X21.2145 Y39.7469
G01 X21.1999 Y39.7472
G01 X21.1854 Y39.7469
G01 X21.0383 Y39.7397
G01 X21.0255 Y39.7387
G01 X21.0093 Y39.7368
G01 X20.8637 Y39.7152
G01 X20.8637 Y39.7149
G01 X20.8475 Y39.7123
G01 X20.8351 Y39.7095
G01 X20.6923 Y39.6737
G01 X20.6764 Y39.6693
G01 X20.6644 Y39.6653
G01 X20.5258 Y39.6157
G01 X20.5259 Y39.6153
G01 X20.5130 Y39.6108
G01 X20.4989 Y39.6045
G01 X20.3658 Y39.5416
G01 X20.3660 Y39.5412
G01 X20.3538 Y39.5356
G01 X20.3401 Y39.5278
G01 X20.2138 Y39.4522
G01 X20.2015 Y39.4444
G01 X20.1896 Y39.4360
G01 X20.0713 Y39.3483
G01 X20.0577 Y39.3375
G01 X19.9397 Y39.2309
G01 X19.9291 Y39.2209
G01 X19.9191 Y39.2103
G01 X19.8202 Y39.1012
G01 X19.8125 Y39.0923
G01 X19.8017 Y39.0787
G01 X19.7140 Y38.9604
G01 X19.7043 Y38.9465
G01 X19.6222 Y38.8099
G01 X19.6156 Y38.7985
G01 X19.6084 Y38.7842
G01 X19.5455 Y38.6511
G01 X19.5382 Y38.6345
G01 X19.4847 Y38.4856
G01 X19.4851 Y38.4854
G01 X19.4807 Y38.4736
G01 X19.4763 Y38.4577
G01 X19.4405 Y38.3149
G01 X19.4377 Y38.3025
G01 X19.4348 Y38.2863
G01 X19.4132 Y38.1407
G01 X19.4114 Y38.1262
G01 X19.4103 Y38.1117
G01 X19.4031 Y37.9646
G01 X19.4028 Y37.9501
G01 X19.4031 Y37.9355
G01 X19.4103 Y37.7884
G01 X19.4113 Y37.7756
G01 X19.4132 Y37.7594
G01 X19.4348 Y37.6138
G01 X19.4351 Y37.6138
G00 Z0.5000
G00 X19.6304 Y37.6428
G01 F250.00
G01 Z-0.0400
G01 F2500.00
G01 X19.6323 Y37.6332
G01 X19.6680 Y37.4904
G01 X19.6709 Y37.4811
G01 X19.7221 Y37.3382
G01 X19.7894 Y37.1959
G01 X19.8700 Y37.0614
G01 X19.9605 Y36.9392
G01 X19.9667 Y36.9316
G01 X20.0689 Y36.8190
G01 X20.1815 Y36.7168
G01 X20.1891 Y36.7106
G01 X20.3120 Y36.6197
G01 X20.4454 Y36.5397
G01 X20.5834 Y36.4743
G01 X20.5924 Y36.4705
G01 X20.7350 Y36.4196
G01 X20.8831 Y36.3824
G01 X20.8927 Y36.3804
G01 X21.0383 Y36.3588
G01 X21.0480 Y36.3579
G01 X21.1999 Y36.3506
G01 X21.3561 Y36.3582
G01 X21.5072 Y36.3804
G01 X21.5168 Y36.3824
G01 X21.6649 Y36.4196
G01 X21.8118 Y36.4722
G01 X21.9536 Y36.5392
G01 X22.0845 Y36.6175
G01 X22.0926 Y36.6229
G01 X22.2154 Y36.7142
G01 X22.3310 Y36.8190
G01 X22.4332 Y36.9316
G01 X22.4394 Y36.9392
G01 X22.5271 Y37.0574
G01 X22.5325 Y37.0655
G01 X22.5533 Y37.1002
G01 X23.8479 Y37.1002
G01 X24.7675 Y36.1807
G01 X24.8251 Y36.1287
G01 X24.8918 Y36.0791
G01 X24.9638 Y36.0358
G01 X25.0353 Y36.0018
G01 X25.0443 Y35.9981
G01 X25.1185 Y35.9717
G01 X25.1985 Y35.9516
G01 X25.2816 Y35.9393
G01 X25.3625 Y35.9352
G01 X27.2786 Y35.9352
G01 X27.3633 Y35.8584
G01 X27.4575 Y35.7884
G01 X27.5590 Y35.7275
G01 X27.6615 Y35.6788
G01 X27.6705 Y35.6751
G01 X27.7721 Y35.6387
G01 X27.7815 Y35.6359
G01 X27.8903 Y35.6087
G01 X28.0074 Y35.5913
G01 X28.1249 Y35.5856
G01 X28.2419 Y35.5913
G01 X28.3596 Y35.6087
G01 X28.4738 Y35.6374
G01 X28.5837 Y35.6767
G01 X28.6900 Y35.7270
G01 X28.7910 Y35.7875
G01 X28.8866 Y35.8584
G01 X28.9731 Y35.9369
G01 X29.0516 Y36.0234
G01 X29.1227 Y36.1193
G01 X29.1826 Y36.2192
G01 X29.2336 Y36.3271
G01 X29.2729 Y36.4371
G01 X29.3013 Y36.5504
G01 X29.3187 Y36.6675
G01 X29.3244 Y36.7851
G01 X29.3190 Y36.8978
G01 X29.3181 Y36.9075
G01 X29.3022 Y37.0142
G01 X29.3003 Y37.0238
G01 X29.2728 Y37.1334
G01 X29.2333 Y37.2438
G01 X29.1827 Y37.3507
G01 X29.1249 Y37.4473
G01 X29.1195 Y37.4554
G01 X29.0552 Y37.5422
G01 X29.0490 Y37.5497
G01 X28.9731 Y37.6332
G01 X28.8866 Y37.7117
G01 X28.7924 Y37.7817
G01 X28.6946 Y37.8405
G01 X28.6860 Y37.8451
G01 X28.5884 Y37.8913
G01 X28.5794 Y37.8950
G01 X28.4738 Y37.9327
G01 X28.3637 Y37.9604
G01 X28.3541 Y37.9623
G01 X28.2425 Y37.9788
G01 X28.1249 Y37.9846
G01 X28.0122 Y37.9791
G01 X28.0025 Y37.9782
G01 X27.8903 Y37.9614
G01 X27.7766 Y37.9329
G01 X27.6705 Y37.8950
G01 X27.6615 Y37.8913
G01 X27.5599 Y37.8431
G01 X27.4627 Y37.7850
G01 X27.4546 Y37.7796
G01 X27.3633 Y37.7117
G01 X27.2786 Y37.6349
G01 X25.7170 Y37.6349
G01 X24.7974 Y38.5544
G01 X24.7398 Y38.6064
G01 X24.6714 Y38.6571
G01 X24.6011 Y38.6993
G01 X24.5296 Y38.7333
G01 X24.5206 Y38.7370
G01 X24.4464 Y38.7634
G01 X24.3664 Y38.7835
G01 X24.2833 Y38.7958
G01 X24.2024 Y38.7999
G01 X22.5533 Y38.7999
G01 X22.5325 Y38.8346
G01 X22.5271 Y38.8427
G01 X22.4358 Y38.9655
G01 X22.3310 Y39.0811
G01 X22.2154 Y39.1859
G01 X22.0926 Y39.2772
G01 X22.0845 Y39.2826
G01 X21.9582 Y39.3583
G01 X21.9496 Y39.3629
G01 X21.8110 Y39.4282
G01 X21.6689 Y39.4791
G01 X21.6596 Y39.4820
G01 X21.5126 Y39.5187
G01 X21.3567 Y39.5418
G01 X21.1999 Y39.5496
G01 X21.0480 Y39.5422
G01 X21.0383 Y39.5413
G01 X20.8873 Y39.5187
G01 X20.7403 Y39.4820
G01 X20.7310 Y39.4791
G01 X20.5924 Y39.4296
G01 X20.5834 Y39.4258
G01 X20.4463 Y39.3609
G01 X20.3113 Y39.2800
G01 X20.1845 Y39.1859
G01 X20.0725 Y39.0844
G01 X20.0656 Y39.0775
G01 X19.9667 Y38.9685
G01 X19.9605 Y38.9609
G01 X19.8696 Y38.8380
G01 X19.7917 Y38.7083
G01 X19.7871 Y38.6997
G01 X19.7218 Y38.5611
G01 X19.6695 Y38.4150
G01 X19.6313 Y38.2627
G01 X19.6087 Y38.1117
G01 X19.6078 Y38.1020
G01 X19.6004 Y37.9501
G01 X19.6078 Y37.7981
G01 X19.6087 Y37.7884
G01 X19.6304 Y37.6428
G00 Z0.5000
G00 X26.9477 Y44.1759
G01 F250.00
G01 Z-0.0400
G01 F2500.00
G01 X26.9496 Y44.1663
G01 X26.9758 Y44.0616
G01 X26.9786 Y44.0522
G01 X27.0166 Y43.9463
G01 X27.0649 Y43.8440
G01 X27.0695 Y43.8354
G01 X27.1274 Y43.7390
G01 X27.1983 Y43.6434
G01 X27.2768 Y43.5569
G01 X27.3633 Y43.4784
G01 X27.4575 Y43.4084
G01 X27.5553 Y43.3496
G01 X27.5639 Y43.3450
G01 X27.6615 Y43.2988
G01 X27.6705 Y43.2951
G01 X27.7770 Y43.2571
G01 X27.8903 Y43.2287
G01 X28.0074 Y43.2113
G01 X28.1201 Y43.2057
G01 X28.1298 Y43.2057
G01 X28.2419 Y43.2113
G01 X28.3596 Y43.2287
G01 X28.4738 Y43.2574
G01 X28.5837 Y43.2967
G01 X28.6900 Y43.3470
G01 X28.7910 Y43.4075
G01 X28.8866 Y43.4784
G01 X28.9713 Y43.5552
G01 X30.1574 Y43.5552
G01 X30.2334 Y43.5589
G01 X30.2431 Y43.5599
G01 X30.3214 Y43.5716
G01 X30.3969 Y43.5905
G01 X30.4063 Y43.5933
G01 X30.4756 Y43.6181
G01 X30.4846 Y43.6218
G01 X30.5552 Y43.6553
G01 X30.6230 Y43.6958
G01 X30.6311 Y43.7012
G01 X30.6948 Y43.7487
G01 X30.7524 Y43.8007
G01 X30.9320 Y43.9802
G01 X41.9474 Y43.9802
G01 X42.0348 Y43.9154
G01 X42.1261 Y43.8606
G01 X42.2253 Y43.8138
G01 X42.3211 Y43.7794
G01 X42.3305 Y43.7766
G01 X42.4298 Y43.7518
G01 X42.5323 Y43.7364
G01 X42.5421 Y43.7355
G01 X42.6401 Y43.7307
G01 X42.6498 Y43.7307
G01 X42.7521 Y43.7358
G01 X42.8601 Y43.7518
G01 X42.9643 Y43.7779
G01 X43.0654 Y43.8141
G01 X43.1629 Y43.8602
G01 X43.2555 Y43.9156
G01 X43.3432 Y43.9807
G01 X43.4224 Y44.0526
G01 X43.4943 Y44.1318
G01 X43.5596 Y44.2199
G01 X43.6144 Y44.3113
G01 X43.6612 Y44.4104
G01 X43.6972 Y44.5111
G01 X43.7232 Y44.6149
G01 X43.7392 Y44.7223
G01 X43.7443 Y44.8252
G01 X43.7443 Y44.8349
G01 X43.7393 Y44.9362
G01 X43.7232 Y45.0452
G01 X43.6971 Y45.1494
G01 X43.6609 Y45.2505
G01 X43.6145 Y45.3486
G01 X43.5594 Y45.4406
G01 X43.4943 Y45.5283
G01 X43.4258 Y45.6040
G01 X43.4189 Y45.6109
G01 X43.3432 Y45.6794
G01 X43.2568 Y45.7436
G01 X43.1638 Y45.7995
G01 X43.0702 Y45.8439
G01 X43.0612 Y45.8476
G01 X42.9688 Y45.8807
G01 X42.9594 Y45.8835
G01 X42.8601 Y45.9083
G01 X42.7576 Y45.9237
G01 X42.7478 Y45.9246
G01 X42.6449 Y45.9296
G01 X42.5378 Y45.9243
G01 X42.4298 Y45.9083
G01 X42.3251 Y45.8820
G01 X42.2245 Y45.8460
G01 X42.1270 Y45.7999
G01 X42.0341 Y45.7443
G01 X41.9474 Y45.6799
G01 X30.5799 Y45.6799
G01 X30.5015 Y45.6762
G01 X30.4918 Y45.6752
G01 X30.4135 Y45.6635
G01 X30.3380 Y45.6446
G01 X30.3286 Y45.6418
G01 X30.2593 Y45.6170
G01 X30.2503 Y45.6133
G01 X30.1797 Y45.5798
G01 X30.1119 Y45.5393
G01 X30.1038 Y45.5339
G01 X30.0401 Y45.4864
G01 X29.9825 Y45.4344
G01 X29.8029 Y45.2549
G01 X28.9713 Y45.2549
G01 X28.8866 Y45.3317
G01 X28.7924 Y45.4017
G01 X28.6909 Y45.4626
G01 X28.5829 Y45.5137
G01 X28.4729 Y45.5530
G01 X28.3596 Y45.5814
G01 X28.2425 Y45.5988
G01 X28.1298 Y45.6044
G01 X28.1201 Y45.6044
G01 X28.0122 Y45.5991
G01 X28.0025 Y45.5982
G01 X27.8903 Y45.5814
G01 X27.7815 Y45.5542
G01 X27.7721 Y45.5514
G01 X27.6662 Y45.5134
G01 X27.5639 Y45.4651
G01 X27.5553 Y45.4605
G01 X27.4589 Y45.4026
G01 X27.3633 Y45.3317
G01 X27.2768 Y45.2532
G01 X27.1983 Y45.1667
G01 X27.1272 Y45.0708
G01 X27.0673 Y44.9709
G01 X27.0163 Y44.8630
G01 X26.9786 Y44.7579
G01 X26.9758 Y44.7485
G01 X26.9486 Y44.6397
G01 X26.9318 Y44.5275
G01 X26.9309 Y44.5178
G01 X26.9256 Y44.4099
G01 X26.9256 Y44.4002
G01 X26.9312 Y44.2881
G01 X26.9477 Y44.1759
G00 Z0.5000
G00 X27.0727 Y50.2009
G01 F250.00
G01 Z-0.0400
G01 F2500.00
G01 X27.0746 Y50.1913
G01 X27.1008 Y50.0866
G01 X27.1036 Y50.0772
G01 X27.1416 Y49.9713
G01 X27.1899 Y49.8690
G01 X27.1945 Y49.8604
G01 X27.2524 Y49.7640
G01 X27.3233 Y49.6684
G01 X27.4018 Y49.5819
G01 X27.4853 Y49.5060
G01 X27.4928 Y49.4998
G01 X27.5825 Y49.4334
G01 X27.6840 Y49.3725
G01 X27.7920 Y49.3214
G01 X27.9020 Y49.2821
G01 X28.0153 Y49.2537
G01 X28.1324 Y49.2363
G01 X28.2499 Y49.2306
G01 X28.3627 Y49.2360
G01 X28.3724 Y49.2369
G01 X28.4846 Y49.2537
G01 X28.5983 Y49.2822
G01 X28.7087 Y49.3217
G01 X28.8110 Y49.3700
G01 X28.8196 Y49.3746
G01 X28.9122 Y49.4301
G01 X28.9203 Y49.4355
G01 X29.0116 Y49.5034
G01 X29.0963 Y49.5802
G01 X30.6799 Y49.5802
G01 X30.7584 Y49.5839
G01 X30.7681 Y49.5849
G01 X30.8464 Y49.5966
G01 X30.9273 Y49.6170
G01 X31.0049 Y49.6448
G01 X31.0802 Y49.6803
G01 X31.1480 Y49.7208
G01 X31.1561 Y49.7262
G01 X31.2198 Y49.7737
G01 X31.2792 Y49.8274
G01 X33.0520 Y51.6002
G01 X41.9474 Y51.6002
G01 X42.0348 Y51.5354
G01 X42.1261 Y51.4806
G01 X42.2253 Y51.4338
G01 X42.3260 Y51.3978
G01 X42.4298 Y51.3718
G01 X42.5372 Y51.3558
G01 X42.6449 Y51.3506
G01 X42.7521 Y51.3558
G01 X42.8601 Y51.3718
G01 X42.9643 Y51.3979
G01 X43.0654 Y51.4341
G01 X43.1629 Y51.4802
G01 X43.2555 Y51.5356
G01 X43.3432 Y51.6007
G01 X43.4224 Y51.6726
G01 X43.4943 Y51.7518
G01 X43.5596 Y51.8399
G01 X43.6144 Y51.9313
G01 X43.6612 Y52.0304
G01 X43.6972 Y52.1311
G01 X43.7232 Y52.2349
G01 X43.7392 Y52.3423
G01 X43.7444 Y52.4501
G01 X43.7395 Y52.5529
G01 X43.7386 Y52.5627
G01 X43.7232 Y52.6652
G01 X43.6971 Y52.7694
G01 X43.6609 Y52.8705
G01 X43.6168 Y52.9640
G01 X43.6122 Y52.9726
G01 X43.5618 Y53.0568
G01 X43.5563 Y53.0649
G01 X43.4943 Y53.1483
G01 X43.4224 Y53.2275
G01 X43.3432 Y53.2994
G01 X43.2568 Y53.3636
G01 X43.1638 Y53.4195
G01 X43.0702 Y53.4639
G01 X43.0612 Y53.4676
G01 X42.9688 Y53.5007
G01 X42.9594 Y53.5035
G01 X42.8601 Y53.5283
G01 X42.7576 Y53.5437
G01 X42.7478 Y53.5446
G01 X42.6449 Y53.5496
G01 X42.5378 Y53.5443
G01 X42.4298 Y53.5283
G01 X42.3256 Y53.5022
G01 X42.2245 Y53.4660
G01 X42.1270 Y53.4199
G01 X42.0341 Y53.3643
G01 X41.9474 Y53.2999
G01 X32.6999 Y53.2999
G01 X32.6215 Y53.2962
G01 X32.6118 Y53.2952
G01 X32.5335 Y53.2835
G01 X32.4580 Y53.2646
G01 X32.4486 Y53.2618
G01 X32.3750 Y53.2353
G01 X32.2997 Y53.1998
G01 X32.2319 Y53.1593
G01 X32.2238 Y53.1539
G01 X32.1646 Y53.1100
G01 X32.1571 Y53.1038
G01 X32.0990 Y53.0510
G01 X30.3279 Y51.2799
G01 X29.0963 Y51.2799
G01 X29.0116 Y51.3567
G01 X28.9174 Y51.4267
G01 X28.8159 Y51.4876
G01 X28.7134 Y51.5363
G01 X28.7044 Y51.5400
G01 X28.6028 Y51.5764
G01 X28.5934 Y51.5792
G01 X28.4846 Y51.6064
G01 X28.3675 Y51.6238
G01 X28.2499 Y51.6296
G01 X28.1372 Y51.6241
G01 X28.1275 Y51.6232
G01 X28.0153 Y51.6064
G01 X27.9016 Y51.5779
G01 X27.7955 Y51.5400
G01 X27.7865 Y51.5363
G01 X27.6849 Y51.4881
G01 X27.5877 Y51.4300
G01 X27.5796 Y51.4246
G01 X27.4883 Y51.3567
G01 X27.4018 Y51.2782
G01 X27.3233 Y51.1917
G01 X27.2554 Y51.1004
G01 X27.2500 Y51.0923
G01 X27.1945 Y50.9997
G01 X27.1899 Y50.9911
G01 X27.1413 Y50.8880
G01 X27.1020 Y50.7780
G01 X27.0736 Y50.6647
G01 X27.0568 Y50.5525
G01 X27.0559 Y50.5428
G01 X27.0506 Y50.4349
G01 X27.0506 Y50.4252
G01 X27.0562 Y50.3131
G01 X27.0727 Y50.2009
G00 Z0.5000
G00 X19.1304 Y56.6428
G01 F250.00
G01 Z-0.0400
G01 F2500.00
G01 X19.1323 Y56.6332
G01 X19.1695 Y56.4851
G01 X19.2221 Y56.3382
G01 X19.2894 Y56.1959
G01 X19.3700 Y56.0614
G01 X19.4641 Y55.9346
G01 X19.5689 Y55.8190
G01 X19.6845 Y55.7142
G01 X19.8120 Y55.6197
G01 X19.9454 Y55.5397
G01 X20.0889 Y55.4719
G01 X20.2350 Y55.4196
G01 X20.3873 Y55.3814
G01 X20.5432 Y55.3583
G01 X20.6999 Y55.3506
G01 X20.8561 Y55.3582
G01 X21.0072 Y55.3804
G01 X21.0168 Y55.3824
G01 X21.1649 Y55.4196
G01 X21.3118 Y55.4722
G01 X21.4536 Y55.5392
G01 X21.5886 Y55.6201
G01 X21.7154 Y55.7142
G01 X21.8310 Y55.8190
G01 X21.9358 Y55.9346
G01 X22.0271 Y56.0574
G01 X22.0325 Y56.0655
G01 X22.0533 Y56.1002
G01 X23.1999 Y56.1002
G01 X23.2784 Y56.1039
G01 X23.2881 Y56.1049
G01 X23.3664 Y56.1166
G01 X23.4468 Y56.1368
G01 X23.5249 Y56.1648
G01 X23.5962 Y56.1983
G01 X23.6048 Y56.2029
G01 X23.6680 Y56.2408
G01 X23.6761 Y56.2462
G01 X23.7398 Y56.2937
G01 X23.7992 Y56.3474
G01 X24.6520 Y57.2002
G01 X27.4036 Y57.2002
G01 X27.4883 Y57.1234
G01 X27.5796 Y57.0555
G01 X27.5877 Y57.0501
G01 X27.6840 Y56.9925
G01 X27.7865 Y56.9438
G01 X27.7955 Y56.9401
G01 X27.9020 Y56.9021
G01 X28.0112 Y56.8747
G01 X28.0208 Y56.8728
G01 X28.1324 Y56.8563
G01 X28.2451 Y56.8507
G01 X28.2548 Y56.8507
G01 X28.3669 Y56.8563
G01 X28.4791 Y56.8728
G01 X28.4887 Y56.8747
G01 X28.5934 Y56.9009
G01 X28.6028 Y56.9037
G01 X28.7087 Y56.9417
G01 X28.8150 Y56.9920
G01 X28.9160 Y57.0525
G01 X29.0116 Y57.1234
G01 X29.0981 Y57.2019
G01 X29.1766 Y57.2884
G01 X29.2477 Y57.3843
G01 X29.3054 Y57.4804
G01 X29.3100 Y57.4890
G01 X29.3562 Y57.5866
G01 X29.3599 Y57.5956
G01 X29.3979 Y57.7021
G01 X29.4253 Y57.8113
G01 X29.4272 Y57.8209
G01 X29.4437 Y57.9325
G01 X29.4494 Y58.0501
G01 X29.4438 Y58.1660
G01 X29.4272 Y58.2792
G01 X29.4253 Y58.2888
G01 X29.3991 Y58.3935
G01 X29.3963 Y58.4029
G01 X29.3583 Y58.5088
G01 X29.3100 Y58.6111
G01 X29.3054 Y58.6197
G01 X29.2473 Y58.7165
G01 X29.1766 Y58.8117
G01 X29.0981 Y58.8982
G01 X29.0116 Y58.9767
G01 X28.9174 Y59.0467
G01 X28.8196 Y59.1055
G01 X28.8110 Y59.1101
G01 X28.7134 Y59.1563
G01 X28.7044 Y59.1600
G01 X28.5988 Y59.1977
G01 X28.4846 Y59.2264
G01 X28.3675 Y59.2438
G01 X28.2548 Y59.2494
G01 X28.2451 Y59.2494
G01 X28.1330 Y59.2438
G01 X28.0153 Y59.2264
G01 X27.9016 Y59.1979
G01 X27.7912 Y59.1584
G01 X27.6849 Y59.1081
G01 X27.5839 Y59.0476
G01 X27.4883 Y58.9767
G01 X27.4036 Y58.8999
G01 X24.2999 Y58.8999
G01 X24.2215 Y58.8962
G01 X24.2118 Y58.8952
G01 X24.1335 Y58.8835
G01 X24.0580 Y58.8646
G01 X24.0486 Y58.8618
G01 X23.9750 Y58.8353
G01 X23.8997 Y58.7998
G01 X23.8281 Y58.7569
G01 X23.7646 Y58.7100
G01 X23.7571 Y58.7038
G01 X23.6990 Y58.6510
G01 X22.8479 Y57.7999
G01 X22.0533 Y57.7999
G01 X22.0325 Y57.8346
G01 X22.0271 Y57.8427
G01 X21.9394 Y57.9609
G01 X21.9332 Y57.9685
G01 X21.8310 Y58.0811
G01 X21.7154 Y58.1859
G01 X21.5879 Y58.2804
G01 X21.4582 Y58.3583
G01 X21.4496 Y58.3629
G01 X21.3110 Y58.4282
G01 X21.1649 Y58.4805
G01 X21.0168 Y58.5177
G01 X21.0072 Y58.5197
G01 X20.8567 Y58.5418
G01 X20.7048 Y58.5494
G01 X20.6951 Y58.5494
G01 X20.5438 Y58.5419
G01 X20.3927 Y58.5197
G01 X20.3831 Y58.5177
G01 X20.2350 Y58.4805
G01 X20.0881 Y58.4279
G01 X19.9463 Y58.3609
G01 X19.8113 Y58.2800
G01 X19.6845 Y58.1859
G01 X19.5689 Y58.0811
G01 X19.4641 Y57.9655
G01 X19.3696 Y57.8380
G01 X19.2895 Y57.7045
G01 X19.2218 Y57.5611
G01 X19.1695 Y57.4150
G01 X19.1313 Y57.2627
G01 X19.1082 Y57.1068
G01 X19.1004 Y56.9501
G01 X19.1081 Y56.7939
G01 X19.1304 Y56.6428
G00 Z0.5000
G00 X18.9351 Y56.6138
G01 F250.00
G01 Z-0.0400
G01 F2500.00
G01 X18.9377 Y56.5976
G01 X18.9405 Y56.5852
G01 X18.9763 Y56.4424
G01 X18.9807 Y56.4265
G01 X19.0343 Y56.2759
G01 X19.0347 Y56.2760
G01 X19.0392 Y56.2631
G01 X19.0455 Y56.2490
G01 X19.1084 Y56.1159
G01 X19.1087 Y56.1160
G01 X19.1153 Y56.1023
G01 X19.1222 Y56.0902
G01 X19.1978 Y55.9639
G01 X19.2056 Y55.9516
G01 X19.2140 Y55.9397
G01 X19.3017 Y55.8214
G01 X19.3125 Y55.8078
G01 X19.4191 Y55.6898
G01 X19.4291 Y55.6792
G01 X19.4397 Y55.6692
G01 X19.5577 Y55.5626
G01 X19.5713 Y55.5518
G01 X19.6896 Y55.4641
G01 X19.7035 Y55.4544
G01 X19.8401 Y55.3723
G01 X19.8513 Y55.3659
G01 X19.8658 Y55.3585
G01 X19.9989 Y55.2956
G01 X20.0155 Y55.2883
G01 X20.1644 Y55.2348
G01 X20.1646 Y55.2352
G01 X20.1764 Y55.2308
G01 X20.1923 Y55.2264
G01 X20.3351 Y55.1906
G01 X20.3475 Y55.1878
G01 X20.3637 Y55.1849
G01 X20.5093 Y55.1633
G01 X20.5238 Y55.1615
G01 X20.5383 Y55.1604
G01 X20.6854 Y55.1532
G01 X20.6999 Y55.1529
G01 X20.7145 Y55.1532
G01 X20.8616 Y55.1604
G01 X20.8744 Y55.1614
G01 X20.8906 Y55.1633
G01 X21.0362 Y55.1849
G01 X21.0362 Y55.1852
G01 X21.0524 Y55.1878
G01 X21.0648 Y55.1906
G01 X21.2076 Y55.2264
G01 X21.2235 Y55.2308
G01 X21.3741 Y55.2844
G01 X21.3740 Y55.2848
G01 X21.3869 Y55.2893
G01 X21.4010 Y55.2956
G01 X21.5341 Y55.3585
G01 X21.5339 Y55.3589
G01 X21.5461 Y55.3645
G01 X21.5598 Y55.3723
G01 X21.6861 Y55.4479
G01 X21.6984 Y55.4557
G01 X21.7103 Y55.4641
G01 X21.8286 Y55.5518
G01 X21.8422 Y55.5626
G01 X21.9602 Y55.6692
G01 X21.9708 Y55.6792
G01 X21.9808 Y55.6898
G01 X22.0874 Y55.8078
G01 X22.0982 Y55.8214
G01 X22.1583 Y55.9025
G01 X23.1999 Y55.9025
G01 X23.2145 Y55.9028
G01 X23.3009 Y55.9074
G01 X23.3171 Y55.9093
G01 X23.3899 Y55.9201
G01 X23.3899 Y55.9204
G01 X23.4061 Y55.9230
G01 X23.4900 Y55.9437
G01 X23.5044 Y55.9477
G01 X23.5179 Y55.9522
G01 X23.5872 Y55.9770
G01 X23.5871 Y55.9774
G01 X23.6000 Y55.9819
G01 X23.6142 Y55.9881
G01 X23.6807 Y56.0196
G01 X23.6806 Y56.0200
G01 X23.6927 Y56.0256
G01 X23.7065 Y56.0334
G01 X23.7696 Y56.0712
G01 X23.7819 Y56.0790
G01 X23.7939 Y56.0874
G01 X23.8530 Y56.1313
G01 X23.8667 Y56.1420
G01 X23.9355 Y56.2042
G01 X24.7339 Y57.0025
G01 X27.3272 Y57.0025
G01 X27.3614 Y56.9718
G01 X27.3751 Y56.9610
G01 X27.4618 Y56.8967
G01 X27.4621 Y56.8971
G01 X27.4707 Y56.8904
G01 X27.4860 Y56.8805
G01 X27.5786 Y56.8250
G01 X27.5898 Y56.8186
G01 X27.6043 Y56.8113
G01 X27.7019 Y56.7651
G01 X27.7186 Y56.7579
G01 X27.8305 Y56.7176
G01 X27.8306 Y56.7179
G01 X27.8450 Y56.7128
G01 X27.8584 Y56.7091
G01 X27.9631 Y56.6829
G01 X27.9756 Y56.6801
G01 X27.9917 Y56.6772
G01 X28.0985 Y56.6614
G01 X28.1130 Y56.6596
G01 X28.1275 Y56.6585
G01 X28.2354 Y56.6532
G01 X28.2499 Y56.6529
G01 X28.2645 Y56.6532
G01 X28.3852 Y56.6594
G01 X28.4014 Y56.6614
G01 X28.5082 Y56.6772
G01 X28.5081 Y56.6775
G01 X28.5243 Y56.6801
G01 X28.5368 Y56.6829
G01 X28.6415 Y56.7091
G01 X28.6574 Y56.7136
G01 X28.7710 Y56.7540
G01 X28.7709 Y56.7543
G01 X28.7838 Y56.7589
G01 X28.7980 Y56.7651
G01 X28.8955 Y56.8113
G01 X28.8954 Y56.8117
G01 X28.9075 Y56.8173
G01 X28.9213 Y56.8250
G01 X29.0139 Y56.8805
G01 X29.0252 Y56.8877
G01 X29.0381 Y56.8967
G01 X29.1248 Y56.9610
G01 X29.1385 Y56.9718
G01 X29.1474 Y56.9795
G01 X29.2273 Y57.0520
G01 X29.2379 Y57.0621
G01 X29.2480 Y57.0727
G01 X29.3282 Y57.1615
G01 X29.3390 Y57.1752
G01 X29.4033 Y57.2619
G01 X29.4130 Y57.2758
G01 X29.4750 Y57.3787
G01 X29.4815 Y57.3902
G01 X29.4887 Y57.4045
G01 X29.5349 Y57.5020
G01 X29.5421 Y57.5187
G01 X29.5824 Y57.6306
G01 X29.5821 Y57.6307
G01 X29.5872 Y57.6451
G01 X29.5909 Y57.6585
G01 X29.6171 Y57.7632
G01 X29.6199 Y57.7757
G01 X29.6228 Y57.7918
G01 X29.6386 Y57.8986
G01 X29.6404 Y57.9131
G01 X29.6415 Y57.9276
G01 X29.6468 Y58.0355
G01 X29.6471 Y58.0501
G01 X29.6468 Y58.0646
G01 X29.6415 Y58.1725
G01 X29.6405 Y58.1821
G01 X29.6409 Y58.1821
G01 X29.6386 Y58.2015
G01 X29.6228 Y58.3083
G01 X29.6225 Y58.3082
G01 X29.6199 Y58.3244
G01 X29.6171 Y58.3369
G01 X29.5909 Y58.4416
G01 X29.5869 Y58.4560
G01 X29.5824 Y58.4695
G01 X29.5460 Y58.5711
G01 X29.5457 Y58.5710
G01 X29.5411 Y58.5839
G01 X29.5349 Y58.5981
G01 X29.4887 Y58.6957
G01 X29.4884 Y58.6955
G01 X29.4818 Y58.7093
G01 X29.4750 Y58.7214
G01 X29.4195 Y58.8140
G01 X29.4117 Y58.8263
G01 X29.4033 Y58.8382
G01 X29.3390 Y58.9249
G01 X29.3282 Y58.9386
G01 X29.2480 Y59.0274
G01 X29.2379 Y59.0380
G01 X29.2273 Y59.0481
G01 X29.1385 Y59.1283
G01 X29.1248 Y59.1391
G01 X29.0381 Y59.2034
G01 X29.0378 Y59.2030
G01 X29.0292 Y59.2097
G01 X29.0139 Y59.2196
G01 X28.9213 Y59.2751
G01 X28.9101 Y59.2815
G01 X28.8955 Y59.2888
G01 X28.7980 Y59.3350
G01 X28.7813 Y59.3422
G01 X28.7710 Y59.3461
G01 X28.6574 Y59.3865
G01 X28.6415 Y59.3910
G01 X28.5243 Y59.4200
G01 X28.5082 Y59.4229
G01 X28.4014 Y59.4387
G01 X28.3869 Y59.4405
G01 X28.3724 Y59.4416
G01 X28.2645 Y59.4469
G01 X28.2499 Y59.4472
G01 X28.2354 Y59.4469
G01 X28.1147 Y59.4407
G01 X28.0985 Y59.4387
G01 X27.9917 Y59.4229
G01 X27.9918 Y59.4226
G01 X27.9756 Y59.4200
G01 X27.8584 Y59.3910
G01 X27.8440 Y59.3870
G01 X27.8305 Y59.3825
G01 X27.7289 Y59.3461
G01 X27.7290 Y59.3458
G01 X27.7161 Y59.3412
G01 X27.7019 Y59.3350
G01 X27.6043 Y59.2888
G01 X27.6045 Y59.2884
G01 X27.5924 Y59.2828
G01 X27.5786 Y59.2751
G01 X27.4860 Y59.2196
G01 X27.4747 Y59.2124
G01 X27.4618 Y59.2034
G01 X27.3751 Y59.1391
G01 X27.3614 Y59.1283
G01 X27.3272 Y59.0976
G01 X24.2927 Y59.0975
G01 X24.2118 Y59.0936
G01 X24.1990 Y59.0927
G01 X24.1828 Y59.0908
G01 X24.1100 Y59.0800
G01 X24.1100 Y59.0797
G01 X24.0938 Y59.0771
G01 X24.0099 Y59.0564
G01 X23.9955 Y59.0524
G01 X23.9820 Y59.0479
G01 X23.9127 Y59.0231
G01 X23.9128 Y59.0227
G01 X23.8999 Y59.0182
G01 X23.8857 Y59.0120
G01 X23.8192 Y58.9805
G01 X23.8193 Y58.9801
G01 X23.8072 Y58.9745
G01 X23.7934 Y58.9667
G01 X23.7303 Y58.9289
G01 X23.7190 Y58.9217
G01 X23.7060 Y58.9127
G01 X23.6469 Y58.8688
G01 X23.6332 Y58.8581
G01 X23.5698 Y58.8008
G01 X23.5592 Y58.7908
G01 X22.7660 Y57.9976
G01 X22.1583 Y57.9976
G01 X22.0982 Y58.0787
G01 X22.0874 Y58.0923
G01 X21.9808 Y58.2103
G01 X21.9708 Y58.2209
G01 X21.9602 Y58.2309
G01 X21.8422 Y58.3375
G01 X21.8286 Y58.3483
G01 X21.7103 Y58.4360
G01 X21.6964 Y58.4457
G01 X21.6861 Y58.4522
G01 X21.5598 Y58.5278
G01 X21.5486 Y58.5342
G01 X21.5341 Y58.5416
G01 X21.4010 Y58.6045
G01 X21.3844 Y58.6118
G01 X21.2355 Y58.6653
G01 X21.2353 Y58.6649
G01 X21.2235 Y58.6693
G01 X21.2076 Y58.6737
G01 X21.0648 Y58.7095
G01 X21.0524 Y58.7123
G01 X21.0362 Y58.7152
G01 X20.8906 Y58.7368
G01 X20.8761 Y58.7386
G01 X20.8616 Y58.7397
G01 X20.7145 Y58.7469
G01 X20.6999 Y58.7472
G01 X20.6854 Y58.7469
G01 X20.5383 Y58.7397
G01 X20.5255 Y58.7387
G01 X20.5093 Y58.7368
G01 X20.3637 Y58.7152
G01 X20.3637 Y58.7149
G01 X20.3475 Y58.7123
G01 X20.3351 Y58.7095
G01 X20.1923 Y58.6737
G01 X20.1764 Y58.6693
G01 X20.0258 Y58.6157
G01 X20.0259 Y58.6153
G01 X20.0130 Y58.6108
G01 X19.9989 Y58.6045
G01 X19.8658 Y58.5416
G01 X19.8660 Y58.5412
G01 X19.8538 Y58.5356
G01 X19.8401 Y58.5278
G01 X19.7138 Y58.4522
G01 X19.7015 Y58.4444
G01 X19.6896 Y58.4360
G01 X19.5713 Y58.3483
G01 X19.5577 Y58.3375
G01 X19.4397 Y58.2309
G01 X19.4291 Y58.2209
G01 X19.4191 Y58.2103
G01 X19.3125 Y58.0923
G01 X19.3017 Y58.0787
G01 X19.2140 Y57.9604
G01 X19.2043 Y57.9465
G01 X19.1222 Y57.8099
G01 X19.1156 Y57.7985
G01 X19.1084 Y57.7842
G01 X19.0455 Y57.6511
G01 X19.0382 Y57.6345
G01 X18.9847 Y57.4856
G01 X18.9851 Y57.4854
G01 X18.9807 Y57.4736
G01 X18.9763 Y57.4577
G01 X18.9405 Y57.3149
G01 X18.9377 Y57.3025
G01 X18.9348 Y57.2863
G01 X18.9132 Y57.1407
G01 X18.9114 Y57.1262
G01 X18.9103 Y57.1117
G01 X18.9031 Y56.9646
G01 X18.9028 Y56.9501
G01 X18.9031 Y56.9355
G01 X18.9103 Y56.7884
G01 X18.9113 Y56.7756
G01 X18.9132 Y56.7594
G01 X18.9348 Y56.6138
G01 X18.9351 Y56.6138
G00 Z0.5000
G00 X18.7397 Y56.5849
G01 F250.00
G01 Z-0.0400
G01 F2500.00
G01 X18.7440 Y56.5579
G01 X18.7487 Y56.5372
G01 X18.7845 Y56.3944
G01 X18.7919 Y56.3678
G01 X18.7986 Y56.3479
G01 X18.8482 Y56.2093
G01 X18.8488 Y56.2095
G01 X18.8563 Y56.1881
G01 X18.8668 Y56.1644
G01 X18.9297 Y56.0314
G01 X18.9302 Y56.0316
G01 X18.9412 Y56.0087
G01 X18.9526 Y55.9885
G01 X19.0283 Y55.8623
G01 X19.0413 Y55.8418
G01 X19.0553 Y55.8219
G01 X19.1429 Y55.7037
G01 X19.1608 Y55.6810
G01 X19.1738 Y55.6661
G01 X19.2726 Y55.5571
G01 X19.2894 Y55.5395
G01 X19.3070 Y55.5227
G01 X19.4160 Y55.4239
G01 X19.4309 Y55.4109
G01 X19.4536 Y55.3930
G01 X19.5718 Y55.3054
G01 X19.5720 Y55.3056
G01 X19.5950 Y55.2891
G01 X19.6122 Y55.2784
G01 X19.7384 Y55.2027
G01 X19.7571 Y55.1921
G01 X19.7813 Y55.1798
G01 X19.9143 Y55.1169
G01 X19.9420 Y55.1048
G01 X19.9592 Y55.0983
G01 X20.0978 Y55.0487
G01 X20.0980 Y55.0494
G01 X20.1177 Y55.0420
G01 X20.1443 Y55.0346
G01 X20.2871 Y54.9988
G01 X20.3078 Y54.9941
G01 X20.3347 Y54.9894
G01 X20.4803 Y54.9678
G01 X20.5044 Y54.9648
G01 X20.5286 Y54.9630
G01 X20.6757 Y54.9558
G01 X20.6999 Y54.9552
G01 X20.7242 Y54.9558
G01 X20.8713 Y54.9630
G01 X20.8926 Y54.9645
G01 X20.9196 Y54.9678
G01 X21.0652 Y54.9894
G01 X21.0651 Y54.9898
G01 X21.0921 Y54.9941
G01 X21.1128 Y54.9988
G01 X21.2556 Y55.0346
G01 X21.2822 Y55.0420
G01 X21.3021 Y55.0487
G01 X21.4407 Y55.0983
G01 X21.4405 Y55.0989
G01 X21.4620 Y55.1064
G01 X21.4856 Y55.1169
G01 X21.6186 Y55.1798
G01 X21.6183 Y55.1804
G01 X21.6385 Y55.1898
G01 X21.6615 Y55.2027
G01 X21.7877 Y55.2784
G01 X21.8082 Y55.2914
G01 X21.8281 Y55.3054
G01 X21.9463 Y55.3930
G01 X21.9690 Y55.4109
G01 X21.9839 Y55.4239
G01 X22.0929 Y55.5227
G01 X22.1105 Y55.5395
G01 X22.1273 Y55.5571
G01 X22.2261 Y55.6661
G01 X22.2391 Y55.6810
G01 X22.2578 Y55.7048
G01 X23.1999 Y55.7048
G01 X23.2242 Y55.7054
G01 X23.2978 Y55.7090
G01 X23.3191 Y55.7105
G01 X23.3461 Y55.7138
G01 X23.4190 Y55.7246
G01 X23.4189 Y55.7250
G01 X23.4459 Y55.7293
G01 X23.4666 Y55.7341
G01 X23.5380 Y55.7519
G01 X23.5621 Y55.7586
G01 X23.5845 Y55.7660
G01 X23.6538 Y55.7908
G01 X23.6536 Y55.7915
G01 X23.6751 Y55.7990
G01 X23.6987 Y55.8094
G01 X23.7653 Y55.8409
G01 X23.7650 Y55.8415
G01 X23.7852 Y55.8509
G01 X23.8081 Y55.8638
G01 X23.8713 Y55.9017
G01 X23.8918 Y55.9147
G01 X23.9116 Y55.9286
G01 X23.9708 Y55.9725
G01 X23.9935 Y55.9904
G01 X24.0083 Y56.0033
G01 X24.0629 Y56.0528
G01 X24.0805 Y56.0695
G01 X24.8157 Y56.8048
G01 X27.2541 Y56.8048
G01 X27.3440 Y56.7379
G01 X27.3445 Y56.7386
G01 X27.3589 Y56.7274
G01 X27.3844 Y56.7110
G01 X27.4770 Y56.6555
G01 X27.4956 Y56.6448
G01 X27.5198 Y56.6326
G01 X27.6174 Y56.5864
G01 X27.6451 Y56.5744
G01 X27.6623 Y56.5678
G01 X27.7639 Y56.5315
G01 X27.7641 Y56.5320
G01 X27.7881 Y56.5235
G01 X27.8104 Y56.5174
G01 X27.9151 Y56.4911
G01 X27.9358 Y56.4864
G01 X27.9627 Y56.4817
G01 X28.0695 Y56.4658
G01 X28.0936 Y56.4629
G01 X28.1178 Y56.4611
G01 X28.2257 Y56.4558
G01 X28.2499 Y56.4552
G01 X28.2742 Y56.4558
G01 X28.3821 Y56.4611
G01 X28.4034 Y56.4626
G01 X28.4304 Y56.4658
G01 X28.5372 Y56.4817
G01 X28.5371 Y56.4821
G01 X28.5641 Y56.4864
G01 X28.5848 Y56.4911
G01 X28.6895 Y56.5174
G01 X28.7161 Y56.5248
G01 X28.7360 Y56.5315
G01 X28.8376 Y56.5678
G01 X28.8374 Y56.5685
G01 X28.8589 Y56.5760
G01 X28.8825 Y56.5864
G01 X28.9801 Y56.6326
G01 X28.9798 Y56.6332
G01 X29.0000 Y56.6425
G01 X29.0229 Y56.6555
G01 X29.1155 Y56.7110
G01 X29.1343 Y56.7228
G01 X29.1559 Y56.7379
G01 X29.2426 Y56.8023
G01 X29.2653 Y56.8201
G01 X29.2801 Y56.8331
G01 X29.3601 Y56.9056
G01 X29.3777 Y56.9223
G01 X29.3944 Y56.9399
G01 X29.4669 Y57.0199
G01 X29.4799 Y57.0347
G01 X29.4977 Y57.0574
G01 X29.5621 Y57.1441
G01 X29.5618 Y57.1443
G01 X29.5783 Y57.1674
G01 X29.5890 Y57.1845
G01 X29.6445 Y57.2771
G01 X29.6554 Y57.2962
G01 X29.6674 Y57.3199
G01 X29.7136 Y57.4175
G01 X29.7256 Y57.4452
G01 X29.7322 Y57.4624
G01 X29.7685 Y57.5640
G01 X29.7680 Y57.5642
G01 X29.7765 Y57.5882
G01 X29.7826 Y57.6105
G01 X29.8089 Y57.7152
G01 X29.8136 Y57.7359
G01 X29.8183 Y57.7628
G01 X29.8342 Y57.8696
G01 X29.8371 Y57.8937
G01 X29.8389 Y57.9179
G01 X29.8442 Y58.0258
G01 X29.8448 Y58.0501
G01 X29.8442 Y58.0743
G01 X29.8389 Y58.1822
G01 X29.8374 Y58.1982
G01 X29.8379 Y58.1982
G01 X29.8342 Y58.2305
G01 X29.8183 Y58.3373
G01 X29.8179 Y58.3372
G01 X29.8136 Y58.3642
G01 X29.8089 Y58.3849
G01 X29.7826 Y58.4896
G01 X29.7759 Y58.5137
G01 X29.7685 Y58.5361
G01 X29.7322 Y58.6377
G01 X29.7315 Y58.6375
G01 X29.7240 Y58.6590
G01 X29.7136 Y58.6826
G01 X29.6674 Y58.7802
G01 X29.6669 Y58.7799
G01 X29.6560 Y58.8029
G01 X29.6445 Y58.8230
G01 X29.5890 Y58.9156
G01 X29.5760 Y58.9361
G01 X29.5621 Y58.9560
G01 X29.4977 Y59.0427
G01 X29.4799 Y59.0654
G01 X29.4669 Y59.0802
G01 X29.3944 Y59.1602
G01 X29.3777 Y59.1778
G01 X29.3601 Y59.1945
G01 X29.2801 Y59.2670
G01 X29.2653 Y59.2800
G01 X29.2426 Y59.2978
G01 X29.1559 Y59.3622
G01 X29.1554 Y59.3615
G01 X29.1410 Y59.3727
G01 X29.1155 Y59.3891
G01 X29.0229 Y59.4446
G01 X29.0043 Y59.4553
G01 X28.9801 Y59.4675
G01 X28.8825 Y59.5137
G01 X28.8548 Y59.5257
G01 X28.8376 Y59.5323
G01 X28.7360 Y59.5686
G01 X28.7357 Y59.5679
G01 X28.7161 Y59.5753
G01 X28.6895 Y59.5827
G01 X28.5848 Y59.6090
G01 X28.5641 Y59.6137
G01 X28.5372 Y59.6184
G01 X28.4304 Y59.6343
G01 X28.4063 Y59.6372
G01 X28.3821 Y59.6390
G01 X28.2742 Y59.6443
G01 X28.2499 Y59.6449
G01 X28.2257 Y59.6443
G01 X28.1178 Y59.6390
G01 X28.0965 Y59.6375
G01 X28.0695 Y59.6343
G01 X27.9627 Y59.6184
G01 X27.9628 Y59.6180
G01 X27.9358 Y59.6137
G01 X27.9151 Y59.6090
G01 X27.8104 Y59.5827
G01 X27.7863 Y59.5760
G01 X27.7639 Y59.5686
G01 X27.6623 Y59.5323
G01 X27.6625 Y59.5316
G01 X27.6410 Y59.5241
G01 X27.6174 Y59.5137
G01 X27.5198 Y59.4675
G01 X27.5201 Y59.4669
G01 X27.4999 Y59.4576
G01 X27.4770 Y59.4446
G01 X27.3844 Y59.3891
G01 X27.3656 Y59.3773
G01 X27.3440 Y59.3622
G01 X27.2541 Y59.2953
G01 X24.2878 Y59.2951
G01 X24.2021 Y59.2911
G01 X24.1808 Y59.2896
G01 X24.1538 Y59.2863
G01 X24.0809 Y59.2755
G01 X24.0810 Y59.2751
G01 X24.0540 Y59.2708
G01 X24.0333 Y59.2660
G01 X23.9619 Y59.2482
G01 X23.9378 Y59.2415
G01 X23.9154 Y59.2341
G01 X23.8461 Y59.2093
G01 X23.8463 Y59.2086
G01 X23.8248 Y59.2011
G01 X23.8012 Y59.1907
G01 X23.7346 Y59.1592
G01 X23.7349 Y59.1586
G01 X23.7147 Y59.1492
G01 X23.6918 Y59.1363
G01 X23.6286 Y59.0984
G01 X23.6098 Y59.0866
G01 X23.5883 Y59.0715
G01 X23.5291 Y59.0276
G01 X23.5064 Y59.0097
G01 X23.4916 Y58.9968
G01 X23.4370 Y58.9473
G01 X23.4194 Y58.9306
G01 X22.6842 Y58.1953
G01 X22.2578 Y58.1953
G01 X22.2391 Y58.2191
G01 X22.2261 Y58.2340
G01 X22.1273 Y58.3430
G01 X22.1105 Y58.3606
G01 X22.0929 Y58.3774
G01 X21.9839 Y58.4762
G01 X21.9690 Y58.4892
G01 X21.9463 Y58.5071
G01 X21.8281 Y58.5947
G01 X21.8279 Y58.5945
G01 X21.8049 Y58.6110
G01 X21.7877 Y58.6217
G01 X21.6615 Y58.6974
G01 X21.6428 Y58.7080
G01 X21.6186 Y58.7203
G01 X21.4856 Y58.7832
G01 X21.4579 Y58.7953
G01 X21.4407 Y58.8018
G01 X21.3021 Y58.8514
G01 X21.3019 Y58.8507
G01 X21.2822 Y58.8581
G01 X21.2556 Y58.8655
G01 X21.1128 Y58.9013
G01 X21.0921 Y58.9060
G01 X21.0652 Y58.9107
G01 X20.9196 Y58.9323
G01 X20.8955 Y58.9353
G01 X20.8713 Y58.9371
G01 X20.7242 Y58.9443
G01 X20.6999 Y58.9449
G01 X20.6757 Y58.9443
G01 X20.5286 Y58.9371
G01 X20.5073 Y58.9356
G01 X20.4803 Y58.9323
G01 X20.3347 Y58.9107
G01 X20.3348 Y58.9103
G01 X20.3078 Y58.9060
G01 X20.2871 Y58.9013
G01 X20.1443 Y58.8655
G01 X20.1177 Y58.8581
G01 X20.0978 Y58.8514
G01 X19.9592 Y58.8018
G01 X19.9594 Y58.8012
G01 X19.9379 Y58.7937
G01 X19.9143 Y58.7832
G01 X19.7813 Y58.7203
G01 X19.7816 Y58.7197
G01 X19.7614 Y58.7103
G01 X19.7384 Y58.6974
G01 X19.6122 Y58.6217
G01 X19.5917 Y58.6087
G01 X19.5718 Y58.5947
G01 X19.4536 Y58.5071
G01 X19.4309 Y58.4892
G01 X19.4160 Y58.4762
G01 X19.3070 Y58.3774
G01 X19.2894 Y58.3606
G01 X19.2726 Y58.3430
G01 X19.1738 Y58.2340
G01 X19.1608 Y58.2191
G01 X19.1429 Y58.1964
G01 X19.0553 Y58.0782
G01 X19.0555 Y58.0780
G01 X19.0390 Y58.0550
G01 X19.0283 Y58.0378
G01 X18.9526 Y57.9116
G01 X18.9417 Y57.8925
G01 X18.9297 Y57.8687
G01 X18.8668 Y57.7357
G01 X18.8547 Y57.7080
G01 X18.8482 Y57.6908
G01 X18.7986 Y57.5522
G01 X18.7993 Y57.5520
G01 X18.7919 Y57.5323
G01 X18.7845 Y57.5057
G01 X18.7487 Y57.3629
G01 X18.7440 Y57.3422
G01 X18.7393 Y57.3153
G01 X18.7177 Y57.1697
G01 X18.7147 Y57.1456
G01 X18.7129 Y57.1214
G01 X18.7057 Y56.9743
G01 X18.7051 Y56.9501
G01 X18.7057 Y56.9258
G01 X18.7129 Y56.7787
G01 X18.7144 Y56.7574
G01 X18.7177 Y56.7304
G01 X18.7393 Y56.5848
G01 X18.7397 Y56.5849
G00 Z0.5000
G00 X23.9749 Y61.7311
G01 F250.00
G01 Z-0.0400
G01 F2500.00
G01 X23.9792 Y61.7041
G01 X23.9840 Y61.6834
G01 X24.0018 Y61.6120
G01 X24.0085 Y61.5879
G01 X24.0159 Y61.5655
G01 X24.0407 Y61.4962
G01 X24.0414 Y61.4964
G01 X24.0489 Y61.4749
G01 X24.0593 Y61.4513
G01 X24.0908 Y61.3847
G01 X24.0913 Y61.3850
G01 X24.1023 Y61.3621
G01 X24.1137 Y61.3419
G01 X24.1516 Y61.2787
G01 X24.1646 Y61.2582
G01 X24.1785 Y61.2384
G01 X24.2224 Y61.1792
G01 X24.2403 Y61.1565
G01 X24.2532 Y61.1417
G01 X24.3109 Y61.0782
G01 X25.3194 Y60.0695
G01 X25.3370 Y60.0528
G01 X25.3916 Y60.0033
G01 X25.4064 Y59.9904
G01 X25.4291 Y59.9725
G01 X25.4883 Y59.9286
G01 X25.4885 Y59.9289
G01 X25.5115 Y59.9124
G01 X25.5286 Y59.9017
G01 X25.5918 Y59.8638
G01 X25.6104 Y59.8532
G01 X25.6346 Y59.8409
G01 X25.7012 Y59.8094
G01 X25.7289 Y59.7974
G01 X25.7461 Y59.7908
G01 X25.8154 Y59.7660
G01 X25.8156 Y59.7665
G01 X25.8396 Y59.7581
G01 X25.8619 Y59.7519
G01 X25.9333 Y59.7341
G01 X25.9540 Y59.7293
G01 X25.9809 Y59.7246
G01 X26.0538 Y59.7138
G01 X26.0779 Y59.7108
G01 X26.1021 Y59.7090
G01 X26.1878 Y59.7050
G01 X29.6842 Y59.7048
G01 X30.9547 Y58.4343
G01 X30.9547 Y56.9658
G01 X29.1842 Y55.1953
G01 X27.1999 Y55.1953
G01 X27.1757 Y55.1947
G01 X27.1021 Y55.1911
G01 X27.0808 Y55.1896
G01 X27.0538 Y55.1863
G01 X26.9809 Y55.1755
G01 X26.9810 Y55.1751
G01 X26.9540 Y55.1708
G01 X26.9333 Y55.1660
G01 X26.8619 Y55.1482
G01 X26.8378 Y55.1415
G01 X26.8154 Y55.1341
G01 X26.7461 Y55.1093
G01 X26.7463 Y55.1086
G01 X26.7248 Y55.1011
G01 X26.7012 Y55.0907
G01 X26.6346 Y55.0592
G01 X26.6349 Y55.0586
G01 X26.6147 Y55.0492
G01 X26.5918 Y55.0363
G01 X26.5286 Y54.9984
