(G-CODE GENERATED BY FLATCAM v8.991 - www.flatcam.org - Version Date: 2019/12/30)

(Name: Cncjob_drill_0.3mm)
(Type: G-code from Excellon)
(Units: MM)

(Created on Monday, 08 December 2025 at 09:38)

(Feedrate: 120 mm/min)
(Feedrate rapids 1500 mm/min)

(Z_Cut: -2 mm)
(Z_Move: 1 mm)
(Z Toolchange: 15 mm)
(X,Y Toolchange: None mm)
(Z Start: None mm)
(Z End: 0.5 mm)
(Steps per circle: 64)
(Preprocessor Excellon: default)

(X range:   96.1850 ...  186.7600  mm)
(Y range: -133.1500 ...  -59.7400  mm)

(Spindle Speed: 0 RPM)
G21
G90
G94




G01 F120.00
G00 Z1.0000

M03
G4 P1.0
G00 X83.6999 Y58.4501
G01 Z-2.0000
G01 Z0
G00 Z1.0000
G00 X76.6999 Y68.9501
G01 Z-2.0000
G01 Z0
G00 Z1.0000
G00 X60.1999 Y75.4501
G01 Z-2.0000
G01 Z0
G00 Z1.0000
G00 X44.1999 Y70.4501
G01 Z-2.0000
G01 Z0
G00 Z1.0000
G00 X34.6999 Y55.9501
G01 Z-2.0000
G01 Z0
G00 Z1.0000
G00 X33.1999 Y41.4501
G01 Z-2.0000
G01 Z0
G00 Z1.0000
G00 X27.6999 Y29.9501
G01 Z-2.0000
G01 Z0
G00 Z1.0000
G00 X38.6999 Y16.9501
G01 Z-2.0000
G01 Z0
G00 Z1.0000
G00 X58.1999 Y10.9501
G01 Z-2.0000
G01 Z0
G00 Z1.0000
G00 X68.1999 Y10.4501
G01 Z-2.0000
G01 Z0
G00 Z1.0000
M05
G00 Z0.50

