(G-CODE GENERATED BY FLATCAM v8.991 - www.flatcam.org - Version Date: 2019/12/30)

(Name: Cncjob_drill_0.8mm)
(Type: G-code from Excellon)
(Units: MM)

(Created on Monday, 08 December 2025 at 09:38)

(Feedrate: 480 mm/min)
(Feedrate rapids 1500 mm/min)

(Z_Cut: -2 mm)
(Z_Move: 1 mm)
(Z Toolchange: 15 mm)
(X,Y Toolchange: None mm)
(Z Start: None mm)
(Z End: 0.5 mm)
(Steps per circle: 64)
(Preprocessor Excellon: default)

(X range:   96.1850 ...  186.7600  mm)
(Y range: -133.1500 ...  -59.7400  mm)

(Spindle Speed: 0 RPM)
G21
G90
G94




G01 F480.00
G00 Z1.0000

M03
G4 P1.0
G00 X87.1999 Y20.7601
G01 Z-2.0000
G01 Z0
G00 Z1.0000
G00 X87.1999 Y13.1401
G01 Z-2.0000
G01 Z0
G00 Z1.0000
G00 X79.0099 Y25.4501
G01 Z-2.0000
G01 Z0
G00 Z1.0000
G00 X71.3899 Y25.4501
G01 Z-2.0000
G01 Z0
G00 Z1.0000
G00 X28.1249 Y36.7851
G01 Z-2.0000
G01 Z0
G00 Z1.0000
G00 X28.1249 Y44.4051
G01 Z-2.0000
G01 Z0
G00 Z1.0000
G00 X28.2499 Y50.4301
G01 Z-2.0000
G01 Z0
G00 Z1.0000
G00 X28.2499 Y58.0501
G01 Z-2.0000
G01 Z0
G00 Z1.0000
G00 X28.2999 Y66.9751
G01 Z-2.0000
G01 Z0
G00 Z1.0000
G00 X28.2999 Y74.5951
G01 Z-2.0000
G01 Z0
G00 Z1.0000
G00 X66.6999 Y74.4501
G01 Z-2.0000
G01 Z0
G00 Z1.0000
G00 X74.3199 Y74.4501
G01 Z-2.0000
G01 Z0
G00 Z1.0000
M03
G4 P1.0
G00 X108.6999 Y30.1111
G01 Z-2.0000
G01 Z0
G00 Z1.0000
G00 X108.6999 Y27.6111
G01 Z-2.0000
G01 Z0
G00 Z1.0000
G00 X94.1999 Y30.4501
G01 Z-2.0000
G01 Z0
G00 Z1.0000
G00 X94.1999 Y27.9501
G01 Z-2.0000
G01 Z0
G00 Z1.0000
G00 X55.6999 Y22.9501
G01 Z-2.0000
G01 Z0
G00 Z1.0000
G00 X53.1999 Y22.9501
G01 Z-2.0000
G01 Z0
G00 Z1.0000
G00 X44.1999 Y21.6111
G01 Z-2.0000
G01 Z0
G00 Z1.0000
G00 X44.1999 Y24.1111
G01 Z-2.0000
G01 Z0
G00 Z1.0000
G00 X50.7499 Y34.9501
G01 Z-2.0000
G01 Z0
G00 Z1.0000
G00 X55.6299 Y34.9501
G01 Z-2.0000
G01 Z0
G00 Z1.0000
G00 X62.6999 Y35.4501
G01 Z-2.0000
G01 Z0
G00 Z1.0000
G00 X65.1999 Y35.4501
G01 Z-2.0000
G01 Z0
G00 Z1.0000
G00 X62.9649 Y44.8301
G01 Z-2.0000
G01 Z0
G00 Z1.0000
G00 X60.4249 Y44.8301
G01 Z-2.0000
G01 Z0
G00 Z1.0000
G00 X57.8849 Y44.8301
G01 Z-2.0000
G01 Z0
G00 Z1.0000
G00 X55.3449 Y44.8301
G01 Z-2.0000
G01 Z0
G00 Z1.0000
G00 X52.8049 Y44.8301
G01 Z-2.0000
G01 Z0
G00 Z1.0000
G00 X50.2649 Y44.8301
G01 Z-2.0000
G01 Z0
G00 Z1.0000
G00 X47.7249 Y44.8301
G01 Z-2.0000
G01 Z0
G00 Z1.0000
G00 X45.1849 Y44.8301
G01 Z-2.0000
G01 Z0
G00 Z1.0000
G00 X42.6449 Y44.8301
G01 Z-2.0000
G01 Z0
G00 Z1.0000
G00 X42.6449 Y52.4501
G01 Z-2.0000
G01 Z0
G00 Z1.0000
G00 X45.1849 Y52.4501
G01 Z-2.0000
G01 Z0
G00 Z1.0000
G00 X47.7249 Y52.4501
G01 Z-2.0000
G01 Z0
G00 Z1.0000
G00 X50.2649 Y52.4501
G01 Z-2.0000
G01 Z0
G00 Z1.0000
G00 X52.8049 Y52.4501
G01 Z-2.0000
G01 Z0
G00 Z1.0000
G00 X55.3449 Y52.4501
G01 Z-2.0000
G01 Z0
G00 Z1.0000
G00 X57.8849 Y52.4501
G01 Z-2.0000
G01 Z0
G00 Z1.0000
G00 X60.4249 Y52.4501
G01 Z-2.0000
G01 Z0
G00 Z1.0000
G00 X62.9649 Y52.4501
G01 Z-2.0000
G01 Z0
G00 Z1.0000
G00 X65.5049 Y52.4501
G01 Z-2.0000
G01 Z0
G00 Z1.0000
G00 X65.5049 Y44.8301
G01 Z-2.0000
G01 Z0
G00 Z1.0000
G00 X68.0449 Y44.8301
G01 Z-2.0000
G01 Z0
G00 Z1.0000
G00 X70.5849 Y44.8301
G01 Z-2.0000
G01 Z0
G00 Z1.0000
G00 X73.1249 Y44.8301
G01 Z-2.0000
G01 Z0
G00 Z1.0000
G00 X75.6649 Y44.8301
G01 Z-2.0000
G01 Z0
G00 Z1.0000
G00 X75.6649 Y52.4501
G01 Z-2.0000
G01 Z0
G00 Z1.0000
G00 X73.1249 Y52.4501
G01 Z-2.0000
G01 Z0
G00 Z1.0000
G00 X70.5849 Y52.4501
G01 Z-2.0000
G01 Z0
G00 Z1.0000
G00 X68.0449 Y52.4501
G01 Z-2.0000
G01 Z0
G00 Z1.0000
G00 X68.1999 Y66.9501
G01 Z-2.0000
G01 Z0
G00 Z1.0000
G00 X70.6999 Y66.9501
G01 Z-2.0000
G01 Z0
G00 Z1.0000
G00 X101.6999 Y73.4501
G01 Z-2.0000
G01 Z0
G00 Z1.0000
G00 X104.1999 Y73.4501
G01 Z-2.0000
G01 Z0
G00 Z1.0000
M05
G00 Z0.50

