(G-CODE GENERATED BY FLATCAM v8.991 - www.flatcam.org - Version Date: 2019/12/30)

(Name: Cncjob_drill_1.0mm)
(Type: G-code from Excellon)
(Units: MM)

(Created on Monday, 08 December 2025 at 09:38)

(Feedrate: 480 mm/min)
(Feedrate rapids 1500 mm/min)

(Z_Cut: -2 mm)
(Z_Move: 1 mm)
(Z Toolchange: 15 mm)
(X,Y Toolchange: None mm)
(Z Start: None mm)
(Z End: 0.5 mm)
(Steps per circle: 64)
(Preprocessor Excellon: default)

(X range:   96.1850 ...  186.7600  mm)
(Y range: -133.1500 ...  -59.7400  mm)

(Spindle Speed: 0 RPM)
G21
G90
G94




G01 F480.00
G00 Z1.0000

M03
G4 P1.0
G00 X56.7799 Y81.4501
G01 Z-2.0000
G01 Z0
G00 Z1.0000
G00 X54.2399 Y81.4501
G01 Z-2.0000
G01 Z0
G00 Z1.0000
G00 X51.6999 Y81.4501
G01 Z-2.0000
G01 Z0
G00 Z1.0000
G00 X49.1599 Y81.4501
G01 Z-2.0000
G01 Z0
G00 Z1.0000
G00 X46.6199 Y81.4501
G01 Z-2.0000
G01 Z0
G00 Z1.0000
G00 X44.0799 Y81.4501
G01 Z-2.0000
G01 Z0
G00 Z1.0000
M05
G00 Z0.50

