(G-CODE GENERATED BY FLATCAM v8.991 - www.flatcam.org - Version Date: 2019/12/30)

(Name: Cncjob_Milled_Drills)
(Type: G-code from Geometry)
(Units: MM)

(Created on Monday, 08 December 2025 at 09:38)

(TOOL DIAMETER: 1.5 mm)
(Feedrate: 1250.0 mm/min)
(Feedrate_Z: 250.0 mm/min)
(Feedrate rapids 1500.0 mm/min)

(Z_Cut: -1.7 mm)
(Z_Move: 0.5 mm)
(Z Toolchange: 15.0 mm)
(X,Y Toolchange: 0.0000, 0.0000 mm)
(Z Start: 0.5 mm)
(Z End: 15.0 mm)
(Steps per circle: 64)
(Preprocessor Geometry: default)

(X range:   20.6899 ...  109.7649  mm)
(Y range:   16.4401 ...   82.9601  mm)

(Spindle Speed: None RPM)
G21
G90
G94




G01 F1250.00
G00 Z0.5000
G00 Z0.5000
M03
G4 P1.0
G00 X21.2099 Y22.8701
G01 F250.00
G01 Z-0.1000
G01 F1250.00
G01 X21.2092 Y22.8662
G01 X21.2070 Y22.8630
G01 X21.2038 Y22.8608
G01 X21.1999 Y22.8601
G01 X21.1961 Y22.8608
G01 X21.1929 Y22.8630
G01 X21.1907 Y22.8662
G01 X21.1899 Y22.8701
G01 X21.1907 Y22.8739
G01 X21.1929 Y22.8771
G01 X21.1961 Y22.8793
G01 X21.1999 Y22.8801
G01 X21.2038 Y22.8793
G01 X21.2070 Y22.8771
G01 X21.2092 Y22.8739
G01 X21.2099 Y22.8701
G00 X21.2099 Y22.8701
G01 F250.00
G01 Z-0.2000
G01 F1250.00
G01 X21.2092 Y22.8662
G01 X21.2070 Y22.8630
G01 X21.2038 Y22.8608
G01 X21.1999 Y22.8601
G01 X21.1961 Y22.8608
G01 X21.1929 Y22.8630
G01 X21.1907 Y22.8662
G01 X21.1899 Y22.8701
G01 X21.1907 Y22.8739
G01 X21.1929 Y22.8771
G01 X21.1961 Y22.8793
G01 X21.1999 Y22.8801
G01 X21.2038 Y22.8793
G01 X21.2070 Y22.8771
G01 X21.2092 Y22.8739
G01 X21.2099 Y22.8701
G00 X21.2099 Y22.8701
G01 F250.00
G01 Z-0.3000
G01 F1250.00
G01 X21.2092 Y22.8662
G01 X21.2070 Y22.8630
G01 X21.2038 Y22.8608
G01 X21.1999 Y22.8601
G01 X21.1961 Y22.8608
G01 X21.1929 Y22.8630
G01 X21.1907 Y22.8662
G01 X21.1899 Y22.8701
G01 X21.1907 Y22.8739
G01 X21.1929 Y22.8771
G01 X21.1961 Y22.8793
G01 X21.1999 Y22.8801
G01 X21.2038 Y22.8793
G01 X21.2070 Y22.8771
G01 X21.2092 Y22.8739
G01 X21.2099 Y22.8701
G00 X21.2099 Y22.8701
G01 F250.00
G01 Z-0.4000
G01 F1250.00
G01 X21.2092 Y22.8662
G01 X21.2070 Y22.8630
G01 X21.2038 Y22.8608
G01 X21.1999 Y22.8601
G01 X21.1961 Y22.8608
G01 X21.1929 Y22.8630
G01 X21.1907 Y22.8662
G01 X21.1899 Y22.8701
G01 X21.1907 Y22.8739
G01 X21.1929 Y22.8771
G01 X21.1961 Y22.8793
G01 X21.1999 Y22.8801
G01 X21.2038 Y22.8793
G01 X21.2070 Y22.8771
G01 X21.2092 Y22.8739
G01 X21.2099 Y22.8701
G00 X21.2099 Y22.8701
G01 F250.00
G01 Z-0.5000
G01 F1250.00
G01 X21.2092 Y22.8662
G01 X21.2070 Y22.8630
G01 X21.2038 Y22.8608
G01 X21.1999 Y22.8601
G01 X21.1961 Y22.8608
G01 X21.1929 Y22.8630
G01 X21.1907 Y22.8662
G01 X21.1899 Y22.8701
G01 X21.1907 Y22.8739
G01 X21.1929 Y22.8771
G01 X21.1961 Y22.8793
G01 X21.1999 Y22.8801
G01 X21.2038 Y22.8793
G01 X21.2070 Y22.8771
G01 X21.2092 Y22.8739
G01 X21.2099 Y22.8701
G00 X21.2099 Y22.8701
G01 F250.00
G01 Z-0.6000
G01 F1250.00
G01 X21.2092 Y22.8662
G01 X21.2070 Y22.8630
G01 X21.2038 Y22.8608
G01 X21.1999 Y22.8601
G01 X21.1961 Y22.8608
G01 X21.1929 Y22.8630
G01 X21.1907 Y22.8662
G01 X21.1899 Y22.8701
G01 X21.1907 Y22.8739
G01 X21.1929 Y22.8771
G01 X21.1961 Y22.8793
G01 X21.1999 Y22.8801
G01 X21.2038 Y22.8793
G01 X21.2070 Y22.8771
G01 X21.2092 Y22.8739
G01 X21.2099 Y22.8701
G00 X21.2099 Y22.8701
G01 F250.00
G01 Z-0.7000
G01 F1250.00
G01 X21.2092 Y22.8662
G01 X21.2070 Y22.8630
G01 X21.2038 Y22.8608
G01 X21.1999 Y22.8601
G01 X21.1961 Y22.8608
G01 X21.1929 Y22.8630
G01 X21.1907 Y22.8662
G01 X21.1899 Y22.8701
G01 X21.1907 Y22.8739
G01 X21.1929 Y22.8771
G01 X21.1961 Y22.8793
G01 X21.1999 Y22.8801
G01 X21.2038 Y22.8793
G01 X21.2070 Y22.8771
G01 X21.2092 Y22.8739
G01 X21.2099 Y22.8701
G00 X21.2099 Y22.8701
G01 F250.00
G01 Z-0.8000
G01 F1250.00
G01 X21.2092 Y22.8662
G01 X21.2070 Y22.8630
G01 X21.2038 Y22.8608
G01 X21.1999 Y22.8601
G01 X21.1961 Y22.8608
G01 X21.1929 Y22.8630
G01 X21.1907 Y22.8662
G01 X21.1899 Y22.8701
G01 X21.1907 Y22.8739
G01 X21.1929 Y22.8771
G01 X21.1961 Y22.8793
G01 X21.1999 Y22.8801
G01 X21.2038 Y22.8793
G01 X21.2070 Y22.8771
G01 X21.2092 Y22.8739
G01 X21.2099 Y22.8701
G00 X21.2099 Y22.8701
G01 F250.00
G01 Z-0.9000
G01 F1250.00
G01 X21.2092 Y22.8662
G01 X21.2070 Y22.8630
G01 X21.2038 Y22.8608
G01 X21.1999 Y22.8601
G01 X21.1961 Y22.8608
G01 X21.1929 Y22.8630
G01 X21.1907 Y22.8662
G01 X21.1899 Y22.8701
G01 X21.1907 Y22.8739
G01 X21.1929 Y22.8771
G01 X21.1961 Y22.8793
G01 X21.1999 Y22.8801
G01 X21.2038 Y22.8793
G01 X21.2070 Y22.8771
G01 X21.2092 Y22.8739
G01 X21.2099 Y22.8701
G00 X21.2099 Y22.8701
G01 F250.00
G01 Z-1.0000
G01 F1250.00
G01 X21.2092 Y22.8662
G01 X21.2070 Y22.8630
G01 X21.2038 Y22.8608
G01 X21.1999 Y22.8601
G01 X21.1961 Y22.8608
G01 X21.1929 Y22.8630
G01 X21.1907 Y22.8662
G01 X21.1899 Y22.8701
G01 X21.1907 Y22.8739
G01 X21.1929 Y22.8771
G01 X21.1961 Y22.8793
G01 X21.1999 Y22.8801
G01 X21.2038 Y22.8793
G01 X21.2070 Y22.8771
G01 X21.2092 Y22.8739
G01 X21.2099 Y22.8701
G00 X21.2099 Y22.8701
G01 F250.00
G01 Z-1.1000
G01 F1250.00
G01 X21.2092 Y22.8662
G01 X21.2070 Y22.8630
G01 X21.2038 Y22.8608
G01 X21.1999 Y22.8601
G01 X21.1961 Y22.8608
G01 X21.1929 Y22.8630
G01 X21.1907 Y22.8662
G01 X21.1899 Y22.8701
G01 X21.1907 Y22.8739
G01 X21.1929 Y22.8771
G01 X21.1961 Y22.8793
G01 X21.1999 Y22.8801
G01 X21.2038 Y22.8793
G01 X21.2070 Y22.8771
G01 X21.2092 Y22.8739
G01 X21.2099 Y22.8701
G00 X21.2099 Y22.8701
G01 F250.00
G01 Z-1.2000
G01 F1250.00
G01 X21.2092 Y22.8662
G01 X21.2070 Y22.8630
G01 X21.2038 Y22.8608
G01 X21.1999 Y22.8601
G01 X21.1961 Y22.8608
G01 X21.1929 Y22.8630
G01 X21.1907 Y22.8662
G01 X21.1899 Y22.8701
G01 X21.1907 Y22.8739
G01 X21.1929 Y22.8771
G01 X21.1961 Y22.8793
G01 X21.1999 Y22.8801
G01 X21.2038 Y22.8793
G01 X21.2070 Y22.8771
G01 X21.2092 Y22.8739
G01 X21.2099 Y22.8701
G00 X21.2099 Y22.8701
G01 F250.00
G01 Z-1.3000
G01 F1250.00
G01 X21.2092 Y22.8662
G01 X21.2070 Y22.8630
G01 X21.2038 Y22.8608
G01 X21.1999 Y22.8601
G01 X21.1961 Y22.8608
G01 X21.1929 Y22.8630
G01 X21.1907 Y22.8662
G01 X21.1899 Y22.8701
G01 X21.1907 Y22.8739
G01 X21.1929 Y22.8771
G01 X21.1961 Y22.8793
G01 X21.1999 Y22.8801
G01 X21.2038 Y22.8793
G01 X21.2070 Y22.8771
G01 X21.2092 Y22.8739
G01 X21.2099 Y22.8701
G00 X21.2099 Y22.8701
G01 F250.00
G01 Z-1.4000
G01 F1250.00
G01 X21.2092 Y22.8662
G01 X21.2070 Y22.8630
G01 X21.2038 Y22.8608
G01 X21.1999 Y22.8601
G01 X21.1961 Y22.8608
G01 X21.1929 Y22.8630
G01 X21.1907 Y22.8662
G01 X21.1899 Y22.8701
G01 X21.1907 Y22.8739
G01 X21.1929 Y22.8771
G01 X21.1961 Y22.8793
G01 X21.1999 Y22.8801
G01 X21.2038 Y22.8793
G01 X21.2070 Y22.8771
G01 X21.2092 Y22.8739
G01 X21.2099 Y22.8701
G00 X21.2099 Y22.8701
G01 F250.00
G01 Z-1.5000
G01 F1250.00
G01 X21.2092 Y22.8662
G01 X21.2070 Y22.8630
G01 X21.2038 Y22.8608
G01 X21.1999 Y22.8601
G01 X21.1961 Y22.8608
G01 X21.1929 Y22.8630
G01 X21.1907 Y22.8662
G01 X21.1899 Y22.8701
G01 X21.1907 Y22.8739
G01 X21.1929 Y22.8771
G01 X21.1961 Y22.8793
G01 X21.1999 Y22.8801
G01 X21.2038 Y22.8793
G01 X21.2070 Y22.8771
G01 X21.2092 Y22.8739
G01 X21.2099 Y22.8701
G00 X21.2099 Y22.8701
G01 F250.00
G01 Z-1.6000
G01 F1250.00
G01 X21.2092 Y22.8662
G01 X21.2070 Y22.8630
G01 X21.2038 Y22.8608
G01 X21.1999 Y22.8601
G01 X21.1961 Y22.8608
G01 X21.1929 Y22.8630
G01 X21.1907 Y22.8662
G01 X21.1899 Y22.8701
G01 X21.1907 Y22.8739
G01 X21.1929 Y22.8771
G01 X21.1961 Y22.8793
G01 X21.1999 Y22.8801
G01 X21.2038 Y22.8793
G01 X21.2070 Y22.8771
G01 X21.2092 Y22.8739
G01 X21.2099 Y22.8701
G00 X21.2099 Y22.8701
G01 F250.00
G01 Z-1.7000
G01 F1250.00
G01 X21.2092 Y22.8662
G01 X21.2070 Y22.8630
G01 X21.2038 Y22.8608
G01 X21.1999 Y22.8601
G01 X21.1961 Y22.8608
G01 X21.1929 Y22.8630
G01 X21.1907 Y22.8662
G01 X21.1899 Y22.8701
G01 X21.1907 Y22.8739
G01 X21.1929 Y22.8771
G01 X21.1961 Y22.8793
G01 X21.1999 Y22.8801
G01 X21.2038 Y22.8793
G01 X21.2070 Y22.8771
G01 X21.2092 Y22.8739
G01 X21.2099 Y22.8701
G00 Z0.5000
G00 X21.2099 Y27.9501
G01 F250.00
G01 Z-0.1000
G01 F1250.00
G01 X21.2092 Y27.9462
G01 X21.2070 Y27.9430
G01 X21.2038 Y27.9408
G01 X21.1999 Y27.9401
G01 X21.1961 Y27.9408
G01 X21.1929 Y27.9430
G01 X21.1907 Y27.9462
G01 X21.1899 Y27.9501
G01 X21.1907 Y27.9539
G01 X21.1929 Y27.9571
G01 X21.1961 Y27.9593
G01 X21.1999 Y27.9601
G01 X21.2038 Y27.9593
G01 X21.2070 Y27.9571
G01 X21.2092 Y27.9539
G01 X21.2099 Y27.9501
G00 X21.2099 Y27.9501
G01 F250.00
G01 Z-0.2000
G01 F1250.00
G01 X21.2092 Y27.9462
G01 X21.2070 Y27.9430
G01 X21.2038 Y27.9408
G01 X21.1999 Y27.9401
G01 X21.1961 Y27.9408
G01 X21.1929 Y27.9430
G01 X21.1907 Y27.9462
G01 X21.1899 Y27.9501
G01 X21.1907 Y27.9539
G01 X21.1929 Y27.9571
G01 X21.1961 Y27.9593
G01 X21.1999 Y27.9601
G01 X21.2038 Y27.9593
G01 X21.2070 Y27.9571
G01 X21.2092 Y27.9539
G01 X21.2099 Y27.9501
G00 X21.2099 Y27.9501
G01 F250.00
G01 Z-0.3000
G01 F1250.00
G01 X21.2092 Y27.9462
G01 X21.2070 Y27.9430
G01 X21.2038 Y27.9408
G01 X21.1999 Y27.9401
G01 X21.1961 Y27.9408
G01 X21.1929 Y27.9430
G01 X21.1907 Y27.9462
G01 X21.1899 Y27.9501
G01 X21.1907 Y27.9539
G01 X21.1929 Y27.9571
G01 X21.1961 Y27.9593
G01 X21.1999 Y27.9601
G01 X21.2038 Y27.9593
G01 X21.2070 Y27.9571
G01 X21.2092 Y27.9539
G01 X21.2099 Y27.9501
G00 X21.2099 Y27.9501
G01 F250.00
G01 Z-0.4000
G01 F1250.00
G01 X21.2092 Y27.9462
G01 X21.2070 Y27.9430
G01 X21.2038 Y27.9408
G01 X21.1999 Y27.9401
G01 X21.1961 Y27.9408
G01 X21.1929 Y27.9430
G01 X21.1907 Y27.9462
G01 X21.1899 Y27.9501
G01 X21.1907 Y27.9539
G01 X21.1929 Y27.9571
G01 X21.1961 Y27.9593
G01 X21.1999 Y27.9601
G01 X21.2038 Y27.9593
G01 X21.2070 Y27.9571
G01 X21.2092 Y27.9539
G01 X21.2099 Y27.9501
G00 X21.2099 Y27.9501
G01 F250.00
G01 Z-0.5000
G01 F1250.00
G01 X21.2092 Y27.9462
G01 X21.2070 Y27.9430
G01 X21.2038 Y27.9408
G01 X21.1999 Y27.9401
G01 X21.1961 Y27.9408
G01 X21.1929 Y27.9430
G01 X21.1907 Y27.9462
G01 X21.1899 Y27.9501
G01 X21.1907 Y27.9539
G01 X21.1929 Y27.9571
G01 X21.1961 Y27.9593
G01 X21.1999 Y27.9601
G01 X21.2038 Y27.9593
G01 X21.2070 Y27.9571
G01 X21.2092 Y27.9539
G01 X21.2099 Y27.9501
G00 X21.2099 Y27.9501
G01 F250.00
G01 Z-0.6000
G01 F1250.00
G01 X21.2092 Y27.9462
G01 X21.2070 Y27.9430
G01 X21.2038 Y27.9408
G01 X21.1999 Y27.9401
G01 X21.1961 Y27.9408
G01 X21.1929 Y27.9430
G01 X21.1907 Y27.9462
G01 X21.1899 Y27.9501
G01 X21.1907 Y27.9539
G01 X21.1929 Y27.9571
G01 X21.1961 Y27.9593
G01 X21.1999 Y27.9601
G01 X21.2038 Y27.9593
G01 X21.2070 Y27.9571
G01 X21.2092 Y27.9539
G01 X21.2099 Y27.9501
G00 X21.2099 Y27.9501
G01 F250.00
G01 Z-0.7000
G01 F1250.00
G01 X21.2092 Y27.9462
G01 X21.2070 Y27.9430
G01 X21.2038 Y27.9408
G01 X21.1999 Y27.9401
G01 X21.1961 Y27.9408
G01 X21.1929 Y27.9430
G01 X21.1907 Y27.9462
G01 X21.1899 Y27.9501
G01 X21.1907 Y27.9539
G01 X21.1929 Y27.9571
G01 X21.1961 Y27.9593
G01 X21.1999 Y27.9601
G01 X21.2038 Y27.9593
G01 X21.2070 Y27.9571
G01 X21.2092 Y27.9539
G01 X21.2099 Y27.9501
G00 X21.2099 Y27.9501
G01 F250.00
G01 Z-0.8000
G01 F1250.00
G01 X21.2092 Y27.9462
G01 X21.2070 Y27.9430
G01 X21.2038 Y27.9408
G01 X21.1999 Y27.9401
G01 X21.1961 Y27.9408
G01 X21.1929 Y27.9430
G01 X21.1907 Y27.9462
G01 X21.1899 Y27.9501
G01 X21.1907 Y27.9539
G01 X21.1929 Y27.9571
G01 X21.1961 Y27.9593
G01 X21.1999 Y27.9601
G01 X21.2038 Y27.9593
G01 X21.2070 Y27.9571
G01 X21.2092 Y27.9539
G01 X21.2099 Y27.9501
G00 X21.2099 Y27.9501
G01 F250.00
G01 Z-0.9000
G01 F1250.00
G01 X21.2092 Y27.9462
G01 X21.2070 Y27.9430
G01 X21.2038 Y27.9408
G01 X21.1999 Y27.9401
G01 X21.1961 Y27.9408
G01 X21.1929 Y27.9430
G01 X21.1907 Y27.9462
G01 X21.1899 Y27.9501
G01 X21.1907 Y27.9539
G01 X21.1929 Y27.9571
G01 X21.1961 Y27.9593
G01 X21.1999 Y27.9601
G01 X21.2038 Y27.9593
G01 X21.2070 Y27.9571
G01 X21.2092 Y27.9539
G01 X21.2099 Y27.9501
G00 X21.2099 Y27.9501
G01 F250.00
G01 Z-1.0000
G01 F1250.00
G01 X21.2092 Y27.9462
G01 X21.2070 Y27.9430
G01 X21.2038 Y27.9408
G01 X21.1999 Y27.9401
G01 X21.1961 Y27.9408
G01 X21.1929 Y27.9430
G01 X21.1907 Y27.9462
G01 X21.1899 Y27.9501
G01 X21.1907 Y27.9539
G01 X21.1929 Y27.9571
G01 X21.1961 Y27.9593
G01 X21.1999 Y27.9601
G01 X21.2038 Y27.9593
G01 X21.2070 Y27.9571
G01 X21.2092 Y27.9539
G01 X21.2099 Y27.9501
G00 X21.2099 Y27.9501
G01 F250.00
G01 Z-1.1000
G01 F1250.00
G01 X21.2092 Y27.9462
G01 X21.2070 Y27.9430
G01 X21.2038 Y27.9408
G01 X21.1999 Y27.9401
G01 X21.1961 Y27.9408
G01 X21.1929 Y27.9430
G01 X21.1907 Y27.9462
G01 X21.1899 Y27.9501
G01 X21.1907 Y27.9539
G01 X21.1929 Y27.9571
G01 X21.1961 Y27.9593
G01 X21.1999 Y27.9601
G01 X21.2038 Y27.9593
G01 X21.2070 Y27.9571
G01 X21.2092 Y27.9539
G01 X21.2099 Y27.9501
G00 X21.2099 Y27.9501
G01 F250.00
G01 Z-1.2000
G01 F1250.00
G01 X21.2092 Y27.9462
G01 X21.2070 Y27.9430
G01 X21.2038 Y27.9408
G01 X21.1999 Y27.9401
G01 X21.1961 Y27.9408
G01 X21.1929 Y27.9430
G01 X21.1907 Y27.9462
G01 X21.1899 Y27.9501
G01 X21.1907 Y27.9539
G01 X21.1929 Y27.9571
G01 X21.1961 Y27.9593
G01 X21.1999 Y27.9601
G01 X21.2038 Y27.9593
G01 X21.2070 Y27.9571
G01 X21.2092 Y27.9539
G01 X21.2099 Y27.9501
G00 X21.2099 Y27.9501
G01 F250.00
G01 Z-1.3000
G01 F1250.00
G01 X21.2092 Y27.9462
G01 X21.2070 Y27.9430
G01 X21.2038 Y27.9408
G01 X21.1999 Y27.9401
G01 X21.1961 Y27.9408
G01 X21.1929 Y27.9430
G01 X21.1907 Y27.9462
G01 X21.1899 Y27.9501
G01 X21.1907 Y27.9539
G01 X21.1929 Y27.9571
G01 X21.1961 Y27.9593
G01 X21.1999 Y27.9601
G01 X21.2038 Y27.9593
G01 X21.2070 Y27.9571
G01 X21.2092 Y27.9539
G01 X21.2099 Y27.9501
G00 X21.2099 Y27.9501
G01 F250.00
G01 Z-1.4000
G01 F1250.00
G01 X21.2092 Y27.9462
G01 X21.2070 Y27.9430
G01 X21.2038 Y27.9408
G01 X21.1999 Y27.9401
G01 X21.1961 Y27.9408
G01 X21.1929 Y27.9430
G01 X21.1907 Y27.9462
G01 X21.1899 Y27.9501
G01 X21.1907 Y27.9539
G01 X21.1929 Y27.9571
G01 X21.1961 Y27.9593
G01 X21.1999 Y27.9601
G01 X21.2038 Y27.9593
G01 X21.2070 Y27.9571
G01 X21.2092 Y27.9539
G01 X21.2099 Y27.9501
G00 X21.2099 Y27.9501
G01 F250.00
G01 Z-1.5000
G01 F1250.00
G01 X21.2092 Y27.9462
G01 X21.2070 Y27.9430
G01 X21.2038 Y27.9408
G01 X21.1999 Y27.9401
G01 X21.1961 Y27.9408
G01 X21.1929 Y27.9430
G01 X21.1907 Y27.9462
G01 X21.1899 Y27.9501
G01 X21.1907 Y27.9539
G01 X21.1929 Y27.9571
G01 X21.1961 Y27.9593
G01 X21.1999 Y27.9601
G01 X21.2038 Y27.9593
G01 X21.2070 Y27.9571
G01 X21.2092 Y27.9539
G01 X21.2099 Y27.9501
G00 X21.2099 Y27.9501
G01 F250.00
G01 Z-1.6000
G01 F1250.00
G01 X21.2092 Y27.9462
G01 X21.2070 Y27.9430
G01 X21.2038 Y27.9408
G01 X21.1999 Y27.9401
G01 X21.1961 Y27.9408
G01 X21.1929 Y27.9430
G01 X21.1907 Y27.9462
G01 X21.1899 Y27.9501
G01 X21.1907 Y27.9539
G01 X21.1929 Y27.9571
G01 X21.1961 Y27.9593
G01 X21.1999 Y27.9601
G01 X21.2038 Y27.9593
G01 X21.2070 Y27.9571
G01 X21.2092 Y27.9539
G01 X21.2099 Y27.9501
G00 X21.2099 Y27.9501
G01 F250.00
G01 Z-1.7000
G01 F1250.00
G01 X21.2092 Y27.9462
G01 X21.2070 Y27.9430
G01 X21.2038 Y27.9408
G01 X21.1999 Y27.9401
G01 X21.1961 Y27.9408
G01 X21.1929 Y27.9430
G01 X21.1907 Y27.9462
G01 X21.1899 Y27.9501
G01 X21.1907 Y27.9539
G01 X21.1929 Y27.9571
G01 X21.1961 Y27.9593
G01 X21.1999 Y27.9601
G01 X21.2038 Y27.9593
G01 X21.2070 Y27.9571
G01 X21.2092 Y27.9539
G01 X21.2099 Y27.9501
G00 Z0.5000
G00 X21.2099 Y37.9501
G01 F250.00
G01 Z-0.1000
G01 F1250.00
G01 X21.2092 Y37.9462
G01 X21.2070 Y37.9430
G01 X21.2038 Y37.9408
G01 X21.1999 Y37.9401
G01 X21.1961 Y37.9408
G01 X21.1929 Y37.9430
G01 X21.1907 Y37.9462
G01 X21.1899 Y37.9501
G01 X21.1907 Y37.9539
G01 X21.1929 Y37.9571
G01 X21.1961 Y37.9593
G01 X21.1999 Y37.9601
G01 X21.2038 Y37.9593
G01 X21.2070 Y37.9571
G01 X21.2092 Y37.9539
G01 X21.2099 Y37.9501
G00 X21.2099 Y37.9501
G01 F250.00
G01 Z-0.2000
G01 F1250.00
G01 X21.2092 Y37.9462
G01 X21.2070 Y37.9430
G01 X21.2038 Y37.9408
G01 X21.1999 Y37.9401
G01 X21.1961 Y37.9408
G01 X21.1929 Y37.9430
G01 X21.1907 Y37.9462
G01 X21.1899 Y37.9501
G01 X21.1907 Y37.9539
G01 X21.1929 Y37.9571
G01 X21.1961 Y37.9593
G01 X21.1999 Y37.9601
G01 X21.2038 Y37.9593
G01 X21.2070 Y37.9571
G01 X21.2092 Y37.9539
G01 X21.2099 Y37.9501
G00 X21.2099 Y37.9501
G01 F250.00
G01 Z-0.3000
G01 F1250.00
G01 X21.2092 Y37.9462
G01 X21.2070 Y37.9430
G01 X21.2038 Y37.9408
G01 X21.1999 Y37.9401
G01 X21.1961 Y37.9408
G01 X21.1929 Y37.9430
G01 X21.1907 Y37.9462
G01 X21.1899 Y37.9501
G01 X21.1907 Y37.9539
G01 X21.1929 Y37.9571
G01 X21.1961 Y37.9593
G01 X21.1999 Y37.9601
G01 X21.2038 Y37.9593
G01 X21.2070 Y37.9571
G01 X21.2092 Y37.9539
G01 X21.2099 Y37.9501
G00 X21.2099 Y37.9501
G01 F250.00
G01 Z-0.4000
G01 F1250.00
G01 X21.2092 Y37.9462
G01 X21.2070 Y37.9430
G01 X21.2038 Y37.9408
G01 X21.1999 Y37.9401
G01 X21.1961 Y37.9408
G01 X21.1929 Y37.9430
G01 X21.1907 Y37.9462
G01 X21.1899 Y37.9501
G01 X21.1907 Y37.9539
G01 X21.1929 Y37.9571
G01 X21.1961 Y37.9593
G01 X21.1999 Y37.9601
G01 X21.2038 Y37.9593
G01 X21.2070 Y37.9571
G01 X21.2092 Y37.9539
G01 X21.2099 Y37.9501
G00 X21.2099 Y37.9501
G01 F250.00
G01 Z-0.5000
G01 F1250.00
G01 X21.2092 Y37.9462
G01 X21.2070 Y37.9430
G01 X21.2038 Y37.9408
G01 X21.1999 Y37.9401
G01 X21.1961 Y37.9408
G01 X21.1929 Y37.9430
G01 X21.1907 Y37.9462
G01 X21.1899 Y37.9501
G01 X21.1907 Y37.9539
G01 X21.1929 Y37.9571
G01 X21.1961 Y37.9593
G01 X21.1999 Y37.9601
G01 X21.2038 Y37.9593
G01 X21.2070 Y37.9571
G01 X21.2092 Y37.9539
G01 X21.2099 Y37.9501
G00 X21.2099 Y37.9501
G01 F250.00
G01 Z-0.6000
G01 F1250.00
G01 X21.2092 Y37.9462
G01 X21.2070 Y37.9430
G01 X21.2038 Y37.9408
G01 X21.1999 Y37.9401
G01 X21.1961 Y37.9408
G01 X21.1929 Y37.9430
G01 X21.1907 Y37.9462
G01 X21.1899 Y37.9501
G01 X21.1907 Y37.9539
G01 X21.1929 Y37.9571
G01 X21.1961 Y37.9593
G01 X21.1999 Y37.9601
G01 X21.2038 Y37.9593
G01 X21.2070 Y37.9571
G01 X21.2092 Y37.9539
G01 X21.2099 Y37.9501
G00 X21.2099 Y37.9501
G01 F250.00
G01 Z-0.7000
G01 F1250.00
G01 X21.2092 Y37.9462
G01 X21.2070 Y37.9430
G01 X21.2038 Y37.9408
G01 X21.1999 Y37.9401
G01 X21.1961 Y37.9408
G01 X21.1929 Y37.9430
G01 X21.1907 Y37.9462
G01 X21.1899 Y37.9501
G01 X21.1907 Y37.9539
G01 X21.1929 Y37.9571
G01 X21.1961 Y37.9593
G01 X21.1999 Y37.9601
G01 X21.2038 Y37.9593
G01 X21.2070 Y37.9571
G01 X21.2092 Y37.9539
G01 X21.2099 Y37.9501
G00 X21.2099 Y37.9501
G01 F250.00
G01 Z-0.8000
G01 F1250.00
G01 X21.2092 Y37.9462
G01 X21.2070 Y37.9430
G01 X21.2038 Y37.9408
G01 X21.1999 Y37.9401
G01 X21.1961 Y37.9408
G01 X21.1929 Y37.9430
G01 X21.1907 Y37.9462
G01 X21.1899 Y37.9501
G01 X21.1907 Y37.9539
G01 X21.1929 Y37.9571
G01 X21.1961 Y37.9593
G01 X21.1999 Y37.9601
G01 X21.2038 Y37.9593
G01 X21.2070 Y37.9571
G01 X21.2092 Y37.9539
G01 X21.2099 Y37.9501
G00 X21.2099 Y37.9501
G01 F250.00
G01 Z-0.9000
G01 F1250.00
G01 X21.2092 Y37.9462
G01 X21.2070 Y37.9430
G01 X21.2038 Y37.9408
G01 X21.1999 Y37.9401
G01 X21.1961 Y37.9408
G01 X21.1929 Y37.9430
G01 X21.1907 Y37.9462
G01 X21.1899 Y37.9501
G01 X21.1907 Y37.9539
G01 X21.1929 Y37.9571
G01 X21.1961 Y37.9593
G01 X21.1999 Y37.9601
G01 X21.2038 Y37.9593
G01 X21.2070 Y37.9571
G01 X21.2092 Y37.9539
G01 X21.2099 Y37.9501
G00 X21.2099 Y37.9501
G01 F250.00
G01 Z-1.0000
G01 F1250.00
G01 X21.2092 Y37.9462
G01 X21.2070 Y37.9430
G01 X21.2038 Y37.9408
G01 X21.1999 Y37.9401
G01 X21.1961 Y37.9408
G01 X21.1929 Y37.9430
G01 X21.1907 Y37.9462
G01 X21.1899 Y37.9501
G01 X21.1907 Y37.9539
G01 X21.1929 Y37.9571
G01 X21.1961 Y37.9593
G01 X21.1999 Y37.9601
G01 X21.2038 Y37.9593
G01 X21.2070 Y37.9571
G01 X21.2092 Y37.9539
G01 X21.2099 Y37.9501
G00 X21.2099 Y37.9501
G01 F250.00
G01 Z-1.1000
G01 F1250.00
G01 X21.2092 Y37.9462
G01 X21.2070 Y37.9430
G01 X21.2038 Y37.9408
G01 X21.1999 Y37.9401
G01 X21.1961 Y37.9408
G01 X21.1929 Y37.9430
G01 X21.1907 Y37.9462
G01 X21.1899 Y37.9501
G01 X21.1907 Y37.9539
G01 X21.1929 Y37.9571
G01 X21.1961 Y37.9593
G01 X21.1999 Y37.9601
G01 X21.2038 Y37.9593
G01 X21.2070 Y37.9571
G01 X21.2092 Y37.9539
G01 X21.2099 Y37.9501
G00 X21.2099 Y37.9501
G01 F250.00
G01 Z-1.2000
G01 F1250.00
G01 X21.2092 Y37.9462
G01 X21.2070 Y37.9430
G01 X21.2038 Y37.9408
G01 X21.1999 Y37.9401
G01 X21.1961 Y37.9408
G01 X21.1929 Y37.9430
G01 X21.1907 Y37.9462
G01 X21.1899 Y37.9501
G01 X21.1907 Y37.9539
G01 X21.1929 Y37.9571
G01 X21.1961 Y37.9593
G01 X21.1999 Y37.9601
G01 X21.2038 Y37.9593
G01 X21.2070 Y37.9571
G01 X21.2092 Y37.9539
G01 X21.2099 Y37.9501
G00 X21.2099 Y37.9501
G01 F250.00
G01 Z-1.3000
G01 F1250.00
G01 X21.2092 Y37.9462
G01 X21.2070 Y37.9430
G01 X21.2038 Y37.9408
G01 X21.1999 Y37.9401
G01 X21.1961 Y37.9408
G01 X21.1929 Y37.9430
G01 X21.1907 Y37.9462
G01 X21.1899 Y37.9501
G01 X21.1907 Y37.9539
G01 X21.1929 Y37.9571
G01 X21.1961 Y37.9593
G01 X21.1999 Y37.9601
G01 X21.2038 Y37.9593
G01 X21.2070 Y37.9571
G01 X21.2092 Y37.9539
G01 X21.2099 Y37.9501
G00 X21.2099 Y37.9501
G01 F250.00
G01 Z-1.4000
G01 F1250.00
G01 X21.2092 Y37.9462
G01 X21.2070 Y37.9430
G01 X21.2038 Y37.9408
G01 X21.1999 Y37.9401
G01 X21.1961 Y37.9408
G01 X21.1929 Y37.9430
G01 X21.1907 Y37.9462
G01 X21.1899 Y37.9501
G01 X21.1907 Y37.9539
G01 X21.1929 Y37.9571
G01 X21.1961 Y37.9593
G01 X21.1999 Y37.9601
G01 X21.2038 Y37.9593
G01 X21.2070 Y37.9571
G01 X21.2092 Y37.9539
G01 X21.2099 Y37.9501
G00 X21.2099 Y37.9501
G01 F250.00
G01 Z-1.5000
G01 F1250.00
G01 X21.2092 Y37.9462
G01 X21.2070 Y37.9430
G01 X21.2038 Y37.9408
G01 X21.1999 Y37.9401
G01 X21.1961 Y37.9408
G01 X21.1929 Y37.9430
G01 X21.1907 Y37.9462
G01 X21.1899 Y37.9501
G01 X21.1907 Y37.9539
G01 X21.1929 Y37.9571
G01 X21.1961 Y37.9593
G01 X21.1999 Y37.9601
G01 X21.2038 Y37.9593
G01 X21.2070 Y37.9571
G01 X21.2092 Y37.9539
G01 X21.2099 Y37.9501
G00 X21.2099 Y37.9501
G01 F250.00
G01 Z-1.6000
G01 F1250.00
G01 X21.2092 Y37.9462
G01 X21.2070 Y37.9430
G01 X21.2038 Y37.9408
G01 X21.1999 Y37.9401
G01 X21.1961 Y37.9408
G01 X21.1929 Y37.9430
G01 X21.1907 Y37.9462
G01 X21.1899 Y37.9501
G01 X21.1907 Y37.9539
G01 X21.1929 Y37.9571
G01 X21.1961 Y37.9593
G01 X21.1999 Y37.9601
G01 X21.2038 Y37.9593
G01 X21.2070 Y37.9571
G01 X21.2092 Y37.9539
G01 X21.2099 Y37.9501
G00 X21.2099 Y37.9501
G01 F250.00
G01 Z-1.7000
G01 F1250.00
G01 X21.2092 Y37.9462
G01 X21.2070 Y37.9430
G01 X21.2038 Y37.9408
G01 X21.1999 Y37.9401
G01 X21.1961 Y37.9408
G01 X21.1929 Y37.9430
G01 X21.1907 Y37.9462
G01 X21.1899 Y37.9501
G01 X21.1907 Y37.9539
G01 X21.1929 Y37.9571
G01 X21.1961 Y37.9593
G01 X21.1999 Y37.9601
G01 X21.2038 Y37.9593
G01 X21.2070 Y37.9571
G01 X21.2092 Y37.9539
G01 X21.2099 Y37.9501
G00 Z0.5000
G00 X21.2099 Y43.0301
G01 F250.00
G01 Z-0.1000
G01 F1250.00
G01 X21.2092 Y43.0262
G01 X21.2070 Y43.0230
G01 X21.2038 Y43.0208
G01 X21.1999 Y43.0201
G01 X21.1961 Y43.0208
G01 X21.1929 Y43.0230
G01 X21.1907 Y43.0262
G01 X21.1899 Y43.0301
G01 X21.1907 Y43.0339
G01 X21.1929 Y43.0371
G01 X21.1961 Y43.0393
G01 X21.1999 Y43.0401
G01 X21.2038 Y43.0393
G01 X21.2070 Y43.0371
G01 X21.2092 Y43.0339
G01 X21.2099 Y43.0301
G00 X21.2099 Y43.0301
G01 F250.00
G01 Z-0.2000
G01 F1250.00
G01 X21.2092 Y43.0262
G01 X21.2070 Y43.0230
G01 X21.2038 Y43.0208
G01 X21.1999 Y43.0201
G01 X21.1961 Y43.0208
G01 X21.1929 Y43.0230
G01 X21.1907 Y43.0262
G01 X21.1899 Y43.0301
G01 X21.1907 Y43.0339
G01 X21.1929 Y43.0371
G01 X21.1961 Y43.0393
G01 X21.1999 Y43.0401
G01 X21.2038 Y43.0393
G01 X21.2070 Y43.0371
G01 X21.2092 Y43.0339
G01 X21.2099 Y43.0301
G00 X21.2099 Y43.0301
G01 F250.00
G01 Z-0.3000
G01 F1250.00
G01 X21.2092 Y43.0262
G01 X21.2070 Y43.0230
G01 X21.2038 Y43.0208
G01 X21.1999 Y43.0201
G01 X21.1961 Y43.0208
G01 X21.1929 Y43.0230
G01 X21.1907 Y43.0262
G01 X21.1899 Y43.0301
G01 X21.1907 Y43.0339
G01 X21.1929 Y43.0371
G01 X21.1961 Y43.0393
G01 X21.1999 Y43.0401
G01 X21.2038 Y43.0393
G01 X21.2070 Y43.0371
G01 X21.2092 Y43.0339
G01 X21.2099 Y43.0301
G00 X21.2099 Y43.0301
G01 F250.00
G01 Z-0.4000
G01 F1250.00
G01 X21.2092 Y43.0262
G01 X21.2070 Y43.0230
G01 X21.2038 Y43.0208
G01 X21.1999 Y43.0201
G01 X21.1961 Y43.0208
G01 X21.1929 Y43.0230
G01 X21.1907 Y43.0262
G01 X21.1899 Y43.0301
G01 X21.1907 Y43.0339
G01 X21.1929 Y43.0371
G01 X21.1961 Y43.0393
G01 X21.1999 Y43.0401
G01 X21.2038 Y43.0393
G01 X21.2070 Y43.0371
G01 X21.2092 Y43.0339
G01 X21.2099 Y43.0301
G00 X21.2099 Y43.0301
G01 F250.00
G01 Z-0.5000
G01 F1250.00
G01 X21.2092 Y43.0262
G01 X21.2070 Y43.0230
G01 X21.2038 Y43.0208
G01 X21.1999 Y43.0201
G01 X21.1961 Y43.0208
G01 X21.1929 Y43.0230
G01 X21.1907 Y43.0262
G01 X21.1899 Y43.0301
G01 X21.1907 Y43.0339
G01 X21.1929 Y43.0371
G01 X21.1961 Y43.0393
G01 X21.1999 Y43.0401
G01 X21.2038 Y43.0393
G01 X21.2070 Y43.0371
G01 X21.2092 Y43.0339
G01 X21.2099 Y43.0301
G00 X21.2099 Y43.0301
G01 F250.00
G01 Z-0.6000
G01 F1250.00
G01 X21.2092 Y43.0262
G01 X21.2070 Y43.0230
G01 X21.2038 Y43.0208
G01 X21.1999 Y43.0201
G01 X21.1961 Y43.0208
G01 X21.1929 Y43.0230
G01 X21.1907 Y43.0262
G01 X21.1899 Y43.0301
G01 X21.1907 Y43.0339
G01 X21.1929 Y43.0371
G01 X21.1961 Y43.0393
G01 X21.1999 Y43.0401
G01 X21.2038 Y43.0393
G01 X21.2070 Y43.0371
G01 X21.2092 Y43.0339
G01 X21.2099 Y43.0301
G00 X21.2099 Y43.0301
G01 F250.00
G01 Z-0.7000
G01 F1250.00
G01 X21.2092 Y43.0262
G01 X21.2070 Y43.0230
G01 X21.2038 Y43.0208
G01 X21.1999 Y43.0201
G01 X21.1961 Y43.0208
G01 X21.1929 Y43.0230
G01 X21.1907 Y43.0262
G01 X21.1899 Y43.0301
G01 X21.1907 Y43.0339
G01 X21.1929 Y43.0371
G01 X21.1961 Y43.0393
G01 X21.1999 Y43.0401
G01 X21.2038 Y43.0393
G01 X21.2070 Y43.0371
G01 X21.2092 Y43.0339
G01 X21.2099 Y43.0301
G00 X21.2099 Y43.0301
G01 F250.00
G01 Z-0.8000
G01 F1250.00
G01 X21.2092 Y43.0262
G01 X21.2070 Y43.0230
G01 X21.2038 Y43.0208
G01 X21.1999 Y43.0201
G01 X21.1961 Y43.0208
G01 X21.1929 Y43.0230
G01 X21.1907 Y43.0262
G01 X21.1899 Y43.0301
G01 X21.1907 Y43.0339
G01 X21.1929 Y43.0371
G01 X21.1961 Y43.0393
G01 X21.1999 Y43.0401
G01 X21.2038 Y43.0393
G01 X21.2070 Y43.0371
G01 X21.2092 Y43.0339
G01 X21.2099 Y43.0301
G00 X21.2099 Y43.0301
G01 F250.00
G01 Z-0.9000
G01 F1250.00
G01 X21.2092 Y43.0262
G01 X21.2070 Y43.0230
G01 X21.2038 Y43.0208
G01 X21.1999 Y43.0201
G01 X21.1961 Y43.0208
G01 X21.1929 Y43.0230
G01 X21.1907 Y43.0262
G01 X21.1899 Y43.0301
G01 X21.1907 Y43.0339
G01 X21.1929 Y43.0371
G01 X21.1961 Y43.0393
G01 X21.1999 Y43.0401
G01 X21.2038 Y43.0393
G01 X21.2070 Y43.0371
G01 X21.2092 Y43.0339
G01 X21.2099 Y43.0301
G00 X21.2099 Y43.0301
G01 F250.00
G01 Z-1.0000
G01 F1250.00
G01 X21.2092 Y43.0262
G01 X21.2070 Y43.0230
G01 X21.2038 Y43.0208
G01 X21.1999 Y43.0201
G01 X21.1961 Y43.0208
G01 X21.1929 Y43.0230
G01 X21.1907 Y43.0262
G01 X21.1899 Y43.0301
G01 X21.1907 Y43.0339
G01 X21.1929 Y43.0371
G01 X21.1961 Y43.0393
G01 X21.1999 Y43.0401
G01 X21.2038 Y43.0393
G01 X21.2070 Y43.0371
G01 X21.2092 Y43.0339
G01 X21.2099 Y43.0301
G00 X21.2099 Y43.0301
G01 F250.00
G01 Z-1.1000
G01 F1250.00
G01 X21.2092 Y43.0262
G01 X21.2070 Y43.0230
G01 X21.2038 Y43.0208
G01 X21.1999 Y43.0201
G01 X21.1961 Y43.0208
G01 X21.1929 Y43.0230
G01 X21.1907 Y43.0262
G01 X21.1899 Y43.0301
G01 X21.1907 Y43.0339
G01 X21.1929 Y43.0371
G01 X21.1961 Y43.0393
G01 X21.1999 Y43.0401
G01 X21.2038 Y43.0393
G01 X21.2070 Y43.0371
G01 X21.2092 Y43.0339
G01 X21.2099 Y43.0301
G00 X21.2099 Y43.0301
G01 F250.00
G01 Z-1.2000
G01 F1250.00
G01 X21.2092 Y43.0262
G01 X21.2070 Y43.0230
G01 X21.2038 Y43.0208
G01 X21.1999 Y43.0201
G01 X21.1961 Y43.0208
G01 X21.1929 Y43.0230
G01 X21.1907 Y43.0262
G01 X21.1899 Y43.0301
G01 X21.1907 Y43.0339
G01 X21.1929 Y43.0371
G01 X21.1961 Y43.0393
G01 X21.1999 Y43.0401
G01 X21.2038 Y43.0393
G01 X21.2070 Y43.0371
G01 X21.2092 Y43.0339
G01 X21.2099 Y43.0301
G00 X21.2099 Y43.0301
G01 F250.00
G01 Z-1.3000
G01 F1250.00
G01 X21.2092 Y43.0262
G01 X21.2070 Y43.0230
G01 X21.2038 Y43.0208
G01 X21.1999 Y43.0201
G01 X21.1961 Y43.0208
G01 X21.1929 Y43.0230
G01 X21.1907 Y43.0262
G01 X21.1899 Y43.0301
G01 X21.1907 Y43.0339
G01 X21.1929 Y43.0371
G01 X21.1961 Y43.0393
G01 X21.1999 Y43.0401
G01 X21.2038 Y43.0393
G01 X21.2070 Y43.0371
G01 X21.2092 Y43.0339
G01 X21.2099 Y43.0301
G00 X21.2099 Y43.0301
G01 F250.00
G01 Z-1.4000
G01 F1250.00
G01 X21.2092 Y43.0262
G01 X21.2070 Y43.0230
G01 X21.2038 Y43.0208
G01 X21.1999 Y43.0201
G01 X21.1961 Y43.0208
G01 X21.1929 Y43.0230
G01 X21.1907 Y43.0262
G01 X21.1899 Y43.0301
G01 X21.1907 Y43.0339
G01 X21.1929 Y43.0371
G01 X21.1961 Y43.0393
G01 X21.1999 Y43.0401
G01 X21.2038 Y43.0393
G01 X21.2070 Y43.0371
G01 X21.2092 Y43.0339
G01 X21.2099 Y43.0301
G00 X21.2099 Y43.0301
G01 F250.00
G01 Z-1.5000
G01 F1250.00
G01 X21.2092 Y43.0262
G01 X21.2070 Y43.0230
G01 X21.2038 Y43.0208
G01 X21.1999 Y43.0201
G01 X21.1961 Y43.0208
G01 X21.1929 Y43.0230
G01 X21.1907 Y43.0262
G01 X21.1899 Y43.0301
G01 X21.1907 Y43.0339
G01 X21.1929 Y43.0371
G01 X21.1961 Y43.0393
G01 X21.1999 Y43.0401
G01 X21.2038 Y43.0393
G01 X21.2070 Y43.0371
G01 X21.2092 Y43.0339
G01 X21.2099 Y43.0301
G00 X21.2099 Y43.0301
G01 F250.00
G01 Z-1.6000
G01 F1250.00
G01 X21.2092 Y43.0262
G01 X21.2070 Y43.0230
G01 X21.2038 Y43.0208
G01 X21.1999 Y43.0201
G01 X21.1961 Y43.0208
G01 X21.1929 Y43.0230
G01 X21.1907 Y43.0262
G01 X21.1899 Y43.0301
G01 X21.1907 Y43.0339
G01 X21.1929 Y43.0371
G01 X21.1961 Y43.0393
G01 X21.1999 Y43.0401
G01 X21.2038 Y43.0393
G01 X21.2070 Y43.0371
G01 X21.2092 Y43.0339
G01 X21.2099 Y43.0301
G00 X21.2099 Y43.0301
G01 F250.00
G01 Z-1.7000
G01 F1250.00
G01 X21.2092 Y43.0262
G01 X21.2070 Y43.0230
G01 X21.2038 Y43.0208
G01 X21.1999 Y43.0201
G01 X21.1961 Y43.0208
G01 X21.1929 Y43.0230
G01 X21.1907 Y43.0262
G01 X21.1899 Y43.0301
G01 X21.1907 Y43.0339
G01 X21.1929 Y43.0371
G01 X21.1961 Y43.0393
G01 X21.1999 Y43.0401
G01 X21.2038 Y43.0393
G01 X21.2070 Y43.0371
G01 X21.2092 Y43.0339
G01 X21.2099 Y43.0301
G00 Z0.5000
G00 X20.7099 Y51.8701
G01 F250.00
G01 Z-0.1000
G01 F1250.00
G01 X20.7092 Y51.8662
G01 X20.7070 Y51.8630
G01 X20.7038 Y51.8608
G01 X20.6999 Y51.8601
G01 X20.6961 Y51.8608
G01 X20.6929 Y51.8630
G01 X20.6907 Y51.8662
G01 X20.6899 Y51.8701
G01 X20.6907 Y51.8739
G01 X20.6929 Y51.8771
G01 X20.6961 Y51.8793
G01 X20.6999 Y51.8801
G01 X20.7038 Y51.8793
G01 X20.7070 Y51.8771
G01 X20.7092 Y51.8739
G01 X20.7099 Y51.8701
G00 X20.7099 Y51.8701
G01 F250.00
G01 Z-0.2000
G01 F1250.00
G01 X20.7092 Y51.8662
G01 X20.7070 Y51.8630
G01 X20.7038 Y51.8608
G01 X20.6999 Y51.8601
G01 X20.6961 Y51.8608
G01 X20.6929 Y51.8630
G01 X20.6907 Y51.8662
G01 X20.6899 Y51.8701
G01 X20.6907 Y51.8739
G01 X20.6929 Y51.8771
G01 X20.6961 Y51.8793
G01 X20.6999 Y51.8801
G01 X20.7038 Y51.8793
G01 X20.7070 Y51.8771
G01 X20.7092 Y51.8739
G01 X20.7099 Y51.8701
G00 X20.7099 Y51.8701
G01 F250.00
G01 Z-0.3000
G01 F1250.00
G01 X20.7092 Y51.8662
G01 X20.7070 Y51.8630
G01 X20.7038 Y51.8608
G01 X20.6999 Y51.8601
G01 X20.6961 Y51.8608
G01 X20.6929 Y51.8630
G01 X20.6907 Y51.8662
G01 X20.6899 Y51.8701
G01 X20.6907 Y51.8739
G01 X20.6929 Y51.8771
G01 X20.6961 Y51.8793
G01 X20.6999 Y51.8801
G01 X20.7038 Y51.8793
G01 X20.7070 Y51.8771
G01 X20.7092 Y51.8739
G01 X20.7099 Y51.8701
G00 X20.7099 Y51.8701
G01 F250.00
G01 Z-0.4000
G01 F1250.00
G01 X20.7092 Y51.8662
G01 X20.7070 Y51.8630
G01 X20.7038 Y51.8608
G01 X20.6999 Y51.8601
G01 X20.6961 Y51.8608
G01 X20.6929 Y51.8630
G01 X20.6907 Y51.8662
G01 X20.6899 Y51.8701
G01 X20.6907 Y51.8739
G01 X20.6929 Y51.8771
G01 X20.6961 Y51.8793
G01 X20.6999 Y51.8801
G01 X20.7038 Y51.8793
G01 X20.7070 Y51.8771
G01 X20.7092 Y51.8739
G01 X20.7099 Y51.8701
G00 X20.7099 Y51.8701
G01 F250.00
G01 Z-0.5000
G01 F1250.00
G01 X20.7092 Y51.8662
G01 X20.7070 Y51.8630
G01 X20.7038 Y51.8608
G01 X20.6999 Y51.8601
G01 X20.6961 Y51.8608
G01 X20.6929 Y51.8630
G01 X20.6907 Y51.8662
G01 X20.6899 Y51.8701
G01 X20.6907 Y51.8739
G01 X20.6929 Y51.8771
G01 X20.6961 Y51.8793
G01 X20.6999 Y51.8801
G01 X20.7038 Y51.8793
G01 X20.7070 Y51.8771
G01 X20.7092 Y51.8739
G01 X20.7099 Y51.8701
G00 X20.7099 Y51.8701
G01 F250.00
G01 Z-0.6000
G01 F1250.00
G01 X20.7092 Y51.8662
G01 X20.7070 Y51.8630
G01 X20.7038 Y51.8608
G01 X20.6999 Y51.8601
G01 X20.6961 Y51.8608
G01 X20.6929 Y51.8630
G01 X20.6907 Y51.8662
G01 X20.6899 Y51.8701
G01 X20.6907 Y51.8739
G01 X20.6929 Y51.8771
G01 X20.6961 Y51.8793
G01 X20.6999 Y51.8801
G01 X20.7038 Y51.8793
G01 X20.7070 Y51.8771
G01 X20.7092 Y51.8739
G01 X20.7099 Y51.8701
G00 X20.7099 Y51.8701
G01 F250.00
G01 Z-0.7000
G01 F1250.00
G01 X20.7092 Y51.8662
G01 X20.7070 Y51.8630
G01 X20.7038 Y51.8608
G01 X20.6999 Y51.8601
G01 X20.6961 Y51.8608
G01 X20.6929 Y51.8630
G01 X20.6907 Y51.8662
G01 X20.6899 Y51.8701
G01 X20.6907 Y51.8739
G01 X20.6929 Y51.8771
G01 X20.6961 Y51.8793
G01 X20.6999 Y51.8801
G01 X20.7038 Y51.8793
G01 X20.7070 Y51.8771
G01 X20.7092 Y51.8739
G01 X20.7099 Y51.8701
G00 X20.7099 Y51.8701
G01 F250.00
G01 Z-0.8000
G01 F1250.00
G01 X20.7092 Y51.8662
G01 X20.7070 Y51.8630
G01 X20.7038 Y51.8608
G01 X20.6999 Y51.8601
G01 X20.6961 Y51.8608
G01 X20.6929 Y51.8630
G01 X20.6907 Y51.8662
G01 X20.6899 Y51.8701
G01 X20.6907 Y51.8739
G01 X20.6929 Y51.8771
G01 X20.6961 Y51.8793
G01 X20.6999 Y51.8801
G01 X20.7038 Y51.8793
G01 X20.7070 Y51.8771
G01 X20.7092 Y51.8739
G01 X20.7099 Y51.8701
G00 X20.7099 Y51.8701
G01 F250.00
G01 Z-0.9000
G01 F1250.00
G01 X20.7092 Y51.8662
G01 X20.7070 Y51.8630
G01 X20.7038 Y51.8608
G01 X20.6999 Y51.8601
G01 X20.6961 Y51.8608
G01 X20.6929 Y51.8630
G01 X20.6907 Y51.8662
G01 X20.6899 Y51.8701
G01 X20.6907 Y51.8739
G01 X20.6929 Y51.8771
G01 X20.6961 Y51.8793
G01 X20.6999 Y51.8801
G01 X20.7038 Y51.8793
G01 X20.7070 Y51.8771
G01 X20.7092 Y51.8739
G01 X20.7099 Y51.8701
G00 X20.7099 Y51.8701
G01 F250.00
G01 Z-1.0000
G01 F1250.00
G01 X20.7092 Y51.8662
G01 X20.7070 Y51.8630
G01 X20.7038 Y51.8608
G01 X20.6999 Y51.8601
G01 X20.6961 Y51.8608
G01 X20.6929 Y51.8630
G01 X20.6907 Y51.8662
G01 X20.6899 Y51.8701
G01 X20.6907 Y51.8739
G01 X20.6929 Y51.8771
G01 X20.6961 Y51.8793
G01 X20.6999 Y51.8801
G01 X20.7038 Y51.8793
G01 X20.7070 Y51.8771
G01 X20.7092 Y51.8739
G01 X20.7099 Y51.8701
G00 X20.7099 Y51.8701
G01 F250.00
G01 Z-1.1000
G01 F1250.00
G01 X20.7092 Y51.8662
G01 X20.7070 Y51.8630
G01 X20.7038 Y51.8608
G01 X20.6999 Y51.8601
G01 X20.6961 Y51.8608
G01 X20.6929 Y51.8630
G01 X20.6907 Y51.8662
G01 X20.6899 Y51.8701
G01 X20.6907 Y51.8739
G01 X20.6929 Y51.8771
G01 X20.6961 Y51.8793
G01 X20.6999 Y51.8801
G01 X20.7038 Y51.8793
G01 X20.7070 Y51.8771
G01 X20.7092 Y51.8739
G01 X20.7099 Y51.8701
G00 X20.7099 Y51.8701
G01 F250.00
G01 Z-1.2000
G01 F1250.00
G01 X20.7092 Y51.8662
G01 X20.7070 Y51.8630
G01 X20.7038 Y51.8608
G01 X20.6999 Y51.8601
G01 X20.6961 Y51.8608
G01 X20.6929 Y51.8630
G01 X20.6907 Y51.8662
G01 X20.6899 Y51.8701
G01 X20.6907 Y51.8739
G01 X20.6929 Y51.8771
G01 X20.6961 Y51.8793
G01 X20.6999 Y51.8801
G01 X20.7038 Y51.8793
G01 X20.7070 Y51.8771
G01 X20.7092 Y51.8739
G01 X20.7099 Y51.8701
G00 X20.7099 Y51.8701
G01 F250.00
G01 Z-1.3000
G01 F1250.00
G01 X20.7092 Y51.8662
G01 X20.7070 Y51.8630
G01 X20.7038 Y51.8608
G01 X20.6999 Y51.8601
G01 X20.6961 Y51.8608
G01 X20.6929 Y51.8630
G01 X20.6907 Y51.8662
G01 X20.6899 Y51.8701
G01 X20.6907 Y51.8739
G01 X20.6929 Y51.8771
G01 X20.6961 Y51.8793
G01 X20.6999 Y51.8801
G01 X20.7038 Y51.8793
G01 X20.7070 Y51.8771
G01 X20.7092 Y51.8739
G01 X20.7099 Y51.8701
G00 X20.7099 Y51.8701
G01 F250.00
G01 Z-1.4000
G01 F1250.00
G01 X20.7092 Y51.8662
G01 X20.7070 Y51.8630
G01 X20.7038 Y51.8608
G01 X20.6999 Y51.8601
G01 X20.6961 Y51.8608
G01 X20.6929 Y51.8630
G01 X20.6907 Y51.8662
G01 X20.6899 Y51.8701
G01 X20.6907 Y51.8739
G01 X20.6929 Y51.8771
G01 X20.6961 Y51.8793
G01 X20.6999 Y51.8801
G01 X20.7038 Y51.8793
G01 X20.7070 Y51.8771
G01 X20.7092 Y51.8739
G01 X20.7099 Y51.8701
G00 X20.7099 Y51.8701
G01 F250.00
G01 Z-1.5000
G01 F1250.00
G01 X20.7092 Y51.8662
G01 X20.7070 Y51.8630
G01 X20.7038 Y51.8608
G01 X20.6999 Y51.8601
G01 X20.6961 Y51.8608
G01 X20.6929 Y51.8630
G01 X20.6907 Y51.8662
G01 X20.6899 Y51.8701
G01 X20.6907 Y51.8739
G01 X20.6929 Y51.8771
G01 X20.6961 Y51.8793
G01 X20.6999 Y51.8801
G01 X20.7038 Y51.8793
G01 X20.7070 Y51.8771
G01 X20.7092 Y51.8739
G01 X20.7099 Y51.8701
G00 X20.7099 Y51.8701
G01 F250.00
G01 Z-1.6000
G01 F1250.00
G01 X20.7092 Y51.8662
G01 X20.7070 Y51.8630
G01 X20.7038 Y51.8608
G01 X20.6999 Y51.8601
G01 X20.6961 Y51.8608
G01 X20.6929 Y51.8630
G01 X20.6907 Y51.8662
G01 X20.6899 Y51.8701
G01 X20.6907 Y51.8739
G01 X20.6929 Y51.8771
G01 X20.6961 Y51.8793
G01 X20.6999 Y51.8801
G01 X20.7038 Y51.8793
G01 X20.7070 Y51.8771
G01 X20.7092 Y51.8739
G01 X20.7099 Y51.8701
G00 X20.7099 Y51.8701
G01 F250.00
G01 Z-1.7000
G01 F1250.00
G01 X20.7092 Y51.8662
G01 X20.7070 Y51.8630
G01 X20.7038 Y51.8608
G01 X20.6999 Y51.8601
G01 X20.6961 Y51.8608
G01 X20.6929 Y51.8630
G01 X20.6907 Y51.8662
G01 X20.6899 Y51.8701
G01 X20.6907 Y51.8739
G01 X20.6929 Y51.8771
G01 X20.6961 Y51.8793
G01 X20.6999 Y51.8801
G01 X20.7038 Y51.8793
G01 X20.7070 Y51.8771
G01 X20.7092 Y51.8739
G01 X20.7099 Y51.8701
G00 Z0.5000
G00 X20.7099 Y56.9501
G01 F250.00
G01 Z-0.1000
G01 F1250.00
G01 X20.7092 Y56.9462
G01 X20.7070 Y56.9430
G01 X20.7038 Y56.9408
G01 X20.6999 Y56.9401
G01 X20.6961 Y56.9408
G01 X20.6929 Y56.9430
G01 X20.6907 Y56.9462
G01 X20.6899 Y56.9501
G01 X20.6907 Y56.9539
G01 X20.6929 Y56.9571
G01 X20.6961 Y56.9593
G01 X20.6999 Y56.9601
G01 X20.7038 Y56.9593
G01 X20.7070 Y56.9571
G01 X20.7092 Y56.9539
G01 X20.7099 Y56.9501
G00 X20.7099 Y56.9501
G01 F250.00
G01 Z-0.2000
G01 F1250.00
G01 X20.7092 Y56.9462
G01 X20.7070 Y56.9430
G01 X20.7038 Y56.9408
G01 X20.6999 Y56.9401
G01 X20.6961 Y56.9408
G01 X20.6929 Y56.9430
G01 X20.6907 Y56.9462
G01 X20.6899 Y56.9501
G01 X20.6907 Y56.9539
G01 X20.6929 Y56.9571
G01 X20.6961 Y56.9593
G01 X20.6999 Y56.9601
G01 X20.7038 Y56.9593
G01 X20.7070 Y56.9571
G01 X20.7092 Y56.9539
G01 X20.7099 Y56.9501
G00 X20.7099 Y56.9501
G01 F250.00
G01 Z-0.3000
G01 F1250.00
G01 X20.7092 Y56.9462
G01 X20.7070 Y56.9430
G01 X20.7038 Y56.9408
G01 X20.6999 Y56.9401
G01 X20.6961 Y56.9408
G01 X20.6929 Y56.9430
G01 X20.6907 Y56.9462
G01 X20.6899 Y56.9501
G01 X20.6907 Y56.9539
G01 X20.6929 Y56.9571
G01 X20.6961 Y56.9593
G01 X20.6999 Y56.9601
G01 X20.7038 Y56.9593
G01 X20.7070 Y56.9571
G01 X20.7092 Y56.9539
G01 X20.7099 Y56.9501
G00 X20.7099 Y56.9501
G01 F250.00
G01 Z-0.4000
G01 F1250.00
G01 X20.7092 Y56.9462
G01 X20.7070 Y56.9430
G01 X20.7038 Y56.9408
G01 X20.6999 Y56.9401
G01 X20.6961 Y56.9408
G01 X20.6929 Y56.9430
G01 X20.6907 Y56.9462
G01 X20.6899 Y56.9501
G01 X20.6907 Y56.9539
G01 X20.6929 Y56.9571
G01 X20.6961 Y56.9593
G01 X20.6999 Y56.9601
G01 X20.7038 Y56.9593
G01 X20.7070 Y56.9571
G01 X20.7092 Y56.9539
G01 X20.7099 Y56.9501
G00 X20.7099 Y56.9501
G01 F250.00
G01 Z-0.5000
G01 F1250.00
G01 X20.7092 Y56.9462
G01 X20.7070 Y56.9430
G01 X20.7038 Y56.9408
G01 X20.6999 Y56.9401
G01 X20.6961 Y56.9408
G01 X20.6929 Y56.9430
G01 X20.6907 Y56.9462
G01 X20.6899 Y56.9501
G01 X20.6907 Y56.9539
G01 X20.6929 Y56.9571
G01 X20.6961 Y56.9593
G01 X20.6999 Y56.9601
G01 X20.7038 Y56.9593
G01 X20.7070 Y56.9571
G01 X20.7092 Y56.9539
G01 X20.7099 Y56.9501
G00 X20.7099 Y56.9501
G01 F250.00
G01 Z-0.6000
G01 F1250.00
G01 X20.7092 Y56.9462
G01 X20.7070 Y56.9430
G01 X20.7038 Y56.9408
G01 X20.6999 Y56.9401
G01 X20.6961 Y56.9408
G01 X20.6929 Y56.9430
G01 X20.6907 Y56.9462
G01 X20.6899 Y56.9501
G01 X20.6907 Y56.9539
G01 X20.6929 Y56.9571
G01 X20.6961 Y56.9593
G01 X20.6999 Y56.9601
G01 X20.7038 Y56.9593
G01 X20.7070 Y56.9571
G01 X20.7092 Y56.9539
G01 X20.7099 Y56.9501
G00 X20.7099 Y56.9501
G01 F250.00
G01 Z-0.7000
G01 F1250.00
G01 X20.7092 Y56.9462
G01 X20.7070 Y56.9430
G01 X20.7038 Y56.9408
G01 X20.6999 Y56.9401
G01 X20.6961 Y56.9408
G01 X20.6929 Y56.9430
G01 X20.6907 Y56.9462
G01 X20.6899 Y56.9501
G01 X20.6907 Y56.9539
G01 X20.6929 Y56.9571
G01 X20.6961 Y56.9593
G01 X20.6999 Y56.9601
G01 X20.7038 Y56.9593
G01 X20.7070 Y56.9571
G01 X20.7092 Y56.9539
G01 X20.7099 Y56.9501
G00 X20.7099 Y56.9501
G01 F250.00
G01 Z-0.8000
G01 F1250.00
G01 X20.7092 Y56.9462
G01 X20.7070 Y56.9430
G01 X20.7038 Y56.9408
G01 X20.6999 Y56.9401
G01 X20.6961 Y56.9408
G01 X20.6929 Y56.9430
G01 X20.6907 Y56.9462
G01 X20.6899 Y56.9501
G01 X20.6907 Y56.9539
G01 X20.6929 Y56.9571
G01 X20.6961 Y56.9593
G01 X20.6999 Y56.9601
G01 X20.7038 Y56.9593
G01 X20.7070 Y56.9571
G01 X20.7092 Y56.9539
G01 X20.7099 Y56.9501
G00 X20.7099 Y56.9501
G01 F250.00
G01 Z-0.9000
G01 F1250.00
G01 X20.7092 Y56.9462
G01 X20.7070 Y56.9430
G01 X20.7038 Y56.9408
G01 X20.6999 Y56.9401
G01 X20.6961 Y56.9408
G01 X20.6929 Y56.9430
G01 X20.6907 Y56.9462
G01 X20.6899 Y56.9501
G01 X20.6907 Y56.9539
G01 X20.6929 Y56.9571
G01 X20.6961 Y56.9593
G01 X20.6999 Y56.9601
G01 X20.7038 Y56.9593
G01 X20.7070 Y56.9571
G01 X20.7092 Y56.9539
G01 X20.7099 Y56.9501
G00 X20.7099 Y56.9501
G01 F250.00
G01 Z-1.0000
G01 F1250.00
G01 X20.7092 Y56.9462
G01 X20.7070 Y56.9430
G01 X20.7038 Y56.9408
G01 X20.6999 Y56.9401
G01 X20.6961 Y56.9408
G01 X20.6929 Y56.9430
G01 X20.6907 Y56.9462
G01 X20.6899 Y56.9501
G01 X20.6907 Y56.9539
G01 X20.6929 Y56.9571
G01 X20.6961 Y56.9593
G01 X20.6999 Y56.9601
G01 X20.7038 Y56.9593
G01 X20.7070 Y56.9571
G01 X20.7092 Y56.9539
G01 X20.7099 Y56.9501
G00 X20.7099 Y56.9501
G01 F250.00
G01 Z-1.1000
G01 F1250.00
G01 X20.7092 Y56.9462
G01 X20.7070 Y56.9430
G01 X20.7038 Y56.9408
G01 X20.6999 Y56.9401
G01 X20.6961 Y56.9408
G01 X20.6929 Y56.9430
G01 X20.6907 Y56.9462
G01 X20.6899 Y56.9501
G01 X20.6907 Y56.9539
G01 X20.6929 Y56.9571
G01 X20.6961 Y56.9593
G01 X20.6999 Y56.9601
G01 X20.7038 Y56.9593
G01 X20.7070 Y56.9571
G01 X20.7092 Y56.9539
G01 X20.7099 Y56.9501
G00 X20.7099 Y56.9501
G01 F250.00
G01 Z-1.2000
G01 F1250.00
G01 X20.7092 Y56.9462
G01 X20.7070 Y56.9430
G01 X20.7038 Y56.9408
G01 X20.6999 Y56.9401
G01 X20.6961 Y56.9408
G01 X20.6929 Y56.9430
G01 X20.6907 Y56.9462
G01 X20.6899 Y56.9501
G01 X20.6907 Y56.9539
G01 X20.6929 Y56.9571
G01 X20.6961 Y56.9593
G01 X20.6999 Y56.9601
G01 X20.7038 Y56.9593
G01 X20.7070 Y56.9571
G01 X20.7092 Y56.9539
G01 X20.7099 Y56.9501
G00 X20.7099 Y56.9501
G01 F250.00
G01 Z-1.3000
G01 F1250.00
G01 X20.7092 Y56.9462
G01 X20.7070 Y56.9430
G01 X20.7038 Y56.9408
G01 X20.6999 Y56.9401
G01 X20.6961 Y56.9408
G01 X20.6929 Y56.9430
G01 X20.6907 Y56.9462
G01 X20.6899 Y56.9501
G01 X20.6907 Y56.9539
G01 X20.6929 Y56.9571
G01 X20.6961 Y56.9593
G01 X20.6999 Y56.9601
G01 X20.7038 Y56.9593
G01 X20.7070 Y56.9571
G01 X20.7092 Y56.9539
G01 X20.7099 Y56.9501
G00 X20.7099 Y56.9501
G01 F250.00
G01 Z-1.4000
G01 F1250.00
G01 X20.7092 Y56.9462
G01 X20.7070 Y56.9430
G01 X20.7038 Y56.9408
G01 X20.6999 Y56.9401
G01 X20.6961 Y56.9408
G01 X20.6929 Y56.9430
G01 X20.6907 Y56.9462
G01 X20.6899 Y56.9501
G01 X20.6907 Y56.9539
G01 X20.6929 Y56.9571
G01 X20.6961 Y56.9593
G01 X20.6999 Y56.9601
G01 X20.7038 Y56.9593
G01 X20.7070 Y56.9571
G01 X20.7092 Y56.9539
G01 X20.7099 Y56.9501
G00 X20.7099 Y56.9501
G01 F250.00
G01 Z-1.5000
G01 F1250.00
G01 X20.7092 Y56.9462
G01 X20.7070 Y56.9430
G01 X20.7038 Y56.9408
G01 X20.6999 Y56.9401
G01 X20.6961 Y56.9408
G01 X20.6929 Y56.9430
G01 X20.6907 Y56.9462
G01 X20.6899 Y56.9501
G01 X20.6907 Y56.9539
G01 X20.6929 Y56.9571
G01 X20.6961 Y56.9593
G01 X20.6999 Y56.9601
G01 X20.7038 Y56.9593
G01 X20.7070 Y56.9571
G01 X20.7092 Y56.9539
G01 X20.7099 Y56.9501
G00 X20.7099 Y56.9501
G01 F250.00
G01 Z-1.6000
G01 F1250.00
G01 X20.7092 Y56.9462
G01 X20.7070 Y56.9430
G01 X20.7038 Y56.9408
G01 X20.6999 Y56.9401
G01 X20.6961 Y56.9408
G01 X20.6929 Y56.9430
G01 X20.6907 Y56.9462
G01 X20.6899 Y56.9501
G01 X20.6907 Y56.9539
G01 X20.6929 Y56.9571
G01 X20.6961 Y56.9593
G01 X20.6999 Y56.9601
G01 X20.7038 Y56.9593
G01 X20.7070 Y56.9571
G01 X20.7092 Y56.9539
G01 X20.7099 Y56.9501
G00 X20.7099 Y56.9501
G01 F250.00
G01 Z-1.7000
G01 F1250.00
G01 X20.7092 Y56.9462
G01 X20.7070 Y56.9430
G01 X20.7038 Y56.9408
G01 X20.6999 Y56.9401
G01 X20.6961 Y56.9408
G01 X20.6929 Y56.9430
G01 X20.6907 Y56.9462
G01 X20.6899 Y56.9501
G01 X20.6907 Y56.9539
G01 X20.6929 Y56.9571
G01 X20.6961 Y56.9593
G01 X20.6999 Y56.9601
G01 X20.7038 Y56.9593
G01 X20.7070 Y56.9571
G01 X20.7092 Y56.9539
G01 X20.7099 Y56.9501
G00 Z0.5000
G00 X20.7099 Y68.3701
G01 F250.00
G01 Z-0.1000
G01 F1250.00
G01 X20.7092 Y68.3662
G01 X20.7070 Y68.3630
G01 X20.7038 Y68.3608
G01 X20.6999 Y68.3601
G01 X20.6961 Y68.3608
G01 X20.6929 Y68.3630
G01 X20.6907 Y68.3662
G01 X20.6899 Y68.3701
G01 X20.6907 Y68.3739
G01 X20.6929 Y68.3771
G01 X20.6961 Y68.3793
G01 X20.6999 Y68.3801
G01 X20.7038 Y68.3793
G01 X20.7070 Y68.3771
G01 X20.7092 Y68.3739
G01 X20.7099 Y68.3701
G00 X20.7099 Y68.3701
G01 F250.00
G01 Z-0.2000
G01 F1250.00
G01 X20.7092 Y68.3662
G01 X20.7070 Y68.3630
G01 X20.7038 Y68.3608
G01 X20.6999 Y68.3601
G01 X20.6961 Y68.3608
G01 X20.6929 Y68.3630
G01 X20.6907 Y68.3662
G01 X20.6899 Y68.3701
G01 X20.6907 Y68.3739
G01 X20.6929 Y68.3771
G01 X20.6961 Y68.3793
G01 X20.6999 Y68.3801
G01 X20.7038 Y68.3793
G01 X20.7070 Y68.3771
G01 X20.7092 Y68.3739
G01 X20.7099 Y68.3701
G00 X20.7099 Y68.3701
G01 F250.00
G01 Z-0.3000
G01 F1250.00
G01 X20.7092 Y68.3662
G01 X20.7070 Y68.3630
G01 X20.7038 Y68.3608
G01 X20.6999 Y68.3601
G01 X20.6961 Y68.3608
G01 X20.6929 Y68.3630
G01 X20.6907 Y68.3662
G01 X20.6899 Y68.3701
G01 X20.6907 Y68.3739
G01 X20.6929 Y68.3771
G01 X20.6961 Y68.3793
G01 X20.6999 Y68.3801
G01 X20.7038 Y68.3793
G01 X20.7070 Y68.3771
G01 X20.7092 Y68.3739
G01 X20.7099 Y68.3701
G00 X20.7099 Y68.3701
G01 F250.00
G01 Z-0.4000
G01 F1250.00
G01 X20.7092 Y68.3662
G01 X20.7070 Y68.3630
G01 X20.7038 Y68.3608
G01 X20.6999 Y68.3601
G01 X20.6961 Y68.3608
G01 X20.6929 Y68.3630
G01 X20.6907 Y68.3662
G01 X20.6899 Y68.3701
G01 X20.6907 Y68.3739
G01 X20.6929 Y68.3771
G01 X20.6961 Y68.3793
G01 X20.6999 Y68.3801
G01 X20.7038 Y68.3793
G01 X20.7070 Y68.3771
G01 X20.7092 Y68.3739
G01 X20.7099 Y68.3701
G00 X20.7099 Y68.3701
G01 F250.00
G01 Z-0.5000
G01 F1250.00
G01 X20.7092 Y68.3662
G01 X20.7070 Y68.3630
G01 X20.7038 Y68.3608
G01 X20.6999 Y68.3601
G01 X20.6961 Y68.3608
G01 X20.6929 Y68.3630
G01 X20.6907 Y68.3662
G01 X20.6899 Y68.3701
G01 X20.6907 Y68.3739
G01 X20.6929 Y68.3771
G01 X20.6961 Y68.3793
G01 X20.6999 Y68.3801
G01 X20.7038 Y68.3793
G01 X20.7070 Y68.3771
G01 X20.7092 Y68.3739
G01 X20.7099 Y68.3701
G00 X20.7099 Y68.3701
G01 F250.00
G01 Z-0.6000
G01 F1250.00
G01 X20.7092 Y68.3662
G01 X20.7070 Y68.3630
G01 X20.7038 Y68.3608
G01 X20.6999 Y68.3601
G01 X20.6961 Y68.3608
G01 X20.6929 Y68.3630
G01 X20.6907 Y68.3662
G01 X20.6899 Y68.3701
G01 X20.6907 Y68.3739
G01 X20.6929 Y68.3771
G01 X20.6961 Y68.3793
G01 X20.6999 Y68.3801
G01 X20.7038 Y68.3793
G01 X20.7070 Y68.3771
G01 X20.7092 Y68.3739
G01 X20.7099 Y68.3701
G00 X20.7099 Y68.3701
G01 F250.00
G01 Z-0.7000
G01 F1250.00
G01 X20.7092 Y68.3662
G01 X20.7070 Y68.3630
G01 X20.7038 Y68.3608
G01 X20.6999 Y68.3601
G01 X20.6961 Y68.3608
G01 X20.6929 Y68.3630
G01 X20.6907 Y68.3662
G01 X20.6899 Y68.3701
G01 X20.6907 Y68.3739
G01 X20.6929 Y68.3771
G01 X20.6961 Y68.3793
G01 X20.6999 Y68.3801
G01 X20.7038 Y68.3793
G01 X20.7070 Y68.3771
G01 X20.7092 Y68.3739
G01 X20.7099 Y68.3701
G00 X20.7099 Y68.3701
G01 F250.00
G01 Z-0.8000
G01 F1250.00
G01 X20.7092 Y68.3662
G01 X20.7070 Y68.3630
G01 X20.7038 Y68.3608
G01 X20.6999 Y68.3601
G01 X20.6961 Y68.3608
G01 X20.6929 Y68.3630
G01 X20.6907 Y68.3662
G01 X20.6899 Y68.3701
G01 X20.6907 Y68.3739
G01 X20.6929 Y68.3771
G01 X20.6961 Y68.3793
G01 X20.6999 Y68.3801
G01 X20.7038 Y68.3793
G01 X20.7070 Y68.3771
G01 X20.7092 Y68.3739
G01 X20.7099 Y68.3701
G00 X20.7099 Y68.3701
G01 F250.00
G01 Z-0.9000
G01 F1250.00
G01 X20.7092 Y68.3662
G01 X20.7070 Y68.3630
G01 X20.7038 Y68.3608
G01 X20.6999 Y68.3601
G01 X20.6961 Y68.3608
G01 X20.6929 Y68.3630
G01 X20.6907 Y68.3662
G01 X20.6899 Y68.3701
G01 X20.6907 Y68.3739
G01 X20.6929 Y68.3771
G01 X20.6961 Y68.3793
G01 X20.6999 Y68.3801
G01 X20.7038 Y68.3793
G01 X20.7070 Y68.3771
G01 X20.7092 Y68.3739
G01 X20.7099 Y68.3701
G00 X20.7099 Y68.3701
G01 F250.00
G01 Z-1.0000
G01 F1250.00
G01 X20.7092 Y68.3662
G01 X20.7070 Y68.3630
G01 X20.7038 Y68.3608
G01 X20.6999 Y68.3601
G01 X20.6961 Y68.3608
G01 X20.6929 Y68.3630
G01 X20.6907 Y68.3662
G01 X20.6899 Y68.3701
G01 X20.6907 Y68.3739
G01 X20.6929 Y68.3771
G01 X20.6961 Y68.3793
G01 X20.6999 Y68.3801
G01 X20.7038 Y68.3793
G01 X20.7070 Y68.3771
G01 X20.7092 Y68.3739
G01 X20.7099 Y68.3701
G00 X20.7099 Y68.3701
G01 F250.00
G01 Z-1.1000
G01 F1250.00
G01 X20.7092 Y68.3662
G01 X20.7070 Y68.3630
G01 X20.7038 Y68.3608
G01 X20.6999 Y68.3601
G01 X20.6961 Y68.3608
G01 X20.6929 Y68.3630
G01 X20.6907 Y68.3662
G01 X20.6899 Y68.3701
G01 X20.6907 Y68.3739
G01 X20.6929 Y68.3771
G01 X20.6961 Y68.3793
G01 X20.6999 Y68.3801
G01 X20.7038 Y68.3793
G01 X20.7070 Y68.3771
G01 X20.7092 Y68.3739
G01 X20.7099 Y68.3701
G00 X20.7099 Y68.3701
G01 F250.00
G01 Z-1.2000
G01 F1250.00
G01 X20.7092 Y68.3662
G01 X20.7070 Y68.3630
G01 X20.7038 Y68.3608
G01 X20.6999 Y68.3601
G01 X20.6961 Y68.3608
G01 X20.6929 Y68.3630
G01 X20.6907 Y68.3662
G01 X20.6899 Y68.3701
G01 X20.6907 Y68.3739
G01 X20.6929 Y68.3771
G01 X20.6961 Y68.3793
G01 X20.6999 Y68.3801
G01 X20.7038 Y68.3793
G01 X20.7070 Y68.3771
G01 X20.7092 Y68.3739
G01 X20.7099 Y68.3701
G00 X20.7099 Y68.3701
G01 F250.00
G01 Z-1.3000
G01 F1250.00
G01 X20.7092 Y68.3662
G01 X20.7070 Y68.3630
G01 X20.7038 Y68.3608
G01 X20.6999 Y68.3601
G01 X20.6961 Y68.3608
G01 X20.6929 Y68.3630
G01 X20.6907 Y68.3662
G01 X20.6899 Y68.3701
G01 X20.6907 Y68.3739
G01 X20.6929 Y68.3771
G01 X20.6961 Y68.3793
G01 X20.6999 Y68.3801
G01 X20.7038 Y68.3793
G01 X20.7070 Y68.3771
G01 X20.7092 Y68.3739
G01 X20.7099 Y68.3701
G00 X20.7099 Y68.3701
G01 F250.00
G01 Z-1.4000
G01 F1250.00
G01 X20.7092 Y68.3662
G01 X20.7070 Y68.3630
G01 X20.7038 Y68.3608
G01 X20.6999 Y68.3601
G01 X20.6961 Y68.3608
G01 X20.6929 Y68.3630
G01 X20.6907 Y68.3662
G01 X20.6899 Y68.3701
G01 X20.6907 Y68.3739
G01 X20.6929 Y68.3771
G01 X20.6961 Y68.3793
G01 X20.6999 Y68.3801
G01 X20.7038 Y68.3793
G01 X20.7070 Y68.3771
G01 X20.7092 Y68.3739
G01 X20.7099 Y68.3701
G00 X20.7099 Y68.3701
G01 F250.00
G01 Z-1.5000
G01 F1250.00
G01 X20.7092 Y68.3662
G01 X20.7070 Y68.3630
G01 X20.7038 Y68.3608
G01 X20.6999 Y68.3601
G01 X20.6961 Y68.3608
G01 X20.6929 Y68.3630
G01 X20.6907 Y68.3662
G01 X20.6899 Y68.3701
G01 X20.6907 Y68.3739
G01 X20.6929 Y68.3771
G01 X20.6961 Y68.3793
G01 X20.6999 Y68.3801
G01 X20.7038 Y68.3793
G01 X20.7070 Y68.3771
G01 X20.7092 Y68.3739
G01 X20.7099 Y68.3701
G00 X20.7099 Y68.3701
G01 F250.00
G01 Z-1.6000
G01 F1250.00
G01 X20.7092 Y68.3662
G01 X20.7070 Y68.3630
G01 X20.7038 Y68.3608
G01 X20.6999 Y68.3601
G01 X20.6961 Y68.3608
G01 X20.6929 Y68.3630
G01 X20.6907 Y68.3662
G01 X20.6899 Y68.3701
G01 X20.6907 Y68.3739
G01 X20.6929 Y68.3771
G01 X20.6961 Y68.3793
G01 X20.6999 Y68.3801
G01 X20.7038 Y68.3793
G01 X20.7070 Y68.3771
G01 X20.7092 Y68.3739
G01 X20.7099 Y68.3701
G00 X20.7099 Y68.3701
G01 F250.00
G01 Z-1.7000
G01 F1250.00
G01 X20.7092 Y68.3662
G01 X20.7070 Y68.3630
G01 X20.7038 Y68.3608
G01 X20.6999 Y68.3601
G01 X20.6961 Y68.3608
G01 X20.6929 Y68.3630
G01 X20.6907 Y68.3662
G01 X20.6899 Y68.3701
G01 X20.6907 Y68.3739
G01 X20.6929 Y68.3771
G01 X20.6961 Y68.3793
G01 X20.6999 Y68.3801
G01 X20.7038 Y68.3793
G01 X20.7070 Y68.3771
G01 X20.7092 Y68.3739
G01 X20.7099 Y68.3701
G00 Z0.5000
G00 X20.7099 Y73.4501
G01 F250.00
G01 Z-0.1000
G01 F1250.00
G01 X20.7092 Y73.4462
G01 X20.7070 Y73.4430
G01 X20.7038 Y73.4408
G01 X20.6999 Y73.4401
G01 X20.6961 Y73.4408
G01 X20.6929 Y73.4430
G01 X20.6907 Y73.4462
G01 X20.6899 Y73.4501
G01 X20.6907 Y73.4539
G01 X20.6929 Y73.4571
G01 X20.6961 Y73.4593
G01 X20.6999 Y73.4601
G01 X20.7038 Y73.4593
G01 X20.7070 Y73.4571
G01 X20.7092 Y73.4539
G01 X20.7099 Y73.4501
G00 X20.7099 Y73.4501
G01 F250.00
G01 Z-0.2000
G01 F1250.00
G01 X20.7092 Y73.4462
G01 X20.7070 Y73.4430
G01 X20.7038 Y73.4408
G01 X20.6999 Y73.4401
G01 X20.6961 Y73.4408
G01 X20.6929 Y73.4430
G01 X20.6907 Y73.4462
G01 X20.6899 Y73.4501
G01 X20.6907 Y73.4539
G01 X20.6929 Y73.4571
G01 X20.6961 Y73.4593
G01 X20.6999 Y73.4601
G01 X20.7038 Y73.4593
G01 X20.7070 Y73.4571
G01 X20.7092 Y73.4539
G01 X20.7099 Y73.4501
G00 X20.7099 Y73.4501
G01 F250.00
G01 Z-0.3000
G01 F1250.00
G01 X20.7092 Y73.4462
G01 X20.7070 Y73.4430
G01 X20.7038 Y73.4408
G01 X20.6999 Y73.4401
G01 X20.6961 Y73.4408
G01 X20.6929 Y73.4430
G01 X20.6907 Y73.4462
G01 X20.6899 Y73.4501
G01 X20.6907 Y73.4539
G01 X20.6929 Y73.4571
G01 X20.6961 Y73.4593
G01 X20.6999 Y73.4601
G01 X20.7038 Y73.4593
G01 X20.7070 Y73.4571
G01 X20.7092 Y73.4539
G01 X20.7099 Y73.4501
G00 X20.7099 Y73.4501
G01 F250.00
G01 Z-0.4000
G01 F1250.00
G01 X20.7092 Y73.4462
G01 X20.7070 Y73.4430
G01 X20.7038 Y73.4408
G01 X20.6999 Y73.4401
G01 X20.6961 Y73.4408
G01 X20.6929 Y73.4430
G01 X20.6907 Y73.4462
G01 X20.6899 Y73.4501
G01 X20.6907 Y73.4539
G01 X20.6929 Y73.4571
G01 X20.6961 Y73.4593
G01 X20.6999 Y73.4601
G01 X20.7038 Y73.4593
G01 X20.7070 Y73.4571
G01 X20.7092 Y73.4539
G01 X20.7099 Y73.4501
G00 X20.7099 Y73.4501
G01 F250.00
G01 Z-0.5000
G01 F1250.00
G01 X20.7092 Y73.4462
G01 X20.7070 Y73.4430
G01 X20.7038 Y73.4408
G01 X20.6999 Y73.4401
G01 X20.6961 Y73.4408
G01 X20.6929 Y73.4430
G01 X20.6907 Y73.4462
G01 X20.6899 Y73.4501
G01 X20.6907 Y73.4539
G01 X20.6929 Y73.4571
G01 X20.6961 Y73.4593
G01 X20.6999 Y73.4601
G01 X20.7038 Y73.4593
G01 X20.7070 Y73.4571
G01 X20.7092 Y73.4539
G01 X20.7099 Y73.4501
G00 X20.7099 Y73.4501
G01 F250.00
G01 Z-0.6000
G01 F1250.00
G01 X20.7092 Y73.4462
G01 X20.7070 Y73.4430
G01 X20.7038 Y73.4408
G01 X20.6999 Y73.4401
G01 X20.6961 Y73.4408
G01 X20.6929 Y73.4430
G01 X20.6907 Y73.4462
G01 X20.6899 Y73.4501
G01 X20.6907 Y73.4539
G01 X20.6929 Y73.4571
G01 X20.6961 Y73.4593
G01 X20.6999 Y73.4601
G01 X20.7038 Y73.4593
G01 X20.7070 Y73.4571
G01 X20.7092 Y73.4539
G01 X20.7099 Y73.4501
G00 X20.7099 Y73.4501
G01 F250.00
G01 Z-0.7000
G01 F1250.00
G01 X20.7092 Y73.4462
G01 X20.7070 Y73.4430
G01 X20.7038 Y73.4408
G01 X20.6999 Y73.4401
G01 X20.6961 Y73.4408
G01 X20.6929 Y73.4430
G01 X20.6907 Y73.4462
G01 X20.6899 Y73.4501
G01 X20.6907 Y73.4539
G01 X20.6929 Y73.4571
G01 X20.6961 Y73.4593
G01 X20.6999 Y73.4601
G01 X20.7038 Y73.4593
G01 X20.7070 Y73.4571
G01 X20.7092 Y73.4539
G01 X20.7099 Y73.4501
G00 X20.7099 Y73.4501
G01 F250.00
G01 Z-0.8000
G01 F1250.00
G01 X20.7092 Y73.4462
G01 X20.7070 Y73.4430
G01 X20.7038 Y73.4408
G01 X20.6999 Y73.4401
G01 X20.6961 Y73.4408
G01 X20.6929 Y73.4430
G01 X20.6907 Y73.4462
G01 X20.6899 Y73.4501
G01 X20.6907 Y73.4539
G01 X20.6929 Y73.4571
G01 X20.6961 Y73.4593
G01 X20.6999 Y73.4601
G01 X20.7038 Y73.4593
G01 X20.7070 Y73.4571
G01 X20.7092 Y73.4539
G01 X20.7099 Y73.4501
G00 X20.7099 Y73.4501
G01 F250.00
G01 Z-0.9000
G01 F1250.00
G01 X20.7092 Y73.4462
G01 X20.7070 Y73.4430
G01 X20.7038 Y73.4408
G01 X20.6999 Y73.4401
G01 X20.6961 Y73.4408
G01 X20.6929 Y73.4430
G01 X20.6907 Y73.4462
G01 X20.6899 Y73.4501
G01 X20.6907 Y73.4539
G01 X20.6929 Y73.4571
G01 X20.6961 Y73.4593
G01 X20.6999 Y73.4601
G01 X20.7038 Y73.4593
G01 X20.7070 Y73.4571
G01 X20.7092 Y73.4539
G01 X20.7099 Y73.4501
G00 X20.7099 Y73.4501
G01 F250.00
G01 Z-1.0000
G01 F1250.00
G01 X20.7092 Y73.4462
G01 X20.7070 Y73.4430
G01 X20.7038 Y73.4408
G01 X20.6999 Y73.4401
G01 X20.6961 Y73.4408
G01 X20.6929 Y73.4430
G01 X20.6907 Y73.4462
G01 X20.6899 Y73.4501
G01 X20.6907 Y73.4539
G01 X20.6929 Y73.4571
G01 X20.6961 Y73.4593
G01 X20.6999 Y73.4601
G01 X20.7038 Y73.4593
G01 X20.7070 Y73.4571
G01 X20.7092 Y73.4539
G01 X20.7099 Y73.4501
G00 X20.7099 Y73.4501
G01 F250.00
G01 Z-1.1000
G01 F1250.00
G01 X20.7092 Y73.4462
G01 X20.7070 Y73.4430
G01 X20.7038 Y73.4408
G01 X20.6999 Y73.4401
G01 X20.6961 Y73.4408
G01 X20.6929 Y73.4430
G01 X20.6907 Y73.4462
G01 X20.6899 Y73.4501
G01 X20.6907 Y73.4539
G01 X20.6929 Y73.4571
G01 X20.6961 Y73.4593
G01 X20.6999 Y73.4601
G01 X20.7038 Y73.4593
G01 X20.7070 Y73.4571
G01 X20.7092 Y73.4539
G01 X20.7099 Y73.4501
G00 X20.7099 Y73.4501
G01 F250.00
G01 Z-1.2000
G01 F1250.00
G01 X20.7092 Y73.4462
G01 X20.7070 Y73.4430
G01 X20.7038 Y73.4408
G01 X20.6999 Y73.4401
G01 X20.6961 Y73.4408
G01 X20.6929 Y73.4430
G01 X20.6907 Y73.4462
G01 X20.6899 Y73.4501
G01 X20.6907 Y73.4539
G01 X20.6929 Y73.4571
G01 X20.6961 Y73.4593
G01 X20.6999 Y73.4601
G01 X20.7038 Y73.4593
G01 X20.7070 Y73.4571
G01 X20.7092 Y73.4539
G01 X20.7099 Y73.4501
G00 X20.7099 Y73.4501
G01 F250.00
G01 Z-1.3000
G01 F1250.00
G01 X20.7092 Y73.4462
G01 X20.7070 Y73.4430
G01 X20.7038 Y73.4408
G01 X20.6999 Y73.4401
G01 X20.6961 Y73.4408
G01 X20.6929 Y73.4430
G01 X20.6907 Y73.4462
G01 X20.6899 Y73.4501
G01 X20.6907 Y73.4539
G01 X20.6929 Y73.4571
G01 X20.6961 Y73.4593
G01 X20.6999 Y73.4601
G01 X20.7038 Y73.4593
G01 X20.7070 Y73.4571
G01 X20.7092 Y73.4539
G01 X20.7099 Y73.4501
G00 X20.7099 Y73.4501
G01 F250.00
G01 Z-1.4000
G01 F1250.00
G01 X20.7092 Y73.4462
G01 X20.7070 Y73.4430
G01 X20.7038 Y73.4408
G01 X20.6999 Y73.4401
G01 X20.6961 Y73.4408
G01 X20.6929 Y73.4430
G01 X20.6907 Y73.4462
G01 X20.6899 Y73.4501
G01 X20.6907 Y73.4539
G01 X20.6929 Y73.4571
G01 X20.6961 Y73.4593
G01 X20.6999 Y73.4601
G01 X20.7038 Y73.4593
G01 X20.7070 Y73.4571
G01 X20.7092 Y73.4539
G01 X20.7099 Y73.4501
G00 X20.7099 Y73.4501
G01 F250.00
G01 Z-1.5000
G01 F1250.00
G01 X20.7092 Y73.4462
G01 X20.7070 Y73.4430
G01 X20.7038 Y73.4408
G01 X20.6999 Y73.4401
G01 X20.6961 Y73.4408
G01 X20.6929 Y73.4430
G01 X20.6907 Y73.4462
G01 X20.6899 Y73.4501
G01 X20.6907 Y73.4539
G01 X20.6929 Y73.4571
G01 X20.6961 Y73.4593
G01 X20.6999 Y73.4601
G01 X20.7038 Y73.4593
G01 X20.7070 Y73.4571
G01 X20.7092 Y73.4539
G01 X20.7099 Y73.4501
G00 X20.7099 Y73.4501
G01 F250.00
G01 Z-1.6000
G01 F1250.00
G01 X20.7092 Y73.4462
G01 X20.7070 Y73.4430
G01 X20.7038 Y73.4408
G01 X20.6999 Y73.4401
G01 X20.6961 Y73.4408
G01 X20.6929 Y73.4430
G01 X20.6907 Y73.4462
G01 X20.6899 Y73.4501
G01 X20.6907 Y73.4539
G01 X20.6929 Y73.4571
G01 X20.6961 Y73.4593
G01 X20.6999 Y73.4601
G01 X20.7038 Y73.4593
G01 X20.7070 Y73.4571
G01 X20.7092 Y73.4539
G01 X20.7099 Y73.4501
G00 X20.7099 Y73.4501
G01 F250.00
G01 Z-1.7000
G01 F1250.00
G01 X20.7092 Y73.4462
G01 X20.7070 Y73.4430
G01 X20.7038 Y73.4408
G01 X20.6999 Y73.4401
G01 X20.6961 Y73.4408
G01 X20.6929 Y73.4430
G01 X20.6907 Y73.4462
G01 X20.6899 Y73.4501
G01 X20.6907 Y73.4539
G01 X20.6929 Y73.4571
G01 X20.6961 Y73.4593
G01 X20.6999 Y73.4601
G01 X20.7038 Y73.4593
G01 X20.7070 Y73.4571
G01 X20.7092 Y73.4539
G01 X20.7099 Y73.4501
G00 Z0.5000
G00 X68.2099 Y82.9501
G01 F250.00
G01 Z-0.1000
G01 F1250.00
G01 X68.2092 Y82.9462
G01 X68.2070 Y82.9430
G01 X68.2038 Y82.9408
G01 X68.1999 Y82.9401
G01 X68.1961 Y82.9408
G01 X68.1929 Y82.9430
G01 X68.1907 Y82.9462
G01 X68.1899 Y82.9501
G01 X68.1907 Y82.9539
G01 X68.1929 Y82.9571
G01 X68.1961 Y82.9593
G01 X68.1999 Y82.9601
G01 X68.2038 Y82.9593
G01 X68.2070 Y82.9571
G01 X68.2092 Y82.9539
G01 X68.2099 Y82.9501
G00 X68.2099 Y82.9501
G01 F250.00
G01 Z-0.2000
G01 F1250.00
G01 X68.2092 Y82.9462
G01 X68.2070 Y82.9430
G01 X68.2038 Y82.9408
G01 X68.1999 Y82.9401
G01 X68.1961 Y82.9408
G01 X68.1929 Y82.9430
G01 X68.1907 Y82.9462
G01 X68.1899 Y82.9501
G01 X68.1907 Y82.9539
G01 X68.1929 Y82.9571
G01 X68.1961 Y82.9593
G01 X68.1999 Y82.9601
G01 X68.2038 Y82.9593
G01 X68.2070 Y82.9571
G01 X68.2092 Y82.9539
G01 X68.2099 Y82.9501
G00 X68.2099 Y82.9501
G01 F250.00
G01 Z-0.3000
G01 F1250.00
G01 X68.2092 Y82.9462
G01 X68.2070 Y82.9430
G01 X68.2038 Y82.9408
G01 X68.1999 Y82.9401
G01 X68.1961 Y82.9408
G01 X68.1929 Y82.9430
G01 X68.1907 Y82.9462
G01 X68.1899 Y82.9501
G01 X68.1907 Y82.9539
G01 X68.1929 Y82.9571
G01 X68.1961 Y82.9593
G01 X68.1999 Y82.9601
G01 X68.2038 Y82.9593
G01 X68.2070 Y82.9571
G01 X68.2092 Y82.9539
G01 X68.2099 Y82.9501
G00 X68.2099 Y82.9501
G01 F250.00
G01 Z-0.4000
G01 F1250.00
G01 X68.2092 Y82.9462
G01 X68.2070 Y82.9430
G01 X68.2038 Y82.9408
G01 X68.1999 Y82.9401
G01 X68.1961 Y82.9408
G01 X68.1929 Y82.9430
G01 X68.1907 Y82.9462
G01 X68.1899 Y82.9501
G01 X68.1907 Y82.9539
G01 X68.1929 Y82.9571
G01 X68.1961 Y82.9593
G01 X68.1999 Y82.9601
G01 X68.2038 Y82.9593
G01 X68.2070 Y82.9571
G01 X68.2092 Y82.9539
G01 X68.2099 Y82.9501
G00 X68.2099 Y82.9501
G01 F250.00
G01 Z-0.5000
G01 F1250.00
G01 X68.2092 Y82.9462
G01 X68.2070 Y82.9430
G01 X68.2038 Y82.9408
G01 X68.1999 Y82.9401
G01 X68.1961 Y82.9408
G01 X68.1929 Y82.9430
G01 X68.1907 Y82.9462
G01 X68.1899 Y82.9501
G01 X68.1907 Y82.9539
G01 X68.1929 Y82.9571
G01 X68.1961 Y82.9593
G01 X68.1999 Y82.9601
G01 X68.2038 Y82.9593
G01 X68.2070 Y82.9571
G01 X68.2092 Y82.9539
G01 X68.2099 Y82.9501
G00 X68.2099 Y82.9501
G01 F250.00
G01 Z-0.6000
G01 F1250.00
G01 X68.2092 Y82.9462
G01 X68.2070 Y82.9430
G01 X68.2038 Y82.9408
G01 X68.1999 Y82.9401
G01 X68.1961 Y82.9408
G01 X68.1929 Y82.9430
G01 X68.1907 Y82.9462
G01 X68.1899 Y82.9501
G01 X68.1907 Y82.9539
G01 X68.1929 Y82.9571
G01 X68.1961 Y82.9593
G01 X68.1999 Y82.9601
G01 X68.2038 Y82.9593
G01 X68.2070 Y82.9571
G01 X68.2092 Y82.9539
G01 X68.2099 Y82.9501
G00 X68.2099 Y82.9501
G01 F250.00
G01 Z-0.7000
G01 F1250.00
G01 X68.2092 Y82.9462
G01 X68.2070 Y82.9430
G01 X68.2038 Y82.9408
G01 X68.1999 Y82.9401
G01 X68.1961 Y82.9408
G01 X68.1929 Y82.9430
G01 X68.1907 Y82.9462
G01 X68.1899 Y82.9501
G01 X68.1907 Y82.9539
G01 X68.1929 Y82.9571
G01 X68.1961 Y82.9593
G01 X68.1999 Y82.9601
G01 X68.2038 Y82.9593
G01 X68.2070 Y82.9571
G01 X68.2092 Y82.9539
G01 X68.2099 Y82.9501
G00 X68.2099 Y82.9501
G01 F250.00
G01 Z-0.8000
G01 F1250.00
G01 X68.2092 Y82.9462
G01 X68.2070 Y82.9430
G01 X68.2038 Y82.9408
G01 X68.1999 Y82.9401
G01 X68.1961 Y82.9408
G01 X68.1929 Y82.9430
G01 X68.1907 Y82.9462
G01 X68.1899 Y82.9501
G01 X68.1907 Y82.9539
G01 X68.1929 Y82.9571
G01 X68.1961 Y82.9593
G01 X68.1999 Y82.9601
G01 X68.2038 Y82.9593
G01 X68.2070 Y82.9571
G01 X68.2092 Y82.9539
G01 X68.2099 Y82.9501
G00 X68.2099 Y82.9501
G01 F250.00
G01 Z-0.9000
G01 F1250.00
G01 X68.2092 Y82.9462
G01 X68.2070 Y82.9430
G01 X68.2038 Y82.9408
G01 X68.1999 Y82.9401
G01 X68.1961 Y82.9408
G01 X68.1929 Y82.9430
G01 X68.1907 Y82.9462
G01 X68.1899 Y82.9501
G01 X68.1907 Y82.9539
G01 X68.1929 Y82.9571
G01 X68.1961 Y82.9593
G01 X68.1999 Y82.9601
G01 X68.2038 Y82.9593
G01 X68.2070 Y82.9571
G01 X68.2092 Y82.9539
G01 X68.2099 Y82.9501
G00 X68.2099 Y82.9501
G01 F250.00
G01 Z-1.0000
G01 F1250.00
G01 X68.2092 Y82.9462
G01 X68.2070 Y82.9430
G01 X68.2038 Y82.9408
G01 X68.1999 Y82.9401
G01 X68.1961 Y82.9408
G01 X68.1929 Y82.9430
G01 X68.1907 Y82.9462
G01 X68.1899 Y82.9501
G01 X68.1907 Y82.9539
G01 X68.1929 Y82.9571
G01 X68.1961 Y82.9593
G01 X68.1999 Y82.9601
G01 X68.2038 Y82.9593
G01 X68.2070 Y82.9571
G01 X68.2092 Y82.9539
G01 X68.2099 Y82.9501
G00 X68.2099 Y82.9501
G01 F250.00
G01 Z-1.1000
G01 F1250.00
G01 X68.2092 Y82.9462
G01 X68.2070 Y82.9430
G01 X68.2038 Y82.9408
G01 X68.1999 Y82.9401
G01 X68.1961 Y82.9408
G01 X68.1929 Y82.9430
G01 X68.1907 Y82.9462
G01 X68.1899 Y82.9501
G01 X68.1907 Y82.9539
G01 X68.1929 Y82.9571
G01 X68.1961 Y82.9593
G01 X68.1999 Y82.9601
G01 X68.2038 Y82.9593
G01 X68.2070 Y82.9571
G01 X68.2092 Y82.9539
G01 X68.2099 Y82.9501
G00 X68.2099 Y82.9501
G01 F250.00
G01 Z-1.2000
G01 F1250.00
G01 X68.2092 Y82.9462
G01 X68.2070 Y82.9430
G01 X68.2038 Y82.9408
G01 X68.1999 Y82.9401
G01 X68.1961 Y82.9408
G01 X68.1929 Y82.9430
G01 X68.1907 Y82.9462
G01 X68.1899 Y82.9501
G01 X68.1907 Y82.9539
G01 X68.1929 Y82.9571
G01 X68.1961 Y82.9593
G01 X68.1999 Y82.9601
G01 X68.2038 Y82.9593
G01 X68.2070 Y82.9571
G01 X68.2092 Y82.9539
G01 X68.2099 Y82.9501
G00 X68.2099 Y82.9501
G01 F250.00
G01 Z-1.3000
G01 F1250.00
G01 X68.2092 Y82.9462
G01 X68.2070 Y82.9430
G01 X68.2038 Y82.9408
G01 X68.1999 Y82.9401
G01 X68.1961 Y82.9408
G01 X68.1929 Y82.9430
G01 X68.1907 Y82.9462
G01 X68.1899 Y82.9501
G01 X68.1907 Y82.9539
G01 X68.1929 Y82.9571
G01 X68.1961 Y82.9593
G01 X68.1999 Y82.9601
G01 X68.2038 Y82.9593
G01 X68.2070 Y82.9571
G01 X68.2092 Y82.9539
G01 X68.2099 Y82.9501
G00 X68.2099 Y82.9501
G01 F250.00
G01 Z-1.4000
G01 F1250.00
G01 X68.2092 Y82.9462
G01 X68.2070 Y82.9430
G01 X68.2038 Y82.9408
G01 X68.1999 Y82.9401
G01 X68.1961 Y82.9408
G01 X68.1929 Y82.9430
G01 X68.1907 Y82.9462
G01 X68.1899 Y82.9501
G01 X68.1907 Y82.9539
G01 X68.1929 Y82.9571
G01 X68.1961 Y82.9593
G01 X68.1999 Y82.9601
G01 X68.2038 Y82.9593
G01 X68.2070 Y82.9571
G01 X68.2092 Y82.9539
G01 X68.2099 Y82.9501
G00 X68.2099 Y82.9501
G01 F250.00
G01 Z-1.5000
G01 F1250.00
G01 X68.2092 Y82.9462
G01 X68.2070 Y82.9430
G01 X68.2038 Y82.9408
G01 X68.1999 Y82.9401
G01 X68.1961 Y82.9408
G01 X68.1929 Y82.9430
G01 X68.1907 Y82.9462
G01 X68.1899 Y82.9501
G01 X68.1907 Y82.9539
G01 X68.1929 Y82.9571
G01 X68.1961 Y82.9593
G01 X68.1999 Y82.9601
G01 X68.2038 Y82.9593
G01 X68.2070 Y82.9571
G01 X68.2092 Y82.9539
G01 X68.2099 Y82.9501
G00 X68.2099 Y82.9501
G01 F250.00
G01 Z-1.6000
G01 F1250.00
G01 X68.2092 Y82.9462
G01 X68.2070 Y82.9430
G01 X68.2038 Y82.9408
G01 X68.1999 Y82.9401
G01 X68.1961 Y82.9408
G01 X68.1929 Y82.9430
G01 X68.1907 Y82.9462
G01 X68.1899 Y82.9501
G01 X68.1907 Y82.9539
G01 X68.1929 Y82.9571
G01 X68.1961 Y82.9593
G01 X68.1999 Y82.9601
G01 X68.2038 Y82.9593
G01 X68.2070 Y82.9571
G01 X68.2092 Y82.9539
G01 X68.2099 Y82.9501
G00 X68.2099 Y82.9501
G01 F250.00
G01 Z-1.7000
G01 F1250.00
G01 X68.2092 Y82.9462
G01 X68.2070 Y82.9430
G01 X68.2038 Y82.9408
G01 X68.1999 Y82.9401
G01 X68.1961 Y82.9408
G01 X68.1929 Y82.9430
G01 X68.1907 Y82.9462
G01 X68.1899 Y82.9501
G01 X68.1907 Y82.9539
G01 X68.1929 Y82.9571
G01 X68.1961 Y82.9593
G01 X68.1999 Y82.9601
G01 X68.2038 Y82.9593
G01 X68.2070 Y82.9571
G01 X68.2092 Y82.9539
G01 X68.2099 Y82.9501
G00 Z0.5000
G00 X73.2899 Y82.9501
G01 F250.00
G01 Z-0.1000
G01 F1250.00
G01 X73.2892 Y82.9462
G01 X73.2870 Y82.9430
G01 X73.2838 Y82.9408
G01 X73.2799 Y82.9401
G01 X73.2761 Y82.9408
G01 X73.2729 Y82.9430
G01 X73.2707 Y82.9462
G01 X73.2699 Y82.9501
G01 X73.2707 Y82.9539
G01 X73.2729 Y82.9571
G01 X73.2761 Y82.9593
G01 X73.2799 Y82.9601
G01 X73.2838 Y82.9593
G01 X73.2870 Y82.9571
G01 X73.2892 Y82.9539
G01 X73.2899 Y82.9501
G00 X73.2899 Y82.9501
G01 F250.00
G01 Z-0.2000
G01 F1250.00
G01 X73.2892 Y82.9462
G01 X73.2870 Y82.9430
G01 X73.2838 Y82.9408
G01 X73.2799 Y82.9401
G01 X73.2761 Y82.9408
G01 X73.2729 Y82.9430
G01 X73.2707 Y82.9462
G01 X73.2699 Y82.9501
G01 X73.2707 Y82.9539
G01 X73.2729 Y82.9571
G01 X73.2761 Y82.9593
G01 X73.2799 Y82.9601
G01 X73.2838 Y82.9593
G01 X73.2870 Y82.9571
G01 X73.2892 Y82.9539
G01 X73.2899 Y82.9501
G00 X73.2899 Y82.9501
G01 F250.00
G01 Z-0.3000
G01 F1250.00
G01 X73.2892 Y82.9462
G01 X73.2870 Y82.9430
G01 X73.2838 Y82.9408
G01 X73.2799 Y82.9401
G01 X73.2761 Y82.9408
G01 X73.2729 Y82.9430
G01 X73.2707 Y82.9462
G01 X73.2699 Y82.9501
G01 X73.2707 Y82.9539
G01 X73.2729 Y82.9571
G01 X73.2761 Y82.9593
G01 X73.2799 Y82.9601
G01 X73.2838 Y82.9593
G01 X73.2870 Y82.9571
G01 X73.2892 Y82.9539
G01 X73.2899 Y82.9501
G00 X73.2899 Y82.9501
G01 F250.00
G01 Z-0.4000
G01 F1250.00
G01 X73.2892 Y82.9462
G01 X73.2870 Y82.9430
G01 X73.2838 Y82.9408
G01 X73.2799 Y82.9401
G01 X73.2761 Y82.9408
G01 X73.2729 Y82.9430
G01 X73.2707 Y82.9462
G01 X73.2699 Y82.9501
G01 X73.2707 Y82.9539
G01 X73.2729 Y82.9571
G01 X73.2761 Y82.9593
G01 X73.2799 Y82.9601
G01 X73.2838 Y82.9593
G01 X73.2870 Y82.9571
G01 X73.2892 Y82.9539
G01 X73.2899 Y82.9501
G00 X73.2899 Y82.9501
G01 F250.00
G01 Z-0.5000
G01 F1250.00
G01 X73.2892 Y82.9462
G01 X73.2870 Y82.9430
G01 X73.2838 Y82.9408
G01 X73.2799 Y82.9401
G01 X73.2761 Y82.9408
G01 X73.2729 Y82.9430
G01 X73.2707 Y82.9462
G01 X73.2699 Y82.9501
G01 X73.2707 Y82.9539
G01 X73.2729 Y82.9571
G01 X73.2761 Y82.9593
G01 X73.2799 Y82.9601
G01 X73.2838 Y82.9593
G01 X73.2870 Y82.9571
G01 X73.2892 Y82.9539
G01 X73.2899 Y82.9501
G00 X73.2899 Y82.9501
G01 F250.00
G01 Z-0.6000
G01 F1250.00
G01 X73.2892 Y82.9462
G01 X73.2870 Y82.9430
G01 X73.2838 Y82.9408
G01 X73.2799 Y82.9401
G01 X73.2761 Y82.9408
G01 X73.2729 Y82.9430
G01 X73.2707 Y82.9462
G01 X73.2699 Y82.9501
G01 X73.2707 Y82.9539
G01 X73.2729 Y82.9571
G01 X73.2761 Y82.9593
G01 X73.2799 Y82.9601
G01 X73.2838 Y82.9593
G01 X73.2870 Y82.9571
G01 X73.2892 Y82.9539
G01 X73.2899 Y82.9501
G00 X73.2899 Y82.9501
G01 F250.00
G01 Z-0.7000
G01 F1250.00
G01 X73.2892 Y82.9462
G01 X73.2870 Y82.9430
G01 X73.2838 Y82.9408
G01 X73.2799 Y82.9401
G01 X73.2761 Y82.9408
G01 X73.2729 Y82.9430
G01 X73.2707 Y82.9462
G01 X73.2699 Y82.9501
G01 X73.2707 Y82.9539
G01 X73.2729 Y82.9571
G01 X73.2761 Y82.9593
G01 X73.2799 Y82.9601
G01 X73.2838 Y82.9593
G01 X73.2870 Y82.9571
G01 X73.2892 Y82.9539
G01 X73.2899 Y82.9501
G00 X73.2899 Y82.9501
G01 F250.00
G01 Z-0.8000
G01 F1250.00
G01 X73.2892 Y82.9462
G01 X73.2870 Y82.9430
G01 X73.2838 Y82.9408
G01 X73.2799 Y82.9401
G01 X73.2761 Y82.9408
G01 X73.2729 Y82.9430
G01 X73.2707 Y82.9462
G01 X73.2699 Y82.9501
G01 X73.2707 Y82.9539
G01 X73.2729 Y82.9571
G01 X73.2761 Y82.9593
G01 X73.2799 Y82.9601
G01 X73.2838 Y82.9593
G01 X73.2870 Y82.9571
G01 X73.2892 Y82.9539
G01 X73.2899 Y82.9501
G00 X73.2899 Y82.9501
G01 F250.00
G01 Z-0.9000
G01 F1250.00
G01 X73.2892 Y82.9462
G01 X73.2870 Y82.9430
G01 X73.2838 Y82.9408
G01 X73.2799 Y82.9401
G01 X73.2761 Y82.9408
G01 X73.2729 Y82.9430
G01 X73.2707 Y82.9462
G01 X73.2699 Y82.9501
G01 X73.2707 Y82.9539
G01 X73.2729 Y82.9571
G01 X73.2761 Y82.9593
G01 X73.2799 Y82.9601
G01 X73.2838 Y82.9593
G01 X73.2870 Y82.9571
G01 X73.2892 Y82.9539
G01 X73.2899 Y82.9501
G00 X73.2899 Y82.9501
G01 F250.00
G01 Z-1.0000
G01 F1250.00
G01 X73.2892 Y82.9462
G01 X73.2870 Y82.9430
G01 X73.2838 Y82.9408
G01 X73.2799 Y82.9401
G01 X73.2761 Y82.9408
G01 X73.2729 Y82.9430
G01 X73.2707 Y82.9462
G01 X73.2699 Y82.9501
G01 X73.2707 Y82.9539
G01 X73.2729 Y82.9571
G01 X73.2761 Y82.9593
G01 X73.2799 Y82.9601
G01 X73.2838 Y82.9593
G01 X73.2870 Y82.9571
G01 X73.2892 Y82.9539
G01 X73.2899 Y82.9501
G00 X73.2899 Y82.9501
G01 F250.00
G01 Z-1.1000
G01 F1250.00
G01 X73.2892 Y82.9462
G01 X73.2870 Y82.9430
G01 X73.2838 Y82.9408
G01 X73.2799 Y82.9401
G01 X73.2761 Y82.9408
G01 X73.2729 Y82.9430
G01 X73.2707 Y82.9462
G01 X73.2699 Y82.9501
G01 X73.2707 Y82.9539
G01 X73.2729 Y82.9571
G01 X73.2761 Y82.9593
G01 X73.2799 Y82.9601
G01 X73.2838 Y82.9593
G01 X73.2870 Y82.9571
G01 X73.2892 Y82.9539
G01 X73.2899 Y82.9501
G00 X73.2899 Y82.9501
G01 F250.00
G01 Z-1.2000
G01 F1250.00
G01 X73.2892 Y82.9462
G01 X73.2870 Y82.9430
G01 X73.2838 Y82.9408
G01 X73.2799 Y82.9401
G01 X73.2761 Y82.9408
G01 X73.2729 Y82.9430
G01 X73.2707 Y82.9462
G01 X73.2699 Y82.9501
G01 X73.2707 Y82.9539
G01 X73.2729 Y82.9571
G01 X73.2761 Y82.9593
G01 X73.2799 Y82.9601
G01 X73.2838 Y82.9593
G01 X73.2870 Y82.9571
G01 X73.2892 Y82.9539
G01 X73.2899 Y82.9501
G00 X73.2899 Y82.9501
G01 F250.00
G01 Z-1.3000
G01 F1250.00
G01 X73.2892 Y82.9462
G01 X73.2870 Y82.9430
G01 X73.2838 Y82.9408
G01 X73.2799 Y82.9401
G01 X73.2761 Y82.9408
G01 X73.2729 Y82.9430
G01 X73.2707 Y82.9462
G01 X73.2699 Y82.9501
G01 X73.2707 Y82.9539
G01 X73.2729 Y82.9571
G01 X73.2761 Y82.9593
G01 X73.2799 Y82.9601
G01 X73.2838 Y82.9593
G01 X73.2870 Y82.9571
G01 X73.2892 Y82.9539
G01 X73.2899 Y82.9501
G00 X73.2899 Y82.9501
G01 F250.00
G01 Z-1.4000
G01 F1250.00
G01 X73.2892 Y82.9462
G01 X73.2870 Y82.9430
G01 X73.2838 Y82.9408
G01 X73.2799 Y82.9401
G01 X73.2761 Y82.9408
G01 X73.2729 Y82.9430
G01 X73.2707 Y82.9462
G01 X73.2699 Y82.9501
G01 X73.2707 Y82.9539
G01 X73.2729 Y82.9571
G01 X73.2761 Y82.9593
G01 X73.2799 Y82.9601
G01 X73.2838 Y82.9593
G01 X73.2870 Y82.9571
G01 X73.2892 Y82.9539
G01 X73.2899 Y82.9501
G00 X73.2899 Y82.9501
G01 F250.00
G01 Z-1.5000
G01 F1250.00
G01 X73.2892 Y82.9462
G01 X73.2870 Y82.9430
G01 X73.2838 Y82.9408
G01 X73.2799 Y82.9401
G01 X73.2761 Y82.9408
G01 X73.2729 Y82.9430
G01 X73.2707 Y82.9462
G01 X73.2699 Y82.9501
G01 X73.2707 Y82.9539
G01 X73.2729 Y82.9571
G01 X73.2761 Y82.9593
G01 X73.2799 Y82.9601
G01 X73.2838 Y82.9593
G01 X73.2870 Y82.9571
G01 X73.2892 Y82.9539
G01 X73.2899 Y82.9501
G00 X73.2899 Y82.9501
G01 F250.00
G01 Z-1.6000
G01 F1250.00
G01 X73.2892 Y82.9462
G01 X73.2870 Y82.9430
G01 X73.2838 Y82.9408
G01 X73.2799 Y82.9401
G01 X73.2761 Y82.9408
G01 X73.2729 Y82.9430
G01 X73.2707 Y82.9462
G01 X73.2699 Y82.9501
G01 X73.2707 Y82.9539
G01 X73.2729 Y82.9571
G01 X73.2761 Y82.9593
G01 X73.2799 Y82.9601
G01 X73.2838 Y82.9593
G01 X73.2870 Y82.9571
G01 X73.2892 Y82.9539
G01 X73.2899 Y82.9501
G00 X73.2899 Y82.9501
G01 F250.00
G01 Z-1.7000
G01 F1250.00
G01 X73.2892 Y82.9462
G01 X73.2870 Y82.9430
G01 X73.2838 Y82.9408
G01 X73.2799 Y82.9401
G01 X73.2761 Y82.9408
G01 X73.2729 Y82.9430
G01 X73.2707 Y82.9462
G01 X73.2699 Y82.9501
G01 X73.2707 Y82.9539
G01 X73.2729 Y82.9571
G01 X73.2761 Y82.9593
G01 X73.2799 Y82.9601
G01 X73.2838 Y82.9593
G01 X73.2870 Y82.9571
G01 X73.2892 Y82.9539
G01 X73.2899 Y82.9501
G00 Z0.5000
G00 X109.7649 Y62.9901
G01 F250.00
G01 Z-0.1000
G01 F1250.00
G01 X109.7642 Y62.9862
G01 X109.7620 Y62.9830
G01 X109.7588 Y62.9808
G01 X109.7549 Y62.9801
G01 X109.7511 Y62.9808
G01 X109.7479 Y62.9830
G01 X109.7457 Y62.9862
G01 X109.7449 Y62.9901
G01 X109.7457 Y62.9939
G01 X109.7479 Y62.9971
G01 X109.7511 Y62.9993
G01 X109.7549 Y63.0001
G01 X109.7588 Y62.9993
G01 X109.7620 Y62.9971
G01 X109.7642 Y62.9939
G01 X109.7649 Y62.9901
G00 X109.7649 Y62.9901
G01 F250.00
G01 Z-0.2000
G01 F1250.00
G01 X109.7642 Y62.9862
G01 X109.7620 Y62.9830
G01 X109.7588 Y62.9808
G01 X109.7549 Y62.9801
G01 X109.7511 Y62.9808
G01 X109.7479 Y62.9830
G01 X109.7457 Y62.9862
G01 X109.7449 Y62.9901
G01 X109.7457 Y62.9939
G01 X109.7479 Y62.9971
G01 X109.7511 Y62.9993
G01 X109.7549 Y63.0001
G01 X109.7588 Y62.9993
G01 X109.7620 Y62.9971
G01 X109.7642 Y62.9939
G01 X109.7649 Y62.9901
G00 X109.7649 Y62.9901
G01 F250.00
G01 Z-0.3000
G01 F1250.00
G01 X109.7642 Y62.9862
G01 X109.7620 Y62.9830
G01 X109.7588 Y62.9808
G01 X109.7549 Y62.9801
G01 X109.7511 Y62.9808
G01 X109.7479 Y62.9830
G01 X109.7457 Y62.9862
G01 X109.7449 Y62.9901
G01 X109.7457 Y62.9939
G01 X109.7479 Y62.9971
G01 X109.7511 Y62.9993
G01 X109.7549 Y63.0001
G01 X109.7588 Y62.9993
G01 X109.7620 Y62.9971
G01 X109.7642 Y62.9939
G01 X109.7649 Y62.9901
G00 X109.7649 Y62.9901
G01 F250.00
G01 Z-0.4000
G01 F1250.00
G01 X109.7642 Y62.9862
G01 X109.7620 Y62.9830
G01 X109.7588 Y62.9808
G01 X109.7549 Y62.9801
G01 X109.7511 Y62.9808
G01 X109.7479 Y62.9830
G01 X109.7457 Y62.9862
G01 X109.7449 Y62.9901
G01 X109.7457 Y62.9939
G01 X109.7479 Y62.9971
G01 X109.7511 Y62.9993
G01 X109.7549 Y63.0001
G01 X109.7588 Y62.9993
G01 X109.7620 Y62.9971
G01 X109.7642 Y62.9939
G01 X109.7649 Y62.9901
G00 X109.7649 Y62.9901
G01 F250.00
G01 Z-0.5000
G01 F1250.00
G01 X109.7642 Y62.9862
G01 X109.7620 Y62.9830
G01 X109.7588 Y62.9808
G01 X109.7549 Y62.9801
G01 X109.7511 Y62.9808
G01 X109.7479 Y62.9830
G01 X109.7457 Y62.9862
G01 X109.7449 Y62.9901
G01 X109.7457 Y62.9939
G01 X109.7479 Y62.9971
G01 X109.7511 Y62.9993
G01 X109.7549 Y63.0001
G01 X109.7588 Y62.9993
G01 X109.7620 Y62.9971
G01 X109.7642 Y62.9939
G01 X109.7649 Y62.9901
G00 X109.7649 Y62.9901
G01 F250.00
G01 Z-0.6000
G01 F1250.00
G01 X109.7642 Y62.9862
G01 X109.7620 Y62.9830
G01 X109.7588 Y62.9808
G01 X109.7549 Y62.9801
G01 X109.7511 Y62.9808
G01 X109.7479 Y62.9830
G01 X109.7457 Y62.9862
G01 X109.7449 Y62.9901
G01 X109.7457 Y62.9939
G01 X109.7479 Y62.9971
G01 X109.7511 Y62.9993
G01 X109.7549 Y63.0001
G01 X109.7588 Y62.9993
G01 X109.7620 Y62.9971
G01 X109.7642 Y62.9939
G01 X109.7649 Y62.9901
G00 X109.7649 Y62.9901
G01 F250.00
G01 Z-0.7000
G01 F1250.00
G01 X109.7642 Y62.9862
G01 X109.7620 Y62.9830
G01 X109.7588 Y62.9808
G01 X109.7549 Y62.9801
G01 X109.7511 Y62.9808
G01 X109.7479 Y62.9830
G01 X109.7457 Y62.9862
G01 X109.7449 Y62.9901
G01 X109.7457 Y62.9939
G01 X109.7479 Y62.9971
G01 X109.7511 Y62.9993
G01 X109.7549 Y63.0001
G01 X109.7588 Y62.9993
G01 X109.7620 Y62.9971
G01 X109.7642 Y62.9939
G01 X109.7649 Y62.9901
G00 X109.7649 Y62.9901
G01 F250.00
G01 Z-0.8000
G01 F1250.00
G01 X109.7642 Y62.9862
G01 X109.7620 Y62.9830
G01 X109.7588 Y62.9808
G01 X109.7549 Y62.9801
G01 X109.7511 Y62.9808
G01 X109.7479 Y62.9830
G01 X109.7457 Y62.9862
G01 X109.7449 Y62.9901
G01 X109.7457 Y62.9939
G01 X109.7479 Y62.9971
G01 X109.7511 Y62.9993
G01 X109.7549 Y63.0001
G01 X109.7588 Y62.9993
G01 X109.7620 Y62.9971
G01 X109.7642 Y62.9939
G01 X109.7649 Y62.9901
G00 X109.7649 Y62.9901
G01 F250.00
G01 Z-0.9000
G01 F1250.00
G01 X109.7642 Y62.9862
G01 X109.7620 Y62.9830
G01 X109.7588 Y62.9808
G01 X109.7549 Y62.9801
G01 X109.7511 Y62.9808
G01 X109.7479 Y62.9830
G01 X109.7457 Y62.9862
G01 X109.7449 Y62.9901
G01 X109.7457 Y62.9939
G01 X109.7479 Y62.9971
G01 X109.7511 Y62.9993
G01 X109.7549 Y63.0001
G01 X109.7588 Y62.9993
G01 X109.7620 Y62.9971
G01 X109.7642 Y62.9939
G01 X109.7649 Y62.9901
G00 X109.7649 Y62.9901
G01 F250.00
G01 Z-1.0000
G01 F1250.00
G01 X109.7642 Y62.9862
G01 X109.7620 Y62.9830
G01 X109.7588 Y62.9808
G01 X109.7549 Y62.9801
G01 X109.7511 Y62.9808
G01 X109.7479 Y62.9830
G01 X109.7457 Y62.9862
G01 X109.7449 Y62.9901
G01 X109.7457 Y62.9939
G01 X109.7479 Y62.9971
G01 X109.7511 Y62.9993
G01 X109.7549 Y63.0001
G01 X109.7588 Y62.9993
G01 X109.7620 Y62.9971
G01 X109.7642 Y62.9939
G01 X109.7649 Y62.9901
G00 X109.7649 Y62.9901
G01 F250.00
G01 Z-1.1000
G01 F1250.00
G01 X109.7642 Y62.9862
G01 X109.7620 Y62.9830
G01 X109.7588 Y62.9808
G01 X109.7549 Y62.9801
G01 X109.7511 Y62.9808
G01 X109.7479 Y62.9830
G01 X109.7457 Y62.9862
G01 X109.7449 Y62.9901
G01 X109.7457 Y62.9939
G01 X109.7479 Y62.9971
G01 X109.7511 Y62.9993
G01 X109.7549 Y63.0001
G01 X109.7588 Y62.9993
G01 X109.7620 Y62.9971
G01 X109.7642 Y62.9939
G01 X109.7649 Y62.9901
G00 X109.7649 Y62.9901
G01 F250.00
G01 Z-1.2000
G01 F1250.00
G01 X109.7642 Y62.9862
G01 X109.7620 Y62.9830
G01 X109.7588 Y62.9808
G01 X109.7549 Y62.9801
G01 X109.7511 Y62.9808
G01 X109.7479 Y62.9830
G01 X109.7457 Y62.9862
G01 X109.7449 Y62.9901
G01 X109.7457 Y62.9939
G01 X109.7479 Y62.9971
G01 X109.7511 Y62.9993
G01 X109.7549 Y63.0001
G01 X109.7588 Y62.9993
G01 X109.7620 Y62.9971
G01 X109.7642 Y62.9939
G01 X109.7649 Y62.9901
G00 X109.7649 Y62.9901
G01 F250.00
G01 Z-1.3000
G01 F1250.00
G01 X109.7642 Y62.9862
G01 X109.7620 Y62.9830
G01 X109.7588 Y62.9808
G01 X109.7549 Y62.9801
G01 X109.7511 Y62.9808
G01 X109.7479 Y62.9830
G01 X109.7457 Y62.9862
G01 X109.7449 Y62.9901
G01 X109.7457 Y62.9939
G01 X109.7479 Y62.9971
G01 X109.7511 Y62.9993
G01 X109.7549 Y63.0001
G01 X109.7588 Y62.9993
G01 X109.7620 Y62.9971
G01 X109.7642 Y62.9939
G01 X109.7649 Y62.9901
G00 X109.7649 Y62.9901
G01 F250.00
G01 Z-1.4000
G01 F1250.00
G01 X109.7642 Y62.9862
G01 X109.7620 Y62.9830
G01 X109.7588 Y62.9808
G01 X109.7549 Y62.9801
G01 X109.7511 Y62.9808
G01 X109.7479 Y62.9830
G01 X109.7457 Y62.9862
G01 X109.7449 Y62.9901
G01 X109.7457 Y62.9939
G01 X109.7479 Y62.9971
G01 X109.7511 Y62.9993
G01 X109.7549 Y63.0001
G01 X109.7588 Y62.9993
G01 X109.7620 Y62.9971
G01 X109.7642 Y62.9939
G01 X109.7649 Y62.9901
G00 X109.7649 Y62.9901
G01 F250.00
G01 Z-1.5000
G01 F1250.00
G01 X109.7642 Y62.9862
G01 X109.7620 Y62.9830
G01 X109.7588 Y62.9808
G01 X109.7549 Y62.9801
G01 X109.7511 Y62.9808
G01 X109.7479 Y62.9830
G01 X109.7457 Y62.9862
G01 X109.7449 Y62.9901
G01 X109.7457 Y62.9939
G01 X109.7479 Y62.9971
G01 X109.7511 Y62.9993
G01 X109.7549 Y63.0001
G01 X109.7588 Y62.9993
G01 X109.7620 Y62.9971
G01 X109.7642 Y62.9939
G01 X109.7649 Y62.9901
G00 X109.7649 Y62.9901
G01 F250.00
G01 Z-1.6000
G01 F1250.00
G01 X109.7642 Y62.9862
G01 X109.7620 Y62.9830
G01 X109.7588 Y62.9808
G01 X109.7549 Y62.9801
G01 X109.7511 Y62.9808
G01 X109.7479 Y62.9830
G01 X109.7457 Y62.9862
G01 X109.7449 Y62.9901
G01 X109.7457 Y62.9939
G01 X109.7479 Y62.9971
G01 X109.7511 Y62.9993
G01 X109.7549 Y63.0001
G01 X109.7588 Y62.9993
G01 X109.7620 Y62.9971
G01 X109.7642 Y62.9939
G01 X109.7649 Y62.9901
G00 X109.7649 Y62.9901
G01 F250.00
G01 Z-1.7000
G01 F1250.00
G01 X109.7642 Y62.9862
G01 X109.7620 Y62.9830
G01 X109.7588 Y62.9808
G01 X109.7549 Y62.9801
G01 X109.7511 Y62.9808
G01 X109.7479 Y62.9830
G01 X109.7457 Y62.9862
G01 X109.7449 Y62.9901
G01 X109.7457 Y62.9939
G01 X109.7479 Y62.9971
G01 X109.7511 Y62.9993
G01 X109.7549 Y63.0001
G01 X109.7588 Y62.9993
G01 X109.7620 Y62.9971
G01 X109.7642 Y62.9939
G01 X109.7649 Y62.9901
G00 Z0.5000
G00 X109.7649 Y57.9101
G01 F250.00
G01 Z-0.1000
G01 F1250.00
G01 X109.7642 Y57.9062
G01 X109.7620 Y57.9030
G01 X109.7588 Y57.9008
G01 X109.7549 Y57.9001
G01 X109.7511 Y57.9008
G01 X109.7479 Y57.9030
G01 X109.7457 Y57.9062
G01 X109.7449 Y57.9101
G01 X109.7457 Y57.9139
G01 X109.7479 Y57.9171
G01 X109.7511 Y57.9193
G01 X109.7549 Y57.9201
G01 X109.7588 Y57.9193
G01 X109.7620 Y57.9171
G01 X109.7642 Y57.9139
G01 X109.7649 Y57.9101
G00 X109.7649 Y57.9101
G01 F250.00
G01 Z-0.2000
G01 F1250.00
G01 X109.7642 Y57.9062
G01 X109.7620 Y57.9030
G01 X109.7588 Y57.9008
G01 X109.7549 Y57.9001
G01 X109.7511 Y57.9008
G01 X109.7479 Y57.9030
G01 X109.7457 Y57.9062
G01 X109.7449 Y57.9101
G01 X109.7457 Y57.9139
G01 X109.7479 Y57.9171
G01 X109.7511 Y57.9193
G01 X109.7549 Y57.9201
G01 X109.7588 Y57.9193
G01 X109.7620 Y57.9171
G01 X109.7642 Y57.9139
G01 X109.7649 Y57.9101
G00 X109.7649 Y57.9101
G01 F250.00
G01 Z-0.3000
G01 F1250.00
G01 X109.7642 Y57.9062
G01 X109.7620 Y57.9030
G01 X109.7588 Y57.9008
G01 X109.7549 Y57.9001
G01 X109.7511 Y57.9008
G01 X109.7479 Y57.9030
G01 X109.7457 Y57.9062
G01 X109.7449 Y57.9101
G01 X109.7457 Y57.9139
G01 X109.7479 Y57.9171
G01 X109.7511 Y57.9193
G01 X109.7549 Y57.9201
G01 X109.7588 Y57.9193
G01 X109.7620 Y57.9171
G01 X109.7642 Y57.9139
G01 X109.7649 Y57.9101
G00 X109.7649 Y57.9101
G01 F250.00
G01 Z-0.4000
G01 F1250.00
G01 X109.7642 Y57.9062
G01 X109.7620 Y57.9030
G01 X109.7588 Y57.9008
G01 X109.7549 Y57.9001
G01 X109.7511 Y57.9008
G01 X109.7479 Y57.9030
G01 X109.7457 Y57.9062
G01 X109.7449 Y57.9101
G01 X109.7457 Y57.9139
G01 X109.7479 Y57.9171
G01 X109.7511 Y57.9193
G01 X109.7549 Y57.9201
G01 X109.7588 Y57.9193
G01 X109.7620 Y57.9171
G01 X109.7642 Y57.9139
G01 X109.7649 Y57.9101
G00 X109.7649 Y57.9101
G01 F250.00
G01 Z-0.5000
G01 F1250.00
G01 X109.7642 Y57.9062
G01 X109.7620 Y57.9030
G01 X109.7588 Y57.9008
G01 X109.7549 Y57.9001
G01 X109.7511 Y57.9008
G01 X109.7479 Y57.9030
G01 X109.7457 Y57.9062
G01 X109.7449 Y57.9101
G01 X109.7457 Y57.9139
G01 X109.7479 Y57.9171
G01 X109.7511 Y57.9193
G01 X109.7549 Y57.9201
G01 X109.7588 Y57.9193
G01 X109.7620 Y57.9171
G01 X109.7642 Y57.9139
G01 X109.7649 Y57.9101
G00 X109.7649 Y57.9101
G01 F250.00
G01 Z-0.6000
G01 F1250.00
G01 X109.7642 Y57.9062
G01 X109.7620 Y57.9030
G01 X109.7588 Y57.9008
G01 X109.7549 Y57.9001
G01 X109.7511 Y57.9008
G01 X109.7479 Y57.9030
G01 X109.7457 Y57.9062
G01 X109.7449 Y57.9101
G01 X109.7457 Y57.9139
G01 X109.7479 Y57.9171
G01 X109.7511 Y57.9193
G01 X109.7549 Y57.9201
G01 X109.7588 Y57.9193
G01 X109.7620 Y57.9171
G01 X109.7642 Y57.9139
G01 X109.7649 Y57.9101
G00 X109.7649 Y57.9101
G01 F250.00
G01 Z-0.7000
G01 F1250.00
G01 X109.7642 Y57.9062
G01 X109.7620 Y57.9030
G01 X109.7588 Y57.9008
G01 X109.7549 Y57.9001
G01 X109.7511 Y57.9008
G01 X109.7479 Y57.9030
G01 X109.7457 Y57.9062
G01 X109.7449 Y57.9101
G01 X109.7457 Y57.9139
G01 X109.7479 Y57.9171
G01 X109.7511 Y57.9193
G01 X109.7549 Y57.9201
G01 X109.7588 Y57.9193
G01 X109.7620 Y57.9171
G01 X109.7642 Y57.9139
G01 X109.7649 Y57.9101
G00 X109.7649 Y57.9101
G01 F250.00
G01 Z-0.8000
G01 F1250.00
G01 X109.7642 Y57.9062
G01 X109.7620 Y57.9030
G01 X109.7588 Y57.9008
G01 X109.7549 Y57.9001
G01 X109.7511 Y57.9008
G01 X109.7479 Y57.9030
G01 X109.7457 Y57.9062
G01 X109.7449 Y57.9101
G01 X109.7457 Y57.9139
G01 X109.7479 Y57.9171
G01 X109.7511 Y57.9193
G01 X109.7549 Y57.9201
G01 X109.7588 Y57.9193
G01 X109.7620 Y57.9171
G01 X109.7642 Y57.9139
G01 X109.7649 Y57.9101
G00 X109.7649 Y57.9101
G01 F250.00
G01 Z-0.9000
G01 F1250.00
G01 X109.7642 Y57.9062
G01 X109.7620 Y57.9030
G01 X109.7588 Y57.9008
G01 X109.7549 Y57.9001
G01 X109.7511 Y57.9008
G01 X109.7479 Y57.9030
G01 X109.7457 Y57.9062
G01 X109.7449 Y57.9101
G01 X109.7457 Y57.9139
G01 X109.7479 Y57.9171
G01 X109.7511 Y57.9193
G01 X109.7549 Y57.9201
G01 X109.7588 Y57.9193
G01 X109.7620 Y57.9171
G01 X109.7642 Y57.9139
G01 X109.7649 Y57.9101
G00 X109.7649 Y57.9101
G01 F250.00
G01 Z-1.0000
G01 F1250.00
G01 X109.7642 Y57.9062
G01 X109.7620 Y57.9030
G01 X109.7588 Y57.9008
G01 X109.7549 Y57.9001
G01 X109.7511 Y57.9008
G01 X109.7479 Y57.9030
G01 X109.7457 Y57.9062
G01 X109.7449 Y57.9101
G01 X109.7457 Y57.9139
G01 X109.7479 Y57.9171
G01 X109.7511 Y57.9193
G01 X109.7549 Y57.9201
G01 X109.7588 Y57.9193
G01 X109.7620 Y57.9171
G01 X109.7642 Y57.9139
G01 X109.7649 Y57.9101
G00 X109.7649 Y57.9101
G01 F250.00
G01 Z-1.1000
G01 F1250.00
G01 X109.7642 Y57.9062
G01 X109.7620 Y57.9030
G01 X109.7588 Y57.9008
G01 X109.7549 Y57.9001
G01 X109.7511 Y57.9008
G01 X109.7479 Y57.9030
G01 X109.7457 Y57.9062
G01 X109.7449 Y57.9101
G01 X109.7457 Y57.9139
G01 X109.7479 Y57.9171
G01 X109.7511 Y57.9193
G01 X109.7549 Y57.9201
G01 X109.7588 Y57.9193
G01 X109.7620 Y57.9171
G01 X109.7642 Y57.9139
G01 X109.7649 Y57.9101
G00 X109.7649 Y57.9101
G01 F250.00
G01 Z-1.2000
G01 F1250.00
G01 X109.7642 Y57.9062
G01 X109.7620 Y57.9030
G01 X109.7588 Y57.9008
G01 X109.7549 Y57.9001
G01 X109.7511 Y57.9008
G01 X109.7479 Y57.9030
G01 X109.7457 Y57.9062
G01 X109.7449 Y57.9101
G01 X109.7457 Y57.9139
G01 X109.7479 Y57.9171
G01 X109.7511 Y57.9193
G01 X109.7549 Y57.9201
G01 X109.7588 Y57.9193
G01 X109.7620 Y57.9171
G01 X109.7642 Y57.9139
G01 X109.7649 Y57.9101
G00 X109.7649 Y57.9101
G01 F250.00
G01 Z-1.3000
G01 F1250.00
G01 X109.7642 Y57.9062
G01 X109.7620 Y57.9030
G01 X109.7588 Y57.9008
G01 X109.7549 Y57.9001
G01 X109.7511 Y57.9008
G01 X109.7479 Y57.9030
G01 X109.7457 Y57.9062
G01 X109.7449 Y57.9101
G01 X109.7457 Y57.9139
G01 X109.7479 Y57.9171
G01 X109.7511 Y57.9193
G01 X109.7549 Y57.9201
G01 X109.7588 Y57.9193
G01 X109.7620 Y57.9171
G01 X109.7642 Y57.9139
G01 X109.7649 Y57.9101
G00 X109.7649 Y57.9101
G01 F250.00
G01 Z-1.4000
G01 F1250.00
G01 X109.7642 Y57.9062
G01 X109.7620 Y57.9030
G01 X109.7588 Y57.9008
G01 X109.7549 Y57.9001
G01 X109.7511 Y57.9008
G01 X109.7479 Y57.9030
G01 X109.7457 Y57.9062
G01 X109.7449 Y57.9101
G01 X109.7457 Y57.9139
G01 X109.7479 Y57.9171
G01 X109.7511 Y57.9193
G01 X109.7549 Y57.9201
G01 X109.7588 Y57.9193
G01 X109.7620 Y57.9171
G01 X109.7642 Y57.9139
G01 X109.7649 Y57.9101
G00 X109.7649 Y57.9101
G01 F250.00
G01 Z-1.5000
G01 F1250.00
G01 X109.7642 Y57.9062
G01 X109.7620 Y57.9030
G01 X109.7588 Y57.9008
G01 X109.7549 Y57.9001
G01 X109.7511 Y57.9008
G01 X109.7479 Y57.9030
G01 X109.7457 Y57.9062
G01 X109.7449 Y57.9101
G01 X109.7457 Y57.9139
G01 X109.7479 Y57.9171
G01 X109.7511 Y57.9193
G01 X109.7549 Y57.9201
G01 X109.7588 Y57.9193
G01 X109.7620 Y57.9171
G01 X109.7642 Y57.9139
G01 X109.7649 Y57.9101
G00 X109.7649 Y57.9101
G01 F250.00
G01 Z-1.6000
G01 F1250.00
G01 X109.7642 Y57.9062
G01 X109.7620 Y57.9030
G01 X109.7588 Y57.9008
G01 X109.7549 Y57.9001
G01 X109.7511 Y57.9008
G01 X109.7479 Y57.9030
G01 X109.7457 Y57.9062
G01 X109.7449 Y57.9101
G01 X109.7457 Y57.9139
G01 X109.7479 Y57.9171
G01 X109.7511 Y57.9193
G01 X109.7549 Y57.9201
G01 X109.7588 Y57.9193
G01 X109.7620 Y57.9171
G01 X109.7642 Y57.9139
G01 X109.7649 Y57.9101
G00 X109.7649 Y57.9101
G01 F250.00
G01 Z-1.7000
G01 F1250.00
G01 X109.7642 Y57.9062
G01 X109.7620 Y57.9030
G01 X109.7588 Y57.9008
G01 X109.7549 Y57.9001
G01 X109.7511 Y57.9008
G01 X109.7479 Y57.9030
G01 X109.7457 Y57.9062
G01 X109.7449 Y57.9101
G01 X109.7457 Y57.9139
G01 X109.7479 Y57.9171
G01 X109.7511 Y57.9193
G01 X109.7549 Y57.9201
G01 X109.7588 Y57.9193
G01 X109.7620 Y57.9171
G01 X109.7642 Y57.9139
G01 X109.7649 Y57.9101
G00 Z0.5000
G00 X80.4499 Y16.4501
G01 F250.00
G01 Z-0.1000
G01 F1250.00
G01 X80.4492 Y16.4462
G01 X80.4470 Y16.4430
G01 X80.4438 Y16.4408
G01 X80.4399 Y16.4401
G01 X80.4361 Y16.4408
G01 X80.4329 Y16.4430
G01 X80.4307 Y16.4462
G01 X80.4299 Y16.4501
G01 X80.4307 Y16.4539
G01 X80.4329 Y16.4571
G01 X80.4361 Y16.4593
G01 X80.4399 Y16.4601
G01 X80.4438 Y16.4593
G01 X80.4470 Y16.4571
G01 X80.4492 Y16.4539
G01 X80.4499 Y16.4501
G00 X80.4499 Y16.4501
G01 F250.00
G01 Z-0.2000
G01 F1250.00
G01 X80.4492 Y16.4462
G01 X80.4470 Y16.4430
G01 X80.4438 Y16.4408
G01 X80.4399 Y16.4401
G01 X80.4361 Y16.4408
G01 X80.4329 Y16.4430
G01 X80.4307 Y16.4462
G01 X80.4299 Y16.4501
G01 X80.4307 Y16.4539
G01 X80.4329 Y16.4571
G01 X80.4361 Y16.4593
G01 X80.4399 Y16.4601
G01 X80.4438 Y16.4593
G01 X80.4470 Y16.4571
G01 X80.4492 Y16.4539
G01 X80.4499 Y16.4501
G00 X80.4499 Y16.4501
G01 F250.00
G01 Z-0.3000
G01 F1250.00
G01 X80.4492 Y16.4462
G01 X80.4470 Y16.4430
G01 X80.4438 Y16.4408
G01 X80.4399 Y16.4401
G01 X80.4361 Y16.4408
G01 X80.4329 Y16.4430
G01 X80.4307 Y16.4462
G01 X80.4299 Y16.4501
G01 X80.4307 Y16.4539
G01 X80.4329 Y16.4571
G01 X80.4361 Y16.4593
G01 X80.4399 Y16.4601
G01 X80.4438 Y16.4593
G01 X80.4470 Y16.4571
G01 X80.4492 Y16.4539
G01 X80.4499 Y16.4501
G00 X80.4499 Y16.4501
G01 F250.00
G01 Z-0.4000
G01 F1250.00
G01 X80.4492 Y16.4462
G01 X80.4470 Y16.4430
G01 X80.4438 Y16.4408
G01 X80.4399 Y16.4401
G01 X80.4361 Y16.4408
G01 X80.4329 Y16.4430
G01 X80.4307 Y16.4462
G01 X80.4299 Y16.4501
G01 X80.4307 Y16.4539
G01 X80.4329 Y16.4571
G01 X80.4361 Y16.4593
G01 X80.4399 Y16.4601
G01 X80.4438 Y16.4593
G01 X80.4470 Y16.4571
G01 X80.4492 Y16.4539
G01 X80.4499 Y16.4501
G00 X80.4499 Y16.4501
G01 F250.00
G01 Z-0.5000
G01 F1250.00
G01 X80.4492 Y16.4462
G01 X80.4470 Y16.4430
G01 X80.4438 Y16.4408
G01 X80.4399 Y16.4401
G01 X80.4361 Y16.4408
G01 X80.4329 Y16.4430
G01 X80.4307 Y16.4462
G01 X80.4299 Y16.4501
G01 X80.4307 Y16.4539
G01 X80.4329 Y16.4571
G01 X80.4361 Y16.4593
G01 X80.4399 Y16.4601
G01 X80.4438 Y16.4593
G01 X80.4470 Y16.4571
G01 X80.4492 Y16.4539
G01 X80.4499 Y16.4501
G00 X80.4499 Y16.4501
G01 F250.00
G01 Z-0.6000
G01 F1250.00
G01 X80.4492 Y16.4462
G01 X80.4470 Y16.4430
G01 X80.4438 Y16.4408
G01 X80.4399 Y16.4401
G01 X80.4361 Y16.4408
G01 X80.4329 Y16.4430
G01 X80.4307 Y16.4462
G01 X80.4299 Y16.4501
G01 X80.4307 Y16.4539
G01 X80.4329 Y16.4571
G01 X80.4361 Y16.4593
G01 X80.4399 Y16.4601
G01 X80.4438 Y16.4593
G01 X80.4470 Y16.4571
G01 X80.4492 Y16.4539
G01 X80.4499 Y16.4501
G00 X80.4499 Y16.4501
G01 F250.00
G01 Z-0.7000
G01 F1250.00
G01 X80.4492 Y16.4462
G01 X80.4470 Y16.4430
G01 X80.4438 Y16.4408
G01 X80.4399 Y16.4401
G01 X80.4361 Y16.4408
G01 X80.4329 Y16.4430
G01 X80.4307 Y16.4462
G01 X80.4299 Y16.4501
G01 X80.4307 Y16.4539
G01 X80.4329 Y16.4571
G01 X80.4361 Y16.4593
G01 X80.4399 Y16.4601
G01 X80.4438 Y16.4593
G01 X80.4470 Y16.4571
G01 X80.4492 Y16.4539
G01 X80.4499 Y16.4501
G00 X80.4499 Y16.4501
G01 F250.00
G01 Z-0.8000
G01 F1250.00
G01 X80.4492 Y16.4462
G01 X80.4470 Y16.4430
G01 X80.4438 Y16.4408
G01 X80.4399 Y16.4401
G01 X80.4361 Y16.4408
G01 X80.4329 Y16.4430
G01 X80.4307 Y16.4462
G01 X80.4299 Y16.4501
G01 X80.4307 Y16.4539
G01 X80.4329 Y16.4571
G01 X80.4361 Y16.4593
G01 X80.4399 Y16.4601
G01 X80.4438 Y16.4593
G01 X80.4470 Y16.4571
G01 X80.4492 Y16.4539
G01 X80.4499 Y16.4501
G00 X80.4499 Y16.4501
G01 F250.00
G01 Z-0.9000
G01 F1250.00
G01 X80.4492 Y16.4462
G01 X80.4470 Y16.4430
G01 X80.4438 Y16.4408
G01 X80.4399 Y16.4401
G01 X80.4361 Y16.4408
G01 X80.4329 Y16.4430
G01 X80.4307 Y16.4462
G01 X80.4299 Y16.4501
G01 X80.4307 Y16.4539
G01 X80.4329 Y16.4571
G01 X80.4361 Y16.4593
G01 X80.4399 Y16.4601
G01 X80.4438 Y16.4593
G01 X80.4470 Y16.4571
G01 X80.4492 Y16.4539
G01 X80.4499 Y16.4501
G00 X80.4499 Y16.4501
G01 F250.00
G01 Z-1.0000
G01 F1250.00
G01 X80.4492 Y16.4462
G01 X80.4470 Y16.4430
G01 X80.4438 Y16.4408
G01 X80.4399 Y16.4401
G01 X80.4361 Y16.4408
G01 X80.4329 Y16.4430
G01 X80.4307 Y16.4462
G01 X80.4299 Y16.4501
G01 X80.4307 Y16.4539
G01 X80.4329 Y16.4571
G01 X80.4361 Y16.4593
G01 X80.4399 Y16.4601
G01 X80.4438 Y16.4593
G01 X80.4470 Y16.4571
G01 X80.4492 Y16.4539
G01 X80.4499 Y16.4501
G00 X80.4499 Y16.4501
G01 F250.00
G01 Z-1.1000
G01 F1250.00
G01 X80.4492 Y16.4462
G01 X80.4470 Y16.4430
G01 X80.4438 Y16.4408
G01 X80.4399 Y16.4401
G01 X80.4361 Y16.4408
G01 X80.4329 Y16.4430
G01 X80.4307 Y16.4462
G01 X80.4299 Y16.4501
G01 X80.4307 Y16.4539
G01 X80.4329 Y16.4571
G01 X80.4361 Y16.4593
G01 X80.4399 Y16.4601
G01 X80.4438 Y16.4593
G01 X80.4470 Y16.4571
G01 X80.4492 Y16.4539
G01 X80.4499 Y16.4501
G00 X80.4499 Y16.4501
G01 F250.00
G01 Z-1.2000
G01 F1250.00
G01 X80.4492 Y16.4462
G01 X80.4470 Y16.4430
G01 X80.4438 Y16.4408
G01 X80.4399 Y16.4401
G01 X80.4361 Y16.4408
G01 X80.4329 Y16.4430
G01 X80.4307 Y16.4462
G01 X80.4299 Y16.4501
G01 X80.4307 Y16.4539
G01 X80.4329 Y16.4571
G01 X80.4361 Y16.4593
G01 X80.4399 Y16.4601
G01 X80.4438 Y16.4593
G01 X80.4470 Y16.4571
G01 X80.4492 Y16.4539
G01 X80.4499 Y16.4501
G00 X80.4499 Y16.4501
G01 F250.00
G01 Z-1.3000
G01 F1250.00
G01 X80.4492 Y16.4462
G01 X80.4470 Y16.4430
G01 X80.4438 Y16.4408
G01 X80.4399 Y16.4401
G01 X80.4361 Y16.4408
G01 X80.4329 Y16.4430
G01 X80.4307 Y16.4462
G01 X80.4299 Y16.4501
G01 X80.4307 Y16.4539
G01 X80.4329 Y16.4571
G01 X80.4361 Y16.4593
G01 X80.4399 Y16.4601
G01 X80.4438 Y16.4593
G01 X80.4470 Y16.4571
G01 X80.4492 Y16.4539
G01 X80.4499 Y16.4501
G00 X80.4499 Y16.4501
G01 F250.00
G01 Z-1.4000
G01 F1250.00
G01 X80.4492 Y16.4462
G01 X80.4470 Y16.4430
G01 X80.4438 Y16.4408
G01 X80.4399 Y16.4401
G01 X80.4361 Y16.4408
G01 X80.4329 Y16.4430
G01 X80.4307 Y16.4462
G01 X80.4299 Y16.4501
G01 X80.4307 Y16.4539
G01 X80.4329 Y16.4571
G01 X80.4361 Y16.4593
G01 X80.4399 Y16.4601
G01 X80.4438 Y16.4593
G01 X80.4470 Y16.4571
G01 X80.4492 Y16.4539
G01 X80.4499 Y16.4501
G00 X80.4499 Y16.4501
G01 F250.00
G01 Z-1.5000
G01 F1250.00
G01 X80.4492 Y16.4462
G01 X80.4470 Y16.4430
G01 X80.4438 Y16.4408
G01 X80.4399 Y16.4401
G01 X80.4361 Y16.4408
G01 X80.4329 Y16.4430
G01 X80.4307 Y16.4462
G01 X80.4299 Y16.4501
G01 X80.4307 Y16.4539
G01 X80.4329 Y16.4571
G01 X80.4361 Y16.4593
G01 X80.4399 Y16.4601
G01 X80.4438 Y16.4593
G01 X80.4470 Y16.4571
G01 X80.4492 Y16.4539
G01 X80.4499 Y16.4501
G00 X80.4499 Y16.4501
G01 F250.00
G01 Z-1.6000
G01 F1250.00
G01 X80.4492 Y16.4462
G01 X80.4470 Y16.4430
G01 X80.4438 Y16.4408
G01 X80.4399 Y16.4401
G01 X80.4361 Y16.4408
G01 X80.4329 Y16.4430
G01 X80.4307 Y16.4462
G01 X80.4299 Y16.4501
G01 X80.4307 Y16.4539
G01 X80.4329 Y16.4571
G01 X80.4361 Y16.4593
G01 X80.4399 Y16.4601
G01 X80.4438 Y16.4593
G01 X80.4470 Y16.4571
G01 X80.4492 Y16.4539
G01 X80.4499 Y16.4501
G00 X80.4499 Y16.4501
G01 F250.00
G01 Z-1.7000
G01 F1250.00
G01 X80.4492 Y16.4462
G01 X80.4470 Y16.4430
G01 X80.4438 Y16.4408
G01 X80.4399 Y16.4401
G01 X80.4361 Y16.4408
G01 X80.4329 Y16.4430
G01 X80.4307 Y16.4462
G01 X80.4299 Y16.4501
G01 X80.4307 Y16.4539
G01 X80.4329 Y16.4571
G01 X80.4361 Y16.4593
G01 X80.4399 Y16.4601
G01 X80.4438 Y16.4593
G01 X80.4470 Y16.4571
G01 X80.4492 Y16.4539
G01 X80.4499 Y16.4501
G00 Z0.5000
G00 X75.3699 Y16.4501
G01 F250.00
G01 Z-0.1000
G01 F1250.00
G01 X75.3692 Y16.4462
G01 X75.3670 Y16.4430
G01 X75.3638 Y16.4408
G01 X75.3599 Y16.4401
G01 X75.3561 Y16.4408
G01 X75.3529 Y16.4430
G01 X75.3507 Y16.4462
G01 X75.3499 Y16.4501
G01 X75.3507 Y16.4539
G01 X75.3529 Y16.4571
G01 X75.3561 Y16.4593
G01 X75.3599 Y16.4601
G01 X75.3638 Y16.4593
G01 X75.3670 Y16.4571
G01 X75.3692 Y16.4539
G01 X75.3699 Y16.4501
G00 X75.3699 Y16.4501
G01 F250.00
G01 Z-0.2000
G01 F1250.00
G01 X75.3692 Y16.4462
G01 X75.3670 Y16.4430
G01 X75.3638 Y16.4408
G01 X75.3599 Y16.4401
G01 X75.3561 Y16.4408
G01 X75.3529 Y16.4430
G01 X75.3507 Y16.4462
G01 X75.3499 Y16.4501
G01 X75.3507 Y16.4539
G01 X75.3529 Y16.4571
G01 X75.3561 Y16.4593
G01 X75.3599 Y16.4601
G01 X75.3638 Y16.4593
G01 X75.3670 Y16.4571
G01 X75.3692 Y16.4539
G01 X75.3699 Y16.4501
G00 X75.3699 Y16.4501
G01 F250.00
G01 Z-0.3000
G01 F1250.00
G01 X75.3692 Y16.4462
G01 X75.3670 Y16.4430
G01 X75.3638 Y16.4408
G01 X75.3599 Y16.4401
G01 X75.3561 Y16.4408
G01 X75.3529 Y16.4430
G01 X75.3507 Y16.4462
G01 X75.3499 Y16.4501
G01 X75.3507 Y16.4539
G01 X75.3529 Y16.4571
G01 X75.3561 Y16.4593
G01 X75.3599 Y16.4601
G01 X75.3638 Y16.4593
G01 X75.3670 Y16.4571
G01 X75.3692 Y16.4539
G01 X75.3699 Y16.4501
G00 X75.3699 Y16.4501
G01 F250.00
G01 Z-0.4000
G01 F1250.00
G01 X75.3692 Y16.4462
G01 X75.3670 Y16.4430
G01 X75.3638 Y16.4408
G01 X75.3599 Y16.4401
G01 X75.3561 Y16.4408
G01 X75.3529 Y16.4430
G01 X75.3507 Y16.4462
G01 X75.3499 Y16.4501
G01 X75.3507 Y16.4539
G01 X75.3529 Y16.4571
G01 X75.3561 Y16.4593
G01 X75.3599 Y16.4601
G01 X75.3638 Y16.4593
G01 X75.3670 Y16.4571
G01 X75.3692 Y16.4539
G01 X75.3699 Y16.4501
G00 X75.3699 Y16.4501
G01 F250.00
G01 Z-0.5000
G01 F1250.00
G01 X75.3692 Y16.4462
G01 X75.3670 Y16.4430
G01 X75.3638 Y16.4408
G01 X75.3599 Y16.4401
G01 X75.3561 Y16.4408
G01 X75.3529 Y16.4430
G01 X75.3507 Y16.4462
G01 X75.3499 Y16.4501
G01 X75.3507 Y16.4539
G01 X75.3529 Y16.4571
G01 X75.3561 Y16.4593
G01 X75.3599 Y16.4601
G01 X75.3638 Y16.4593
G01 X75.3670 Y16.4571
G01 X75.3692 Y16.4539
G01 X75.3699 Y16.4501
G00 X75.3699 Y16.4501
G01 F250.00
G01 Z-0.6000
G01 F1250.00
G01 X75.3692 Y16.4462
G01 X75.3670 Y16.4430
G01 X75.3638 Y16.4408
G01 X75.3599 Y16.4401
G01 X75.3561 Y16.4408
G01 X75.3529 Y16.4430
G01 X75.3507 Y16.4462
G01 X75.3499 Y16.4501
G01 X75.3507 Y16.4539
G01 X75.3529 Y16.4571
G01 X75.3561 Y16.4593
G01 X75.3599 Y16.4601
G01 X75.3638 Y16.4593
G01 X75.3670 Y16.4571
G01 X75.3692 Y16.4539
G01 X75.3699 Y16.4501
G00 X75.3699 Y16.4501
G01 F250.00
G01 Z-0.7000
G01 F1250.00
G01 X75.3692 Y16.4462
G01 X75.3670 Y16.4430
G01 X75.3638 Y16.4408
G01 X75.3599 Y16.4401
G01 X75.3561 Y16.4408
G01 X75.3529 Y16.4430
G01 X75.3507 Y16.4462
G01 X75.3499 Y16.4501
G01 X75.3507 Y16.4539
G01 X75.3529 Y16.4571
G01 X75.3561 Y16.4593
G01 X75.3599 Y16.4601
G01 X75.3638 Y16.4593
G01 X75.3670 Y16.4571
G01 X75.3692 Y16.4539
G01 X75.3699 Y16.4501
G00 X75.3699 Y16.4501
G01 F250.00
G01 Z-0.8000
