(G-CODE GENERATED BY FLATCAM v8.991 - www.flatcam.org - Version Date: 2019/12/30)

(Name: Cncjob_Board_Edge)
(Type: G-code from Geometry)
(Units: MM)

(Created on Monday, 08 December 2025 at 09:38)

(TOOL DIAMETER: 1.5 mm)
(Feedrate: 2500.0 mm/min)
(Feedrate_Z: 250.0 mm/min)
(Feedrate rapids 1500.0 mm/min)

(Z_Cut: -1.7 mm)
(Z_Move: 0.5 mm)
(Z Toolchange: 15.0 mm)
(X,Y Toolchange: 0.0000, 0.0000 mm)
(Z Start: 0.5 mm)
(Z End: 15.0 mm)
(Steps per circle: 64)
(Preprocessor Geometry: default)

(X range:    7.8499 ...  118.7500  mm)
(Y range:    1.2500 ...   90.1501  mm)

(Spindle Speed: None RPM)
G21
G90
G94




G01 F2500.00
G00 Z0.5000
G00 Z0.5000
M03
G4 P1.0
G00 X118.7500 Y89.3001
G01 F250.00
G01 Z-0.1000
G01 F2500.00
G01 X118.7500 Y2.1001
G01 X118.7498 Y2.0817
G01 X118.7486 Y2.0534
G01 X118.7459 Y2.0167
G01 X118.7439 Y1.9984
G01 X118.7400 Y1.9705
G01 X118.7370 Y1.9523
G01 X118.7299 Y1.9162
G01 X118.7185 Y1.8710
G01 X118.7078 Y1.8358
G01 X118.7018 Y1.8183
G01 X118.6921 Y1.7918
G01 X118.6853 Y1.7747
G01 X118.6780 Y1.7578
G01 X118.6662 Y1.7322
G01 X118.6581 Y1.7157
G01 X118.6408 Y1.6832
G01 X118.6168 Y1.6432
G01 X118.5963 Y1.6126
G01 X118.5855 Y1.5977
G01 X118.5686 Y1.5752
G01 X118.5571 Y1.5608
G01 X118.5330 Y1.5329
G01 X118.5139 Y1.5121
G01 X118.5010 Y1.4990
G01 X118.4879 Y1.4861
G01 X118.4671 Y1.4670
G01 X118.4392 Y1.4430
G01 X118.4249 Y1.4315
G01 X118.4023 Y1.4145
G01 X118.3722 Y1.3933
G01 X118.3411 Y1.3736
G01 X118.3168 Y1.3593
G01 X118.3007 Y1.3504
G01 X118.2678 Y1.3338
G01 X118.2422 Y1.3220
G01 X118.2081 Y1.3079
G01 X118.1817 Y1.2982
G01 X118.1467 Y1.2866
G01 X118.1112 Y1.2768
G01 X118.0838 Y1.2701
G01 X118.0477 Y1.2630
G01 X118.0198 Y1.2586
G01 X117.9833 Y1.2541
G01 X117.9466 Y1.2514
G01 X117.9183 Y1.2502
G01 X117.8999 Y1.2500
G01 X8.6999 Y1.2500
G01 X8.6816 Y1.2502
G01 X8.6533 Y1.2514
G01 X8.6166 Y1.2541
G01 X8.5983 Y1.2561
G01 X8.5704 Y1.2600
G01 X8.5522 Y1.2630
G01 X8.5161 Y1.2702
G01 X8.4709 Y1.2815
G01 X8.4356 Y1.2922
G01 X8.4182 Y1.2982
G01 X8.3917 Y1.3079
G01 X8.3746 Y1.3147
G01 X8.3577 Y1.3220
G01 X8.3321 Y1.3338
G01 X8.3156 Y1.3419
G01 X8.2831 Y1.3593
G01 X8.2431 Y1.3832
G01 X8.2125 Y1.4037
G01 X8.1976 Y1.4145
G01 X8.1750 Y1.4315
G01 X8.1607 Y1.4430
G01 X8.1466 Y1.4548
G01 X8.1255 Y1.4736
G01 X8.0989 Y1.4990
G01 X8.0860 Y1.5121
G01 X8.0669 Y1.5329
G01 X8.0429 Y1.5608
G01 X8.0314 Y1.5751
G01 X8.0144 Y1.5977
G01 X7.9931 Y1.6278
G01 X7.9831 Y1.6432
G01 X7.9684 Y1.6673
G01 X7.9503 Y1.6993
G01 X7.9337 Y1.7322
G01 X7.9219 Y1.7578
G01 X7.9078 Y1.7918
G01 X7.8980 Y1.8183
G01 X7.8865 Y1.8533
G01 X7.8767 Y1.8888
G01 X7.8701 Y1.9162
G01 X7.8629 Y1.9523
G01 X7.8585 Y1.9802
G01 X7.8540 Y2.0167
G01 X7.8513 Y2.0534
G01 X7.8501 Y2.0817
G01 X7.8499 Y2.1001
G01 X7.8499 Y89.3001
G01 X7.8501 Y89.3184
G01 X7.8513 Y89.3467
G01 X7.8540 Y89.3834
G01 X7.8560 Y89.4017
G01 X7.8599 Y89.4296
G01 X7.8629 Y89.4478
G01 X7.8700 Y89.4839
G01 X7.8814 Y89.5291
G01 X7.8921 Y89.5643
G01 X7.8980 Y89.5818
G01 X7.9078 Y89.6083
G01 X7.9146 Y89.6253
G01 X7.9219 Y89.6423
G01 X7.9337 Y89.6679
G01 X7.9418 Y89.6844
G01 X7.9592 Y89.7169
G01 X7.9831 Y89.7569
G01 X8.0036 Y89.7875
G01 X8.0144 Y89.8024
G01 X8.0314 Y89.8250
G01 X8.0429 Y89.8393
G01 X8.0547 Y89.8534
G01 X8.0735 Y89.8745
G01 X8.0989 Y89.9011
G01 X8.1120 Y89.9140
G01 X8.1328 Y89.9331
G01 X8.1466 Y89.9453
G01 X8.1751 Y89.9687
G01 X8.1976 Y89.9856
G01 X8.2277 Y90.0068
G01 X8.2588 Y90.0265
G01 X8.2831 Y90.0408
G01 X8.2992 Y90.0497
G01 X8.3321 Y90.0663
G01 X8.3577 Y90.0781
G01 X8.3917 Y90.0922
G01 X8.4182 Y90.1020
G01 X8.4532 Y90.1135
G01 X8.4887 Y90.1233
G01 X8.5161 Y90.1300
G01 X8.5522 Y90.1371
G01 X8.5801 Y90.1415
G01 X8.6166 Y90.1460
G01 X8.6350 Y90.1476
G01 X8.6631 Y90.1492
G01 X8.6999 Y90.1501
G01 X117.8999 Y90.1501
G01 X117.9368 Y90.1492
G01 X117.9649 Y90.1476
G01 X117.9833 Y90.1460
G01 X118.0198 Y90.1415
G01 X118.0477 Y90.1371
G01 X118.0658 Y90.1338
G01 X118.1017 Y90.1257
G01 X118.1290 Y90.1186
G01 X118.1467 Y90.1135
G01 X118.1817 Y90.1020
G01 X118.2082 Y90.0922
G01 X118.2253 Y90.0854
G01 X118.2422 Y90.0781
G01 X118.2678 Y90.0663
G01 X118.3007 Y90.0497
G01 X118.3168 Y90.0409
G01 X118.3411 Y90.0265
G01 X118.3722 Y90.0068
G01 X118.3874 Y89.9964
G01 X118.4102 Y89.9798
G01 X118.4392 Y89.9572
G01 X118.4671 Y89.9331
G01 X118.4879 Y89.9140
G01 X118.5010 Y89.9011
G01 X118.5264 Y89.8745
G01 X118.5452 Y89.8534
G01 X118.5570 Y89.8393
G01 X118.5797 Y89.8103
G01 X118.5963 Y89.7875
G01 X118.6067 Y89.7723
G01 X118.6168 Y89.7569
G01 X118.6315 Y89.7328
G01 X118.6496 Y89.7008
G01 X118.6662 Y89.6679
G01 X118.6780 Y89.6423
G01 X118.6853 Y89.6254
G01 X118.6985 Y89.5910
G01 X118.7078 Y89.5644
G01 X118.7134 Y89.5468
G01 X118.7232 Y89.5113
G01 X118.7299 Y89.4839
G01 X118.7337 Y89.4659
G01 X118.7370 Y89.4478
G01 X118.7414 Y89.4199
G01 X118.7459 Y89.3834
G01 X118.7475 Y89.3650
G01 X118.7491 Y89.3369
G01 X118.7500 Y89.3001
G00 X118.7500 Y89.3001
G01 F250.00
G01 Z-0.2000
G01 F2500.00
G01 X118.7500 Y2.1001
G01 X118.7498 Y2.0817
G01 X118.7486 Y2.0534
G01 X118.7459 Y2.0167
G01 X118.7439 Y1.9984
G01 X118.7400 Y1.9705
G01 X118.7370 Y1.9523
G01 X118.7299 Y1.9162
G01 X118.7185 Y1.8710
G01 X118.7078 Y1.8358
G01 X118.7018 Y1.8183
G01 X118.6921 Y1.7918
G01 X118.6853 Y1.7747
G01 X118.6780 Y1.7578
G01 X118.6662 Y1.7322
G01 X118.6581 Y1.7157
G01 X118.6408 Y1.6832
G01 X118.6168 Y1.6432
G01 X118.5963 Y1.6126
G01 X118.5855 Y1.5977
G01 X118.5686 Y1.5752
G01 X118.5571 Y1.5608
G01 X118.5330 Y1.5329
G01 X118.5139 Y1.5121
G01 X118.5010 Y1.4990
G01 X118.4879 Y1.4861
G01 X118.4671 Y1.4670
G01 X118.4392 Y1.4430
G01 X118.4249 Y1.4315
G01 X118.4023 Y1.4145
G01 X118.3722 Y1.3933
G01 X118.3411 Y1.3736
G01 X118.3168 Y1.3593
G01 X118.3007 Y1.3504
G01 X118.2678 Y1.3338
G01 X118.2422 Y1.3220
G01 X118.2081 Y1.3079
G01 X118.1817 Y1.2982
G01 X118.1467 Y1.2866
G01 X118.1112 Y1.2768
G01 X118.0838 Y1.2701
G01 X118.0477 Y1.2630
G01 X118.0198 Y1.2586
G01 X117.9833 Y1.2541
G01 X117.9466 Y1.2514
G01 X117.9183 Y1.2502
G01 X117.8999 Y1.2500
G01 X8.6999 Y1.2500
G01 X8.6816 Y1.2502
G01 X8.6533 Y1.2514
G01 X8.6166 Y1.2541
G01 X8.5983 Y1.2561
G01 X8.5704 Y1.2600
G01 X8.5522 Y1.2630
G01 X8.5161 Y1.2702
G01 X8.4709 Y1.2815
G01 X8.4356 Y1.2922
G01 X8.4182 Y1.2982
G01 X8.3917 Y1.3079
G01 X8.3746 Y1.3147
G01 X8.3577 Y1.3220
G01 X8.3321 Y1.3338
G01 X8.3156 Y1.3419
G01 X8.2831 Y1.3593
G01 X8.2431 Y1.3832
G01 X8.2125 Y1.4037
G01 X8.1976 Y1.4145
G01 X8.1750 Y1.4315
G01 X8.1607 Y1.4430
G01 X8.1466 Y1.4548
G01 X8.1255 Y1.4736
G01 X8.0989 Y1.4990
G01 X8.0860 Y1.5121
G01 X8.0669 Y1.5329
G01 X8.0429 Y1.5608
G01 X8.0314 Y1.5751
G01 X8.0144 Y1.5977
G01 X7.9931 Y1.6278
G01 X7.9831 Y1.6432
G01 X7.9684 Y1.6673
G01 X7.9503 Y1.6993
G01 X7.9337 Y1.7322
G01 X7.9219 Y1.7578
G01 X7.9078 Y1.7918
G01 X7.8980 Y1.8183
G01 X7.8865 Y1.8533
G01 X7.8767 Y1.8888
G01 X7.8701 Y1.9162
G01 X7.8629 Y1.9523
G01 X7.8585 Y1.9802
G01 X7.8540 Y2.0167
G01 X7.8513 Y2.0534
G01 X7.8501 Y2.0817
G01 X7.8499 Y2.1001
G01 X7.8499 Y89.3001
G01 X7.8501 Y89.3184
G01 X7.8513 Y89.3467
G01 X7.8540 Y89.3834
G01 X7.8560 Y89.4017
G01 X7.8599 Y89.4296
G01 X7.8629 Y89.4478
G01 X7.8700 Y89.4839
G01 X7.8814 Y89.5291
G01 X7.8921 Y89.5643
G01 X7.8980 Y89.5818
G01 X7.9078 Y89.6083
G01 X7.9146 Y89.6253
G01 X7.9219 Y89.6423
G01 X7.9337 Y89.6679
G01 X7.9418 Y89.6844
G01 X7.9592 Y89.7169
G01 X7.9831 Y89.7569
G01 X8.0036 Y89.7875
G01 X8.0144 Y89.8024
G01 X8.0314 Y89.8250
G01 X8.0429 Y89.8393
G01 X8.0547 Y89.8534
G01 X8.0735 Y89.8745
G01 X8.0989 Y89.9011
G01 X8.1120 Y89.9140
G01 X8.1328 Y89.9331
G01 X8.1466 Y89.9453
G01 X8.1751 Y89.9687
G01 X8.1976 Y89.9856
G01 X8.2277 Y90.0068
G01 X8.2588 Y90.0265
G01 X8.2831 Y90.0408
G01 X8.2992 Y90.0497
G01 X8.3321 Y90.0663
G01 X8.3577 Y90.0781
G01 X8.3917 Y90.0922
G01 X8.4182 Y90.1020
G01 X8.4532 Y90.1135
G01 X8.4887 Y90.1233
G01 X8.5161 Y90.1300
G01 X8.5522 Y90.1371
G01 X8.5801 Y90.1415
G01 X8.6166 Y90.1460
G01 X8.6350 Y90.1476
G01 X8.6631 Y90.1492
G01 X8.6999 Y90.1501
G01 X117.8999 Y90.1501
G01 X117.9368 Y90.1492
G01 X117.9649 Y90.1476
G01 X117.9833 Y90.1460
G01 X118.0198 Y90.1415
G01 X118.0477 Y90.1371
G01 X118.0658 Y90.1338
G01 X118.1017 Y90.1257
G01 X118.1290 Y90.1186
G01 X118.1467 Y90.1135
G01 X118.1817 Y90.1020
G01 X118.2082 Y90.0922
G01 X118.2253 Y90.0854
G01 X118.2422 Y90.0781
G01 X118.2678 Y90.0663
G01 X118.3007 Y90.0497
G01 X118.3168 Y90.0409
G01 X118.3411 Y90.0265
G01 X118.3722 Y90.0068
G01 X118.3874 Y89.9964
G01 X118.4102 Y89.9798
G01 X118.4392 Y89.9572
G01 X118.4671 Y89.9331
G01 X118.4879 Y89.9140
G01 X118.5010 Y89.9011
G01 X118.5264 Y89.8745
G01 X118.5452 Y89.8534
G01 X118.5570 Y89.8393
G01 X118.5797 Y89.8103
G01 X118.5963 Y89.7875
G01 X118.6067 Y89.7723
G01 X118.6168 Y89.7569
G01 X118.6315 Y89.7328
G01 X118.6496 Y89.7008
G01 X118.6662 Y89.6679
G01 X118.6780 Y89.6423
G01 X118.6853 Y89.6254
G01 X118.6985 Y89.5910
G01 X118.7078 Y89.5644
G01 X118.7134 Y89.5468
G01 X118.7232 Y89.5113
G01 X118.7299 Y89.4839
G01 X118.7337 Y89.4659
G01 X118.7370 Y89.4478
G01 X118.7414 Y89.4199
G01 X118.7459 Y89.3834
G01 X118.7475 Y89.3650
G01 X118.7491 Y89.3369
G01 X118.7500 Y89.3001
G00 X118.7500 Y89.3001
G01 F250.00
G01 Z-0.3000
G01 F2500.00
G01 X118.7500 Y2.1001
G01 X118.7498 Y2.0817
G01 X118.7486 Y2.0534
G01 X118.7459 Y2.0167
G01 X118.7439 Y1.9984
G01 X118.7400 Y1.9705
G01 X118.7370 Y1.9523
G01 X118.7299 Y1.9162
G01 X118.7185 Y1.8710
G01 X118.7078 Y1.8358
G01 X118.7018 Y1.8183
G01 X118.6921 Y1.7918
G01 X118.6853 Y1.7747
G01 X118.6780 Y1.7578
G01 X118.6662 Y1.7322
G01 X118.6581 Y1.7157
G01 X118.6408 Y1.6832
G01 X118.6168 Y1.6432
G01 X118.5963 Y1.6126
G01 X118.5855 Y1.5977
G01 X118.5686 Y1.5752
G01 X118.5571 Y1.5608
G01 X118.5330 Y1.5329
G01 X118.5139 Y1.5121
G01 X118.5010 Y1.4990
G01 X118.4879 Y1.4861
G01 X118.4671 Y1.4670
G01 X118.4392 Y1.4430
G01 X118.4249 Y1.4315
G01 X118.4023 Y1.4145
G01 X118.3722 Y1.3933
G01 X118.3411 Y1.3736
G01 X118.3168 Y1.3593
G01 X118.3007 Y1.3504
G01 X118.2678 Y1.3338
G01 X118.2422 Y1.3220
G01 X118.2081 Y1.3079
G01 X118.1817 Y1.2982
G01 X118.1467 Y1.2866
G01 X118.1112 Y1.2768
G01 X118.0838 Y1.2701
G01 X118.0477 Y1.2630
G01 X118.0198 Y1.2586
G01 X117.9833 Y1.2541
G01 X117.9466 Y1.2514
G01 X117.9183 Y1.2502
G01 X117.8999 Y1.2500
G01 X8.6999 Y1.2500
G01 X8.6816 Y1.2502
G01 X8.6533 Y1.2514
G01 X8.6166 Y1.2541
G01 X8.5983 Y1.2561
G01 X8.5704 Y1.2600
G01 X8.5522 Y1.2630
G01 X8.5161 Y1.2702
G01 X8.4709 Y1.2815
G01 X8.4356 Y1.2922
G01 X8.4182 Y1.2982
G01 X8.3917 Y1.3079
G01 X8.3746 Y1.3147
G01 X8.3577 Y1.3220
G01 X8.3321 Y1.3338
G01 X8.3156 Y1.3419
G01 X8.2831 Y1.3593
G01 X8.2431 Y1.3832
G01 X8.2125 Y1.4037
G01 X8.1976 Y1.4145
G01 X8.1750 Y1.4315
G01 X8.1607 Y1.4430
G01 X8.1466 Y1.4548
G01 X8.1255 Y1.4736
G01 X8.0989 Y1.4990
G01 X8.0860 Y1.5121
G01 X8.0669 Y1.5329
G01 X8.0429 Y1.5608
G01 X8.0314 Y1.5751
G01 X8.0144 Y1.5977
G01 X7.9931 Y1.6278
G01 X7.9831 Y1.6432
G01 X7.9684 Y1.6673
G01 X7.9503 Y1.6993
G01 X7.9337 Y1.7322
G01 X7.9219 Y1.7578
G01 X7.9078 Y1.7918
G01 X7.8980 Y1.8183
G01 X7.8865 Y1.8533
G01 X7.8767 Y1.8888
G01 X7.8701 Y1.9162
G01 X7.8629 Y1.9523
G01 X7.8585 Y1.9802
G01 X7.8540 Y2.0167
G01 X7.8513 Y2.0534
G01 X7.8501 Y2.0817
G01 X7.8499 Y2.1001
G01 X7.8499 Y89.3001
G01 X7.8501 Y89.3184
G01 X7.8513 Y89.3467
G01 X7.8540 Y89.3834
G01 X7.8560 Y89.4017
G01 X7.8599 Y89.4296
G01 X7.8629 Y89.4478
G01 X7.8700 Y89.4839
G01 X7.8814 Y89.5291
G01 X7.8921 Y89.5643
G01 X7.8980 Y89.5818
G01 X7.9078 Y89.6083
G01 X7.9146 Y89.6253
G01 X7.9219 Y89.6423
G01 X7.9337 Y89.6679
G01 X7.9418 Y89.6844
G01 X7.9592 Y89.7169
G01 X7.9831 Y89.7569
G01 X8.0036 Y89.7875
G01 X8.0144 Y89.8024
G01 X8.0314 Y89.8250
G01 X8.0429 Y89.8393
G01 X8.0547 Y89.8534
G01 X8.0735 Y89.8745
G01 X8.0989 Y89.9011
G01 X8.1120 Y89.9140
G01 X8.1328 Y89.9331
G01 X8.1466 Y89.9453
G01 X8.1751 Y89.9687
G01 X8.1976 Y89.9856
G01 X8.2277 Y90.0068
G01 X8.2588 Y90.0265
G01 X8.2831 Y90.0408
G01 X8.2992 Y90.0497
G01 X8.3321 Y90.0663
G01 X8.3577 Y90.0781
G01 X8.3917 Y90.0922
G01 X8.4182 Y90.1020
G01 X8.4532 Y90.1135
G01 X8.4887 Y90.1233
G01 X8.5161 Y90.1300
G01 X8.5522 Y90.1371
G01 X8.5801 Y90.1415
G01 X8.6166 Y90.1460
G01 X8.6350 Y90.1476
G01 X8.6631 Y90.1492
G01 X8.6999 Y90.1501
G01 X117.8999 Y90.1501
G01 X117.9368 Y90.1492
G01 X117.9649 Y90.1476
G01 X117.9833 Y90.1460
G01 X118.0198 Y90.1415
G01 X118.0477 Y90.1371
G01 X118.0658 Y90.1338
G01 X118.1017 Y90.1257
G01 X118.1290 Y90.1186
G01 X118.1467 Y90.1135
G01 X118.1817 Y90.1020
G01 X118.2082 Y90.0922
G01 X118.2253 Y90.0854
G01 X118.2422 Y90.0781
G01 X118.2678 Y90.0663
G01 X118.3007 Y90.0497
G01 X118.3168 Y90.0409
G01 X118.3411 Y90.0265
G01 X118.3722 Y90.0068
G01 X118.3874 Y89.9964
G01 X118.4102 Y89.9798
G01 X118.4392 Y89.9572
G01 X118.4671 Y89.9331
G01 X118.4879 Y89.9140
G01 X118.5010 Y89.9011
G01 X118.5264 Y89.8745
G01 X118.5452 Y89.8534
G01 X118.5570 Y89.8393
G01 X118.5797 Y89.8103
G01 X118.5963 Y89.7875
G01 X118.6067 Y89.7723
G01 X118.6168 Y89.7569
G01 X118.6315 Y89.7328
G01 X118.6496 Y89.7008
G01 X118.6662 Y89.6679
G01 X118.6780 Y89.6423
G01 X118.6853 Y89.6254
G01 X118.6985 Y89.5910
G01 X118.7078 Y89.5644
G01 X118.7134 Y89.5468
G01 X118.7232 Y89.5113
G01 X118.7299 Y89.4839
G01 X118.7337 Y89.4659
G01 X118.7370 Y89.4478
G01 X118.7414 Y89.4199
G01 X118.7459 Y89.3834
G01 X118.7475 Y89.3650
G01 X118.7491 Y89.3369
G01 X118.7500 Y89.3001
G00 X118.7500 Y89.3001
G01 F250.00
G01 Z-0.4000
G01 F2500.00
G01 X118.7500 Y2.1001
G01 X118.7498 Y2.0817
G01 X118.7486 Y2.0534
G01 X118.7459 Y2.0167
G01 X118.7439 Y1.9984
G01 X118.7400 Y1.9705
G01 X118.7370 Y1.9523
G01 X118.7299 Y1.9162
G01 X118.7185 Y1.8710
G01 X118.7078 Y1.8358
G01 X118.7018 Y1.8183
G01 X118.6921 Y1.7918
G01 X118.6853 Y1.7747
G01 X118.6780 Y1.7578
G01 X118.6662 Y1.7322
G01 X118.6581 Y1.7157
G01 X118.6408 Y1.6832
G01 X118.6168 Y1.6432
G01 X118.5963 Y1.6126
G01 X118.5855 Y1.5977
G01 X118.5686 Y1.5752
G01 X118.5571 Y1.5608
G01 X118.5330 Y1.5329
G01 X118.5139 Y1.5121
G01 X118.5010 Y1.4990
G01 X118.4879 Y1.4861
G01 X118.4671 Y1.4670
G01 X118.4392 Y1.4430
G01 X118.4249 Y1.4315
G01 X118.4023 Y1.4145
G01 X118.3722 Y1.3933
G01 X118.3411 Y1.3736
G01 X118.3168 Y1.3593
G01 X118.3007 Y1.3504
G01 X118.2678 Y1.3338
G01 X118.2422 Y1.3220
G01 X118.2081 Y1.3079
G01 X118.1817 Y1.2982
G01 X118.1467 Y1.2866
G01 X118.1112 Y1.2768
G01 X118.0838 Y1.2701
G01 X118.0477 Y1.2630
G01 X118.0198 Y1.2586
G01 X117.9833 Y1.2541
G01 X117.9466 Y1.2514
G01 X117.9183 Y1.2502
G01 X117.8999 Y1.2500
G01 X8.6999 Y1.2500
G01 X8.6816 Y1.2502
G01 X8.6533 Y1.2514
G01 X8.6166 Y1.2541
G01 X8.5983 Y1.2561
G01 X8.5704 Y1.2600
G01 X8.5522 Y1.2630
G01 X8.5161 Y1.2702
G01 X8.4709 Y1.2815
G01 X8.4356 Y1.2922
G01 X8.4182 Y1.2982
G01 X8.3917 Y1.3079
G01 X8.3746 Y1.3147
G01 X8.3577 Y1.3220
G01 X8.3321 Y1.3338
G01 X8.3156 Y1.3419
G01 X8.2831 Y1.3593
G01 X8.2431 Y1.3832
G01 X8.2125 Y1.4037
G01 X8.1976 Y1.4145
G01 X8.1750 Y1.4315
G01 X8.1607 Y1.4430
G01 X8.1466 Y1.4548
G01 X8.1255 Y1.4736
G01 X8.0989 Y1.4990
G01 X8.0860 Y1.5121
G01 X8.0669 Y1.5329
G01 X8.0429 Y1.5608
G01 X8.0314 Y1.5751
G01 X8.0144 Y1.5977
G01 X7.9931 Y1.6278
G01 X7.9831 Y1.6432
G01 X7.9684 Y1.6673
G01 X7.9503 Y1.6993
G01 X7.9337 Y1.7322
G01 X7.9219 Y1.7578
G01 X7.9078 Y1.7918
G01 X7.8980 Y1.8183
G01 X7.8865 Y1.8533
G01 X7.8767 Y1.8888
G01 X7.8701 Y1.9162
G01 X7.8629 Y1.9523
G01 X7.8585 Y1.9802
G01 X7.8540 Y2.0167
G01 X7.8513 Y2.0534
G01 X7.8501 Y2.0817
G01 X7.8499 Y2.1001
G01 X7.8499 Y89.3001
G01 X7.8501 Y89.3184
G01 X7.8513 Y89.3467
G01 X7.8540 Y89.3834
G01 X7.8560 Y89.4017
G01 X7.8599 Y89.4296
G01 X7.8629 Y89.4478
G01 X7.8700 Y89.4839
G01 X7.8814 Y89.5291
G01 X7.8921 Y89.5643
G01 X7.8980 Y89.5818
G01 X7.9078 Y89.6083
G01 X7.9146 Y89.6253
G01 X7.9219 Y89.6423
G01 X7.9337 Y89.6679
G01 X7.9418 Y89.6844
G01 X7.9592 Y89.7169
G01 X7.9831 Y89.7569
G01 X8.0036 Y89.7875
G01 X8.0144 Y89.8024
G01 X8.0314 Y89.8250
G01 X8.0429 Y89.8393
G01 X8.0547 Y89.8534
G01 X8.0735 Y89.8745
G01 X8.0989 Y89.9011
G01 X8.1120 Y89.9140
G01 X8.1328 Y89.9331
G01 X8.1466 Y89.9453
G01 X8.1751 Y89.9687
G01 X8.1976 Y89.9856
G01 X8.2277 Y90.0068
G01 X8.2588 Y90.0265
G01 X8.2831 Y90.0408
G01 X8.2992 Y90.0497
G01 X8.3321 Y90.0663
G01 X8.3577 Y90.0781
G01 X8.3917 Y90.0922
G01 X8.4182 Y90.1020
G01 X8.4532 Y90.1135
G01 X8.4887 Y90.1233
G01 X8.5161 Y90.1300
G01 X8.5522 Y90.1371
G01 X8.5801 Y90.1415
G01 X8.6166 Y90.1460
G01 X8.6350 Y90.1476
G01 X8.6631 Y90.1492
G01 X8.6999 Y90.1501
G01 X117.8999 Y90.1501
G01 X117.9368 Y90.1492
G01 X117.9649 Y90.1476
G01 X117.9833 Y90.1460
G01 X118.0198 Y90.1415
G01 X118.0477 Y90.1371
G01 X118.0658 Y90.1338
G01 X118.1017 Y90.1257
G01 X118.1290 Y90.1186
G01 X118.1467 Y90.1135
G01 X118.1817 Y90.1020
G01 X118.2082 Y90.0922
G01 X118.2253 Y90.0854
G01 X118.2422 Y90.0781
G01 X118.2678 Y90.0663
G01 X118.3007 Y90.0497
G01 X118.3168 Y90.0409
G01 X118.3411 Y90.0265
G01 X118.3722 Y90.0068
G01 X118.3874 Y89.9964
G01 X118.4102 Y89.9798
G01 X118.4392 Y89.9572
G01 X118.4671 Y89.9331
G01 X118.4879 Y89.9140
G01 X118.5010 Y89.9011
G01 X118.5264 Y89.8745
G01 X118.5452 Y89.8534
G01 X118.5570 Y89.8393
G01 X118.5797 Y89.8103
G01 X118.5963 Y89.7875
G01 X118.6067 Y89.7723
G01 X118.6168 Y89.7569
G01 X118.6315 Y89.7328
G01 X118.6496 Y89.7008
G01 X118.6662 Y89.6679
G01 X118.6780 Y89.6423
G01 X118.6853 Y89.6254
G01 X118.6985 Y89.5910
G01 X118.7078 Y89.5644
G01 X118.7134 Y89.5468
G01 X118.7232 Y89.5113
G01 X118.7299 Y89.4839
G01 X118.7337 Y89.4659
G01 X118.7370 Y89.4478
G01 X118.7414 Y89.4199
G01 X118.7459 Y89.3834
G01 X118.7475 Y89.3650
G01 X118.7491 Y89.3369
G01 X118.7500 Y89.3001
G00 X118.7500 Y89.3001
G01 F250.00
G01 Z-0.5000
G01 F2500.00
G01 X118.7500 Y2.1001
G01 X118.7498 Y2.0817
G01 X118.7486 Y2.0534
G01 X118.7459 Y2.0167
G01 X118.7439 Y1.9984
G01 X118.7400 Y1.9705
G01 X118.7370 Y1.9523
G01 X118.7299 Y1.9162
G01 X118.7185 Y1.8710
G01 X118.7078 Y1.8358
G01 X118.7018 Y1.8183
G01 X118.6921 Y1.7918
G01 X118.6853 Y1.7747
G01 X118.6780 Y1.7578
G01 X118.6662 Y1.7322
G01 X118.6581 Y1.7157
G01 X118.6408 Y1.6832
G01 X118.6168 Y1.6432
G01 X118.5963 Y1.6126
G01 X118.5855 Y1.5977
G01 X118.5686 Y1.5752
G01 X118.5571 Y1.5608
G01 X118.5330 Y1.5329
G01 X118.5139 Y1.5121
G01 X118.5010 Y1.4990
G01 X118.4879 Y1.4861
G01 X118.4671 Y1.4670
G01 X118.4392 Y1.4430
G01 X118.4249 Y1.4315
G01 X118.4023 Y1.4145
G01 X118.3722 Y1.3933
G01 X118.3411 Y1.3736
G01 X118.3168 Y1.3593
G01 X118.3007 Y1.3504
G01 X118.2678 Y1.3338
G01 X118.2422 Y1.3220
G01 X118.2081 Y1.3079
G01 X118.1817 Y1.2982
G01 X118.1467 Y1.2866
G01 X118.1112 Y1.2768
G01 X118.0838 Y1.2701
G01 X118.0477 Y1.2630
G01 X118.0198 Y1.2586
G01 X117.9833 Y1.2541
G01 X117.9466 Y1.2514
G01 X117.9183 Y1.2502
G01 X117.8999 Y1.2500
G01 X8.6999 Y1.2500
G01 X8.6816 Y1.2502
G01 X8.6533 Y1.2514
G01 X8.6166 Y1.2541
G01 X8.5983 Y1.2561
G01 X8.5704 Y1.2600
G01 X8.5522 Y1.2630
G01 X8.5161 Y1.2702
G01 X8.4709 Y1.2815
G01 X8.4356 Y1.2922
G01 X8.4182 Y1.2982
G01 X8.3917 Y1.3079
G01 X8.3746 Y1.3147
G01 X8.3577 Y1.3220
G01 X8.3321 Y1.3338
G01 X8.3156 Y1.3419
G01 X8.2831 Y1.3593
G01 X8.2431 Y1.3832
G01 X8.2125 Y1.4037
G01 X8.1976 Y1.4145
G01 X8.1750 Y1.4315
G01 X8.1607 Y1.4430
G01 X8.1466 Y1.4548
G01 X8.1255 Y1.4736
G01 X8.0989 Y1.4990
G01 X8.0860 Y1.5121
G01 X8.0669 Y1.5329
G01 X8.0429 Y1.5608
G01 X8.0314 Y1.5751
G01 X8.0144 Y1.5977
G01 X7.9931 Y1.6278
G01 X7.9831 Y1.6432
G01 X7.9684 Y1.6673
G01 X7.9503 Y1.6993
G01 X7.9337 Y1.7322
G01 X7.9219 Y1.7578
G01 X7.9078 Y1.7918
G01 X7.8980 Y1.8183
G01 X7.8865 Y1.8533
G01 X7.8767 Y1.8888
G01 X7.8701 Y1.9162
G01 X7.8629 Y1.9523
G01 X7.8585 Y1.9802
G01 X7.8540 Y2.0167
G01 X7.8513 Y2.0534
G01 X7.8501 Y2.0817
G01 X7.8499 Y2.1001
G01 X7.8499 Y89.3001
G01 X7.8501 Y89.3184
G01 X7.8513 Y89.3467
G01 X7.8540 Y89.3834
G01 X7.8560 Y89.4017
G01 X7.8599 Y89.4296
G01 X7.8629 Y89.4478
G01 X7.8700 Y89.4839
G01 X7.8814 Y89.5291
G01 X7.8921 Y89.5643
G01 X7.8980 Y89.5818
G01 X7.9078 Y89.6083
G01 X7.9146 Y89.6253
G01 X7.9219 Y89.6423
G01 X7.9337 Y89.6679
G01 X7.9418 Y89.6844
G01 X7.9592 Y89.7169
G01 X7.9831 Y89.7569
G01 X8.0036 Y89.7875
G01 X8.0144 Y89.8024
G01 X8.0314 Y89.8250
G01 X8.0429 Y89.8393
G01 X8.0547 Y89.8534
G01 X8.0735 Y89.8745
G01 X8.0989 Y89.9011
G01 X8.1120 Y89.9140
G01 X8.1328 Y89.9331
G01 X8.1466 Y89.9453
G01 X8.1751 Y89.9687
G01 X8.1976 Y89.9856
G01 X8.2277 Y90.0068
G01 X8.2588 Y90.0265
G01 X8.2831 Y90.0408
G01 X8.2992 Y90.0497
G01 X8.3321 Y90.0663
G01 X8.3577 Y90.0781
G01 X8.3917 Y90.0922
G01 X8.4182 Y90.1020
G01 X8.4532 Y90.1135
G01 X8.4887 Y90.1233
G01 X8.5161 Y90.1300
G01 X8.5522 Y90.1371
G01 X8.5801 Y90.1415
G01 X8.6166 Y90.1460
G01 X8.6350 Y90.1476
G01 X8.6631 Y90.1492
G01 X8.6999 Y90.1501
G01 X117.8999 Y90.1501
G01 X117.9368 Y90.1492
G01 X117.9649 Y90.1476
G01 X117.9833 Y90.1460
G01 X118.0198 Y90.1415
G01 X118.0477 Y90.1371
G01 X118.0658 Y90.1338
G01 X118.1017 Y90.1257
G01 X118.1290 Y90.1186
G01 X118.1467 Y90.1135
G01 X118.1817 Y90.1020
G01 X118.2082 Y90.0922
G01 X118.2253 Y90.0854
G01 X118.2422 Y90.0781
G01 X118.2678 Y90.0663
G01 X118.3007 Y90.0497
G01 X118.3168 Y90.0409
G01 X118.3411 Y90.0265
G01 X118.3722 Y90.0068
G01 X118.3874 Y89.9964
G01 X118.4102 Y89.9798
G01 X118.4392 Y89.9572
G01 X118.4671 Y89.9331
G01 X118.4879 Y89.9140
G01 X118.5010 Y89.9011
G01 X118.5264 Y89.8745
G01 X118.5452 Y89.8534
G01 X118.5570 Y89.8393
G01 X118.5797 Y89.8103
G01 X118.5963 Y89.7875
G01 X118.6067 Y89.7723
G01 X118.6168 Y89.7569
G01 X118.6315 Y89.7328
G01 X118.6496 Y89.7008
G01 X118.6662 Y89.6679
G01 X118.6780 Y89.6423
G01 X118.6853 Y89.6254
G01 X118.6985 Y89.5910
G01 X118.7078 Y89.5644
G01 X118.7134 Y89.5468
G01 X118.7232 Y89.5113
G01 X118.7299 Y89.4839
G01 X118.7337 Y89.4659
G01 X118.7370 Y89.4478
G01 X118.7414 Y89.4199
G01 X118.7459 Y89.3834
G01 X118.7475 Y89.3650
G01 X118.7491 Y89.3369
G01 X118.7500 Y89.3001
G00 X118.7500 Y89.3001
G01 F250.00
G01 Z-0.6000
G01 F2500.00
G01 X118.7500 Y2.1001
G01 X118.7498 Y2.0817
G01 X118.7486 Y2.0534
G01 X118.7459 Y2.0167
G01 X118.7439 Y1.9984
G01 X118.7400 Y1.9705
G01 X118.7370 Y1.9523
G01 X118.7299 Y1.9162
G01 X118.7185 Y1.8710
G01 X118.7078 Y1.8358
G01 X118.7018 Y1.8183
G01 X118.6921 Y1.7918
G01 X118.6853 Y1.7747
G01 X118.6780 Y1.7578
G01 X118.6662 Y1.7322
G01 X118.6581 Y1.7157
G01 X118.6408 Y1.6832
G01 X118.6168 Y1.6432
G01 X118.5963 Y1.6126
G01 X118.5855 Y1.5977
G01 X118.5686 Y1.5752
G01 X118.5571 Y1.5608
G01 X118.5330 Y1.5329
G01 X118.5139 Y1.5121
G01 X118.5010 Y1.4990
G01 X118.4879 Y1.4861
G01 X118.4671 Y1.4670
G01 X118.4392 Y1.4430
G01 X118.4249 Y1.4315
G01 X118.4023 Y1.4145
G01 X118.3722 Y1.3933
G01 X118.3411 Y1.3736
G01 X118.3168 Y1.3593
G01 X118.3007 Y1.3504
G01 X118.2678 Y1.3338
G01 X118.2422 Y1.3220
G01 X118.2081 Y1.3079
G01 X118.1817 Y1.2982
G01 X118.1467 Y1.2866
G01 X118.1112 Y1.2768
G01 X118.0838 Y1.2701
G01 X118.0477 Y1.2630
G01 X118.0198 Y1.2586
G01 X117.9833 Y1.2541
G01 X117.9466 Y1.2514
G01 X117.9183 Y1.2502
G01 X117.8999 Y1.2500
G01 X8.6999 Y1.2500
G01 X8.6816 Y1.2502
G01 X8.6533 Y1.2514
G01 X8.6166 Y1.2541
G01 X8.5983 Y1.2561
G01 X8.5704 Y1.2600
G01 X8.5522 Y1.2630
G01 X8.5161 Y1.2702
G01 X8.4709 Y1.2815
G01 X8.4356 Y1.2922
G01 X8.4182 Y1.2982
G01 X8.3917 Y1.3079
G01 X8.3746 Y1.3147
G01 X8.3577 Y1.3220
G01 X8.3321 Y1.3338
G01 X8.3156 Y1.3419
G01 X8.2831 Y1.3593
G01 X8.2431 Y1.3832
G01 X8.2125 Y1.4037
G01 X8.1976 Y1.4145
G01 X8.1750 Y1.4315
G01 X8.1607 Y1.4430
G01 X8.1466 Y1.4548
G01 X8.1255 Y1.4736
G01 X8.0989 Y1.4990
G01 X8.0860 Y1.5121
G01 X8.0669 Y1.5329
G01 X8.0429 Y1.5608
G01 X8.0314 Y1.5751
G01 X8.0144 Y1.5977
G01 X7.9931 Y1.6278
G01 X7.9831 Y1.6432
G01 X7.9684 Y1.6673
G01 X7.9503 Y1.6993
G01 X7.9337 Y1.7322
G01 X7.9219 Y1.7578
G01 X7.9078 Y1.7918
G01 X7.8980 Y1.8183
G01 X7.8865 Y1.8533
G01 X7.8767 Y1.8888
G01 X7.8701 Y1.9162
G01 X7.8629 Y1.9523
G01 X7.8585 Y1.9802
G01 X7.8540 Y2.0167
G01 X7.8513 Y2.0534
G01 X7.8501 Y2.0817
G01 X7.8499 Y2.1001
G01 X7.8499 Y89.3001
G01 X7.8501 Y89.3184
G01 X7.8513 Y89.3467
G01 X7.8540 Y89.3834
G01 X7.8560 Y89.4017
G01 X7.8599 Y89.4296
G01 X7.8629 Y89.4478
G01 X7.8700 Y89.4839
G01 X7.8814 Y89.5291
G01 X7.8921 Y89.5643
G01 X7.8980 Y89.5818
G01 X7.9078 Y89.6083
G01 X7.9146 Y89.6253
G01 X7.9219 Y89.6423
G01 X7.9337 Y89.6679
G01 X7.9418 Y89.6844
G01 X7.9592 Y89.7169
G01 X7.9831 Y89.7569
G01 X8.0036 Y89.7875
G01 X8.0144 Y89.8024
G01 X8.0314 Y89.8250
G01 X8.0429 Y89.8393
G01 X8.0547 Y89.8534
G01 X8.0735 Y89.8745
G01 X8.0989 Y89.9011
G01 X8.1120 Y89.9140
G01 X8.1328 Y89.9331
G01 X8.1466 Y89.9453
G01 X8.1751 Y89.9687
G01 X8.1976 Y89.9856
G01 X8.2277 Y90.0068
G01 X8.2588 Y90.0265
G01 X8.2831 Y90.0408
G01 X8.2992 Y90.0497
G01 X8.3321 Y90.0663
G01 X8.3577 Y90.0781
G01 X8.3917 Y90.0922
G01 X8.4182 Y90.1020
G01 X8.4532 Y90.1135
G01 X8.4887 Y90.1233
G01 X8.5161 Y90.1300
G01 X8.5522 Y90.1371
G01 X8.5801 Y90.1415
G01 X8.6166 Y90.1460
G01 X8.6350 Y90.1476
G01 X8.6631 Y90.1492
G01 X8.6999 Y90.1501
G01 X117.8999 Y90.1501
G01 X117.9368 Y90.1492
G01 X117.9649 Y90.1476
G01 X117.9833 Y90.1460
G01 X118.0198 Y90.1415
G01 X118.0477 Y90.1371
G01 X118.0658 Y90.1338
G01 X118.1017 Y90.1257
G01 X118.1290 Y90.1186
G01 X118.1467 Y90.1135
G01 X118.1817 Y90.1020
G01 X118.2082 Y90.0922
G01 X118.2253 Y90.0854
G01 X118.2422 Y90.0781
G01 X118.2678 Y90.0663
G01 X118.3007 Y90.0497
G01 X118.3168 Y90.0409
G01 X118.3411 Y90.0265
G01 X118.3722 Y90.0068
G01 X118.3874 Y89.9964
G01 X118.4102 Y89.9798
G01 X118.4392 Y89.9572
G01 X118.4671 Y89.9331
G01 X118.4879 Y89.9140
G01 X118.5010 Y89.9011
G01 X118.5264 Y89.8745
G01 X118.5452 Y89.8534
G01 X118.5570 Y89.8393
G01 X118.5797 Y89.8103
G01 X118.5963 Y89.7875
G01 X118.6067 Y89.7723
G01 X118.6168 Y89.7569
G01 X118.6315 Y89.7328
G01 X118.6496 Y89.7008
G01 X118.6662 Y89.6679
G01 X118.6780 Y89.6423
G01 X118.6853 Y89.6254
G01 X118.6985 Y89.5910
G01 X118.7078 Y89.5644
G01 X118.7134 Y89.5468
G01 X118.7232 Y89.5113
G01 X118.7299 Y89.4839
G01 X118.7337 Y89.4659
G01 X118.7370 Y89.4478
G01 X118.7414 Y89.4199
G01 X118.7459 Y89.3834
G01 X118.7475 Y89.3650
G01 X118.7491 Y89.3369
G01 X118.7500 Y89.3001
G00 X118.7500 Y89.3001
G01 F250.00
G01 Z-0.7000
G01 F2500.00
G01 X118.7500 Y2.1001
G01 X118.7498 Y2.0817
G01 X118.7486 Y2.0534
G01 X118.7459 Y2.0167
G01 X118.7439 Y1.9984
G01 X118.7400 Y1.9705
G01 X118.7370 Y1.9523
G01 X118.7299 Y1.9162
G01 X118.7185 Y1.8710
G01 X118.7078 Y1.8358
G01 X118.7018 Y1.8183
G01 X118.6921 Y1.7918
G01 X118.6853 Y1.7747
G01 X118.6780 Y1.7578
G01 X118.6662 Y1.7322
G01 X118.6581 Y1.7157
G01 X118.6408 Y1.6832
G01 X118.6168 Y1.6432
G01 X118.5963 Y1.6126
G01 X118.5855 Y1.5977
G01 X118.5686 Y1.5752
G01 X118.5571 Y1.5608
G01 X118.5330 Y1.5329
G01 X118.5139 Y1.5121
G01 X118.5010 Y1.4990
G01 X118.4879 Y1.4861
G01 X118.4671 Y1.4670
G01 X118.4392 Y1.4430
G01 X118.4249 Y1.4315
G01 X118.4023 Y1.4145
G01 X118.3722 Y1.3933
G01 X118.3411 Y1.3736
G01 X118.3168 Y1.3593
G01 X118.3007 Y1.3504
G01 X118.2678 Y1.3338
G01 X118.2422 Y1.3220
G01 X118.2081 Y1.3079
G01 X118.1817 Y1.2982
G01 X118.1467 Y1.2866
G01 X118.1112 Y1.2768
G01 X118.0838 Y1.2701
G01 X118.0477 Y1.2630
G01 X118.0198 Y1.2586
G01 X117.9833 Y1.2541
G01 X117.9466 Y1.2514
G01 X117.9183 Y1.2502
G01 X117.8999 Y1.2500
G01 X8.6999 Y1.2500
G01 X8.6816 Y1.2502
G01 X8.6533 Y1.2514
G01 X8.6166 Y1.2541
G01 X8.5983 Y1.2561
G01 X8.5704 Y1.2600
G01 X8.5522 Y1.2630
G01 X8.5161 Y1.2702
G01 X8.4709 Y1.2815
G01 X8.4356 Y1.2922
G01 X8.4182 Y1.2982
G01 X8.3917 Y1.3079
G01 X8.3746 Y1.3147
G01 X8.3577 Y1.3220
G01 X8.3321 Y1.3338
G01 X8.3156 Y1.3419
G01 X8.2831 Y1.3593
G01 X8.2431 Y1.3832
G01 X8.2125 Y1.4037
G01 X8.1976 Y1.4145
G01 X8.1750 Y1.4315
G01 X8.1607 Y1.4430
G01 X8.1466 Y1.4548
G01 X8.1255 Y1.4736
G01 X8.0989 Y1.4990
G01 X8.0860 Y1.5121
G01 X8.0669 Y1.5329
G01 X8.0429 Y1.5608
G01 X8.0314 Y1.5751
G01 X8.0144 Y1.5977
G01 X7.9931 Y1.6278
G01 X7.9831 Y1.6432
G01 X7.9684 Y1.6673
G01 X7.9503 Y1.6993
G01 X7.9337 Y1.7322
G01 X7.9219 Y1.7578
G01 X7.9078 Y1.7918
G01 X7.8980 Y1.8183
G01 X7.8865 Y1.8533
G01 X7.8767 Y1.8888
G01 X7.8701 Y1.9162
G01 X7.8629 Y1.9523
G01 X7.8585 Y1.9802
G01 X7.8540 Y2.0167
G01 X7.8513 Y2.0534
G01 X7.8501 Y2.0817
G01 X7.8499 Y2.1001
G01 X7.8499 Y89.3001
G01 X7.8501 Y89.3184
G01 X7.8513 Y89.3467
G01 X7.8540 Y89.3834
G01 X7.8560 Y89.4017
G01 X7.8599 Y89.4296
G01 X7.8629 Y89.4478
G01 X7.8700 Y89.4839
G01 X7.8814 Y89.5291
G01 X7.8921 Y89.5643
G01 X7.8980 Y89.5818
G01 X7.9078 Y89.6083
G01 X7.9146 Y89.6253
G01 X7.9219 Y89.6423
G01 X7.9337 Y89.6679
G01 X7.9418 Y89.6844
G01 X7.9592 Y89.7169
G01 X7.9831 Y89.7569
G01 X8.0036 Y89.7875
G01 X8.0144 Y89.8024
G01 X8.0314 Y89.8250
G01 X8.0429 Y89.8393
G01 X8.0547 Y89.8534
G01 X8.0735 Y89.8745
G01 X8.0989 Y89.9011
G01 X8.1120 Y89.9140
G01 X8.1328 Y89.9331
G01 X8.1466 Y89.9453
G01 X8.1751 Y89.9687
G01 X8.1976 Y89.9856
G01 X8.2277 Y90.0068
G01 X8.2588 Y90.0265
G01 X8.2831 Y90.0408
G01 X8.2992 Y90.0497
G01 X8.3321 Y90.0663
G01 X8.3577 Y90.0781
G01 X8.3917 Y90.0922
G01 X8.4182 Y90.1020
G01 X8.4532 Y90.1135
G01 X8.4887 Y90.1233
G01 X8.5161 Y90.1300
G01 X8.5522 Y90.1371
G01 X8.5801 Y90.1415
G01 X8.6166 Y90.1460
G01 X8.6350 Y90.1476
G01 X8.6631 Y90.1492
G01 X8.6999 Y90.1501
G01 X117.8999 Y90.1501
G01 X117.9368 Y90.1492
G01 X117.9649 Y90.1476
G01 X117.9833 Y90.1460
G01 X118.0198 Y90.1415
G01 X118.0477 Y90.1371
G01 X118.0658 Y90.1338
G01 X118.1017 Y90.1257
G01 X118.1290 Y90.1186
G01 X118.1467 Y90.1135
G01 X118.1817 Y90.1020
G01 X118.2082 Y90.0922
G01 X118.2253 Y90.0854
G01 X118.2422 Y90.0781
G01 X118.2678 Y90.0663
G01 X118.3007 Y90.0497
G01 X118.3168 Y90.0409
G01 X118.3411 Y90.0265
G01 X118.3722 Y90.0068
G01 X118.3874 Y89.9964
G01 X118.4102 Y89.9798
G01 X118.4392 Y89.9572
G01 X118.4671 Y89.9331
G01 X118.4879 Y89.9140
G01 X118.5010 Y89.9011
G01 X118.5264 Y89.8745
G01 X118.5452 Y89.8534
G01 X118.5570 Y89.8393
G01 X118.5797 Y89.8103
G01 X118.5963 Y89.7875
G01 X118.6067 Y89.7723
G01 X118.6168 Y89.7569
G01 X118.6315 Y89.7328
G01 X118.6496 Y89.7008
G01 X118.6662 Y89.6679
G01 X118.6780 Y89.6423
G01 X118.6853 Y89.6254
G01 X118.6985 Y89.5910
G01 X118.7078 Y89.5644
G01 X118.7134 Y89.5468
G01 X118.7232 Y89.5113
G01 X118.7299 Y89.4839
G01 X118.7337 Y89.4659
G01 X118.7370 Y89.4478
G01 X118.7414 Y89.4199
G01 X118.7459 Y89.3834
G01 X118.7475 Y89.3650
G01 X118.7491 Y89.3369
G01 X118.7500 Y89.3001
G00 X118.7500 Y89.3001
G01 F250.00
G01 Z-0.8000
G01 F2500.00
G01 X118.7500 Y2.1001
G01 X118.7498 Y2.0817
G01 X118.7486 Y2.0534
G01 X118.7459 Y2.0167
G01 X118.7439 Y1.9984
G01 X118.7400 Y1.9705
G01 X118.7370 Y1.9523
G01 X118.7299 Y1.9162
G01 X118.7185 Y1.8710
G01 X118.7078 Y1.8358
G01 X118.7018 Y1.8183
G01 X118.6921 Y1.7918
G01 X118.6853 Y1.7747
G01 X118.6780 Y1.7578
G01 X118.6662 Y1.7322
G01 X118.6581 Y1.7157
G01 X118.6408 Y1.6832
G01 X118.6168 Y1.6432
G01 X118.5963 Y1.6126
G01 X118.5855 Y1.5977
G01 X118.5686 Y1.5752
G01 X118.5571 Y1.5608
G01 X118.5330 Y1.5329
G01 X118.5139 Y1.5121
G01 X118.5010 Y1.4990
G01 X118.4879 Y1.4861
G01 X118.4671 Y1.4670
G01 X118.4392 Y1.4430
G01 X118.4249 Y1.4315
G01 X118.4023 Y1.4145
G01 X118.3722 Y1.3933
G01 X118.3411 Y1.3736
G01 X118.3168 Y1.3593
G01 X118.3007 Y1.3504
G01 X118.2678 Y1.3338
G01 X118.2422 Y1.3220
G01 X118.2081 Y1.3079
G01 X118.1817 Y1.2982
G01 X118.1467 Y1.2866
G01 X118.1112 Y1.2768
G01 X118.0838 Y1.2701
G01 X118.0477 Y1.2630
G01 X118.0198 Y1.2586
G01 X117.9833 Y1.2541
G01 X117.9466 Y1.2514
G01 X117.9183 Y1.2502
G01 X117.8999 Y1.2500
G01 X8.6999 Y1.2500
G01 X8.6816 Y1.2502
G01 X8.6533 Y1.2514
G01 X8.6166 Y1.2541
G01 X8.5983 Y1.2561
G01 X8.5704 Y1.2600
G01 X8.5522 Y1.2630
G01 X8.5161 Y1.2702
G01 X8.4709 Y1.2815
G01 X8.4356 Y1.2922
G01 X8.4182 Y1.2982
G01 X8.3917 Y1.3079
G01 X8.3746 Y1.3147
G01 X8.3577 Y1.3220
G01 X8.3321 Y1.3338
G01 X8.3156 Y1.3419
G01 X8.2831 Y1.3593
G01 X8.2431 Y1.3832
G01 X8.2125 Y1.4037
G01 X8.1976 Y1.4145
G01 X8.1750 Y1.4315
G01 X8.1607 Y1.4430
G01 X8.1466 Y1.4548
G01 X8.1255 Y1.4736
G01 X8.0989 Y1.4990
G01 X8.0860 Y1.5121
G01 X8.0669 Y1.5329
G01 X8.0429 Y1.5608
G01 X8.0314 Y1.5751
G01 X8.0144 Y1.5977
G01 X7.9931 Y1.6278
G01 X7.9831 Y1.6432
G01 X7.9684 Y1.6673
G01 X7.9503 Y1.6993
G01 X7.9337 Y1.7322
G01 X7.9219 Y1.7578
G01 X7.9078 Y1.7918
G01 X7.8980 Y1.8183
G01 X7.8865 Y1.8533
G01 X7.8767 Y1.8888
G01 X7.8701 Y1.9162
G01 X7.8629 Y1.9523
G01 X7.8585 Y1.9802
G01 X7.8540 Y2.0167
G01 X7.8513 Y2.0534
G01 X7.8501 Y2.0817
G01 X7.8499 Y2.1001
G01 X7.8499 Y89.3001
G01 X7.8501 Y89.3184
G01 X7.8513 Y89.3467
G01 X7.8540 Y89.3834
G01 X7.8560 Y89.4017
G01 X7.8599 Y89.4296
G01 X7.8629 Y89.4478
G01 X7.8700 Y89.4839
G01 X7.8814 Y89.5291
G01 X7.8921 Y89.5643
G01 X7.8980 Y89.5818
G01 X7.9078 Y89.6083
G01 X7.9146 Y89.6253
G01 X7.9219 Y89.6423
G01 X7.9337 Y89.6679
G01 X7.9418 Y89.6844
G01 X7.9592 Y89.7169
G01 X7.9831 Y89.7569
G01 X8.0036 Y89.7875
G01 X8.0144 Y89.8024
G01 X8.0314 Y89.8250
G01 X8.0429 Y89.8393
G01 X8.0547 Y89.8534
G01 X8.0735 Y89.8745
G01 X8.0989 Y89.9011
G01 X8.1120 Y89.9140
G01 X8.1328 Y89.9331
G01 X8.1466 Y89.9453
G01 X8.1751 Y89.9687
G01 X8.1976 Y89.9856
G01 X8.2277 Y90.0068
G01 X8.2588 Y90.0265
G01 X8.2831 Y90.0408
G01 X8.2992 Y90.0497
G01 X8.3321 Y90.0663
G01 X8.3577 Y90.0781
G01 X8.3917 Y90.0922
G01 X8.4182 Y90.1020
G01 X8.4532 Y90.1135
G01 X8.4887 Y90.1233
G01 X8.5161 Y90.1300
G01 X8.5522 Y90.1371
G01 X8.5801 Y90.1415
G01 X8.6166 Y90.1460
G01 X8.6350 Y90.1476
G01 X8.6631 Y90.1492
G01 X8.6999 Y90.1501
G01 X117.8999 Y90.1501
G01 X117.9368 Y90.1492
G01 X117.9649 Y90.1476
G01 X117.9833 Y90.1460
G01 X118.0198 Y90.1415
G01 X118.0477 Y90.1371
G01 X118.0658 Y90.1338
G01 X118.1017 Y90.1257
G01 X118.1290 Y90.1186
G01 X118.1467 Y90.1135
G01 X118.1817 Y90.1020
G01 X118.2082 Y90.0922
G01 X118.2253 Y90.0854
G01 X118.2422 Y90.0781
G01 X118.2678 Y90.0663
G01 X118.3007 Y90.0497
G01 X118.3168 Y90.0409
G01 X118.3411 Y90.0265
G01 X118.3722 Y90.0068
G01 X118.3874 Y89.9964
G01 X118.4102 Y89.9798
G01 X118.4392 Y89.9572
G01 X118.4671 Y89.9331
G01 X118.4879 Y89.9140
G01 X118.5010 Y89.9011
G01 X118.5264 Y89.8745
G01 X118.5452 Y89.8534
G01 X118.5570 Y89.8393
G01 X118.5797 Y89.8103
G01 X118.5963 Y89.7875
G01 X118.6067 Y89.7723
G01 X118.6168 Y89.7569
G01 X118.6315 Y89.7328
G01 X118.6496 Y89.7008
G01 X118.6662 Y89.6679
G01 X118.6780 Y89.6423
G01 X118.6853 Y89.6254
G01 X118.6985 Y89.5910
G01 X118.7078 Y89.5644
G01 X118.7134 Y89.5468
G01 X118.7232 Y89.5113
G01 X118.7299 Y89.4839
G01 X118.7337 Y89.4659
G01 X118.7370 Y89.4478
G01 X118.7414 Y89.4199
G01 X118.7459 Y89.3834
G01 X118.7475 Y89.3650
G01 X118.7491 Y89.3369
G01 X118.7500 Y89.3001
G00 X118.7500 Y89.3001
G01 F250.00
G01 Z-0.9000
G01 F2500.00
G01 X118.7500 Y2.1001
G01 X118.7498 Y2.0817
G01 X118.7486 Y2.0534
G01 X118.7459 Y2.0167
G01 X118.7439 Y1.9984
G01 X118.7400 Y1.9705
G01 X118.7370 Y1.9523
G01 X118.7299 Y1.9162
G01 X118.7185 Y1.8710
G01 X118.7078 Y1.8358
G01 X118.7018 Y1.8183
G01 X118.6921 Y1.7918
G01 X118.6853 Y1.7747
G01 X118.6780 Y1.7578
G01 X118.6662 Y1.7322
G01 X118.6581 Y1.7157
G01 X118.6408 Y1.6832
G01 X118.6168 Y1.6432
G01 X118.5963 Y1.6126
G01 X118.5855 Y1.5977
G01 X118.5686 Y1.5752
G01 X118.5571 Y1.5608
G01 X118.5330 Y1.5329
G01 X118.5139 Y1.5121
G01 X118.5010 Y1.4990
G01 X118.4879 Y1.4861
G01 X118.4671 Y1.4670
G01 X118.4392 Y1.4430
G01 X118.4249 Y1.4315
G01 X118.4023 Y1.4145
G01 X118.3722 Y1.3933
G01 X118.3411 Y1.3736
G01 X118.3168 Y1.3593
G01 X118.3007 Y1.3504
G01 X118.2678 Y1.3338
G01 X118.2422 Y1.3220
G01 X118.2081 Y1.3079
G01 X118.1817 Y1.2982
G01 X118.1467 Y1.2866
G01 X118.1112 Y1.2768
G01 X118.0838 Y1.2701
G01 X118.0477 Y1.2630
G01 X118.0198 Y1.2586
G01 X117.9833 Y1.2541
G01 X117.9466 Y1.2514
G01 X117.9183 Y1.2502
G01 X117.8999 Y1.2500
G01 X8.6999 Y1.2500
G01 X8.6816 Y1.2502
G01 X8.6533 Y1.2514
G01 X8.6166 Y1.2541
G01 X8.5983 Y1.2561
G01 X8.5704 Y1.2600
G01 X8.5522 Y1.2630
G01 X8.5161 Y1.2702
G01 X8.4709 Y1.2815
G01 X8.4356 Y1.2922
G01 X8.4182 Y1.2982
G01 X8.3917 Y1.3079
G01 X8.3746 Y1.3147
G01 X8.3577 Y1.3220
G01 X8.3321 Y1.3338
G01 X8.3156 Y1.3419
G01 X8.2831 Y1.3593
G01 X8.2431 Y1.3832
G01 X8.2125 Y1.4037
G01 X8.1976 Y1.4145
G01 X8.1750 Y1.4315
G01 X8.1607 Y1.4430
G01 X8.1466 Y1.4548
G01 X8.1255 Y1.4736
G01 X8.0989 Y1.4990
G01 X8.0860 Y1.5121
G01 X8.0669 Y1.5329
G01 X8.0429 Y1.5608
G01 X8.0314 Y1.5751
G01 X8.0144 Y1.5977
G01 X7.9931 Y1.6278
G01 X7.9831 Y1.6432
G01 X7.9684 Y1.6673
G01 X7.9503 Y1.6993
G01 X7.9337 Y1.7322
G01 X7.9219 Y1.7578
G01 X7.9078 Y1.7918
G01 X7.8980 Y1.8183
G01 X7.8865 Y1.8533
G01 X7.8767 Y1.8888
G01 X7.8701 Y1.9162
G01 X7.8629 Y1.9523
G01 X7.8585 Y1.9802
G01 X7.8540 Y2.0167
G01 X7.8513 Y2.0534
G01 X7.8501 Y2.0817
G01 X7.8499 Y2.1001
G01 X7.8499 Y89.3001
G01 X7.8501 Y89.3184
G01 X7.8513 Y89.3467
G01 X7.8540 Y89.3834
G01 X7.8560 Y89.4017
G01 X7.8599 Y89.4296
G01 X7.8629 Y89.4478
G01 X7.8700 Y89.4839
G01 X7.8814 Y89.5291
G01 X7.8921 Y89.5643
G01 X7.8980 Y89.5818
G01 X7.9078 Y89.6083
G01 X7.9146 Y89.6253
G01 X7.9219 Y89.6423
G01 X7.9337 Y89.6679
G01 X7.9418 Y89.6844
G01 X7.9592 Y89.7169
G01 X7.9831 Y89.7569
G01 X8.0036 Y89.7875
G01 X8.0144 Y89.8024
G01 X8.0314 Y89.8250
G01 X8.0429 Y89.8393
G01 X8.0547 Y89.8534
G01 X8.0735 Y89.8745
G01 X8.0989 Y89.9011
G01 X8.1120 Y89.9140
G01 X8.1328 Y89.9331
G01 X8.1466 Y89.9453
G01 X8.1751 Y89.9687
G01 X8.1976 Y89.9856
G01 X8.2277 Y90.0068
G01 X8.2588 Y90.0265
G01 X8.2831 Y90.0408
G01 X8.2992 Y90.0497
G01 X8.3321 Y90.0663
G01 X8.3577 Y90.0781
G01 X8.3917 Y90.0922
G01 X8.4182 Y90.1020
G01 X8.4532 Y90.1135
G01 X8.4887 Y90.1233
G01 X8.5161 Y90.1300
G01 X8.5522 Y90.1371
G01 X8.5801 Y90.1415
G01 X8.6166 Y90.1460
G01 X8.6350 Y90.1476
G01 X8.6631 Y90.1492
G01 X8.6999 Y90.1501
G01 X117.8999 Y90.1501
G01 X117.9368 Y90.1492
G01 X117.9649 Y90.1476
G01 X117.9833 Y90.1460
G01 X118.0198 Y90.1415
G01 X118.0477 Y90.1371
G01 X118.0658 Y90.1338
G01 X118.1017 Y90.1257
G01 X118.1290 Y90.1186
G01 X118.1467 Y90.1135
G01 X118.1817 Y90.1020
G01 X118.2082 Y90.0922
G01 X118.2253 Y90.0854
G01 X118.2422 Y90.0781
G01 X118.2678 Y90.0663
G01 X118.3007 Y90.0497
G01 X118.3168 Y90.0409
G01 X118.3411 Y90.0265
G01 X118.3722 Y90.0068
G01 X118.3874 Y89.9964
G01 X118.4102 Y89.9798
G01 X118.4392 Y89.9572
G01 X118.4671 Y89.9331
G01 X118.4879 Y89.9140
G01 X118.5010 Y89.9011
G01 X118.5264 Y89.8745
G01 X118.5452 Y89.8534
G01 X118.5570 Y89.8393
G01 X118.5797 Y89.8103
G01 X118.5963 Y89.7875
G01 X118.6067 Y89.7723
G01 X118.6168 Y89.7569
G01 X118.6315 Y89.7328
G01 X118.6496 Y89.7008
G01 X118.6662 Y89.6679
G01 X118.6780 Y89.6423
G01 X118.6853 Y89.6254
G01 X118.6985 Y89.5910
G01 X118.7078 Y89.5644
G01 X118.7134 Y89.5468
G01 X118.7232 Y89.5113
G01 X118.7299 Y89.4839
G01 X118.7337 Y89.4659
G01 X118.7370 Y89.4478
G01 X118.7414 Y89.4199
G01 X118.7459 Y89.3834
G01 X118.7475 Y89.3650
G01 X118.7491 Y89.3369
G01 X118.7500 Y89.3001
G00 X118.7500 Y89.3001
G01 F250.00
G01 Z-1.0000
G01 F2500.00
G01 X118.7500 Y2.1001
G01 X118.7498 Y2.0817
G01 X118.7486 Y2.0534
G01 X118.7459 Y2.0167
G01 X118.7439 Y1.9984
G01 X118.7400 Y1.9705
G01 X118.7370 Y1.9523
G01 X118.7299 Y1.9162
G01 X118.7185 Y1.8710
G01 X118.7078 Y1.8358
G01 X118.7018 Y1.8183
G01 X118.6921 Y1.7918
G01 X118.6853 Y1.7747
G01 X118.6780 Y1.7578
G01 X118.6662 Y1.7322
G01 X118.6581 Y1.7157
G01 X118.6408 Y1.6832
G01 X118.6168 Y1.6432
G01 X118.5963 Y1.6126
G01 X118.5855 Y1.5977
G01 X118.5686 Y1.5752
G01 X118.5571 Y1.5608
G01 X118.5330 Y1.5329
G01 X118.5139 Y1.5121
G01 X118.5010 Y1.4990
G01 X118.4879 Y1.4861
G01 X118.4671 Y1.4670
G01 X118.4392 Y1.4430
G01 X118.4249 Y1.4315
G01 X118.4023 Y1.4145
G01 X118.3722 Y1.3933
G01 X118.3411 Y1.3736
G01 X118.3168 Y1.3593
G01 X118.3007 Y1.3504
G01 X118.2678 Y1.3338
G01 X118.2422 Y1.3220
G01 X118.2081 Y1.3079
G01 X118.1817 Y1.2982
G01 X118.1467 Y1.2866
G01 X118.1112 Y1.2768
G01 X118.0838 Y1.2701
G01 X118.0477 Y1.2630
G01 X118.0198 Y1.2586
G01 X117.9833 Y1.2541
G01 X117.9466 Y1.2514
G01 X117.9183 Y1.2502
G01 X117.8999 Y1.2500
G01 X8.6999 Y1.2500
G01 X8.6816 Y1.2502
G01 X8.6533 Y1.2514
G01 X8.6166 Y1.2541
G01 X8.5983 Y1.2561
G01 X8.5704 Y1.2600
G01 X8.5522 Y1.2630
G01 X8.5161 Y1.2702
G01 X8.4709 Y1.2815
G01 X8.4356 Y1.2922
G01 X8.4182 Y1.2982
G01 X8.3917 Y1.3079
G01 X8.3746 Y1.3147
G01 X8.3577 Y1.3220
G01 X8.3321 Y1.3338
G01 X8.3156 Y1.3419
G01 X8.2831 Y1.3593
G01 X8.2431 Y1.3832
G01 X8.2125 Y1.4037
G01 X8.1976 Y1.4145
G01 X8.1750 Y1.4315
G01 X8.1607 Y1.4430
G01 X8.1466 Y1.4548
G01 X8.1255 Y1.4736
G01 X8.0989 Y1.4990
G01 X8.0860 Y1.5121
G01 X8.0669 Y1.5329
G01 X8.0429 Y1.5608
G01 X8.0314 Y1.5751
G01 X8.0144 Y1.5977
G01 X7.9931 Y1.6278
G01 X7.9831 Y1.6432
G01 X7.9684 Y1.6673
G01 X7.9503 Y1.6993
G01 X7.9337 Y1.7322
G01 X7.9219 Y1.7578
G01 X7.9078 Y1.7918
G01 X7.8980 Y1.8183
G01 X7.8865 Y1.8533
G01 X7.8767 Y1.8888
G01 X7.8701 Y1.9162
G01 X7.8629 Y1.9523
G01 X7.8585 Y1.9802
G01 X7.8540 Y2.0167
G01 X7.8513 Y2.0534
G01 X7.8501 Y2.0817
G01 X7.8499 Y2.1001
G01 X7.8499 Y89.3001
G01 X7.8501 Y89.3184
G01 X7.8513 Y89.3467
G01 X7.8540 Y89.3834
G01 X7.8560 Y89.4017
G01 X7.8599 Y89.4296
G01 X7.8629 Y89.4478
G01 X7.8700 Y89.4839
G01 X7.8814 Y89.5291
G01 X7.8921 Y89.5643
G01 X7.8980 Y89.5818
G01 X7.9078 Y89.6083
G01 X7.9146 Y89.6253
G01 X7.9219 Y89.6423
G01 X7.9337 Y89.6679
G01 X7.9418 Y89.6844
G01 X7.9592 Y89.7169
G01 X7.9831 Y89.7569
G01 X8.0036 Y89.7875
G01 X8.0144 Y89.8024
G01 X8.0314 Y89.8250
G01 X8.0429 Y89.8393
G01 X8.0547 Y89.8534
G01 X8.0735 Y89.8745
G01 X8.0989 Y89.9011
G01 X8.1120 Y89.9140
G01 X8.1328 Y89.9331
G01 X8.1466 Y89.9453
G01 X8.1751 Y89.9687
G01 X8.1976 Y89.9856
G01 X8.2277 Y90.0068
G01 X8.2588 Y90.0265
G01 X8.2831 Y90.0408
G01 X8.2992 Y90.0497
G01 X8.3321 Y90.0663
G01 X8.3577 Y90.0781
G01 X8.3917 Y90.0922
G01 X8.4182 Y90.1020
G01 X8.4532 Y90.1135
G01 X8.4887 Y90.1233
G01 X8.5161 Y90.1300
G01 X8.5522 Y90.1371
G01 X8.5801 Y90.1415
G01 X8.6166 Y90.1460
G01 X8.6350 Y90.1476
G01 X8.6631 Y90.1492
G01 X8.6999 Y90.1501
G01 X117.8999 Y90.1501
G01 X117.9368 Y90.1492
G01 X117.9649 Y90.1476
G01 X117.9833 Y90.1460
G01 X118.0198 Y90.1415
G01 X118.0477 Y90.1371
G01 X118.0658 Y90.1338
G01 X118.1017 Y90.1257
G01 X118.1290 Y90.1186
G01 X118.1467 Y90.1135
G01 X118.1817 Y90.1020
G01 X118.2082 Y90.0922
G01 X118.2253 Y90.0854
G01 X118.2422 Y90.0781
G01 X118.2678 Y90.0663
G01 X118.3007 Y90.0497
G01 X118.3168 Y90.0409
G01 X118.3411 Y90.0265
G01 X118.3722 Y90.0068
G01 X118.3874 Y89.9964
G01 X118.4102 Y89.9798
G01 X118.4392 Y89.9572
G01 X118.4671 Y89.9331
G01 X118.4879 Y89.9140
G01 X118.5010 Y89.9011
G01 X118.5264 Y89.8745
G01 X118.5452 Y89.8534
G01 X118.5570 Y89.8393
G01 X118.5797 Y89.8103
G01 X118.5963 Y89.7875
G01 X118.6067 Y89.7723
G01 X118.6168 Y89.7569
G01 X118.6315 Y89.7328
G01 X118.6496 Y89.7008
G01 X118.6662 Y89.6679
G01 X118.6780 Y89.6423
G01 X118.6853 Y89.6254
G01 X118.6985 Y89.5910
G01 X118.7078 Y89.5644
G01 X118.7134 Y89.5468
G01 X118.7232 Y89.5113
G01 X118.7299 Y89.4839
G01 X118.7337 Y89.4659
G01 X118.7370 Y89.4478
G01 X118.7414 Y89.4199
G01 X118.7459 Y89.3834
G01 X118.7475 Y89.3650
G01 X118.7491 Y89.3369
G01 X118.7500 Y89.3001
G00 X118.7500 Y89.3001
G01 F250.00
G01 Z-1.1000
G01 F2500.00
G01 X118.7500 Y2.1001
G01 X118.7498 Y2.0817
G01 X118.7486 Y2.0534
G01 X118.7459 Y2.0167
G01 X118.7439 Y1.9984
G01 X118.7400 Y1.9705
G01 X118.7370 Y1.9523
G01 X118.7299 Y1.9162
G01 X118.7185 Y1.8710
G01 X118.7078 Y1.8358
G01 X118.7018 Y1.8183
G01 X118.6921 Y1.7918
G01 X118.6853 Y1.7747
G01 X118.6780 Y1.7578
G01 X118.6662 Y1.7322
G01 X118.6581 Y1.7157
G01 X118.6408 Y1.6832
G01 X118.6168 Y1.6432
G01 X118.5963 Y1.6126
G01 X118.5855 Y1.5977
G01 X118.5686 Y1.5752
G01 X118.5571 Y1.5608
G01 X118.5330 Y1.5329
G01 X118.5139 Y1.5121
G01 X118.5010 Y1.4990
G01 X118.4879 Y1.4861
G01 X118.4671 Y1.4670
G01 X118.4392 Y1.4430
G01 X118.4249 Y1.4315
G01 X118.4023 Y1.4145
G01 X118.3722 Y1.3933
G01 X118.3411 Y1.3736
G01 X118.3168 Y1.3593
G01 X118.3007 Y1.3504
G01 X118.2678 Y1.3338
G01 X118.2422 Y1.3220
G01 X118.2081 Y1.3079
G01 X118.1817 Y1.2982
G01 X118.1467 Y1.2866
G01 X118.1112 Y1.2768
G01 X118.0838 Y1.2701
G01 X118.0477 Y1.2630
G01 X118.0198 Y1.2586
G01 X117.9833 Y1.2541
G01 X117.9466 Y1.2514
G01 X117.9183 Y1.2502
G01 X117.8999 Y1.2500
G01 X8.6999 Y1.2500
G01 X8.6816 Y1.2502
G01 X8.6533 Y1.2514
G01 X8.6166 Y1.2541
G01 X8.5983 Y1.2561
G01 X8.5704 Y1.2600
G01 X8.5522 Y1.2630
G01 X8.5161 Y1.2702
G01 X8.4709 Y1.2815
G01 X8.4356 Y1.2922
G01 X8.4182 Y1.2982
G01 X8.3917 Y1.3079
G01 X8.3746 Y1.3147
G01 X8.3577 Y1.3220
G01 X8.3321 Y1.3338
G01 X8.3156 Y1.3419
G01 X8.2831 Y1.3593
G01 X8.2431 Y1.3832
G01 X8.2125 Y1.4037
G01 X8.1976 Y1.4145
G01 X8.1750 Y1.4315
G01 X8.1607 Y1.4430
G01 X8.1466 Y1.4548
G01 X8.1255 Y1.4736
G01 X8.0989 Y1.4990
G01 X8.0860 Y1.5121
G01 X8.0669 Y1.5329
G01 X8.0429 Y1.5608
G01 X8.0314 Y1.5751
G01 X8.0144 Y1.5977
G01 X7.9931 Y1.6278
G01 X7.9831 Y1.6432
G01 X7.9684 Y1.6673
G01 X7.9503 Y1.6993
G01 X7.9337 Y1.7322
G01 X7.9219 Y1.7578
G01 X7.9078 Y1.7918
G01 X7.8980 Y1.8183
G01 X7.8865 Y1.8533
G01 X7.8767 Y1.8888
G01 X7.8701 Y1.9162
G01 X7.8629 Y1.9523
G01 X7.8585 Y1.9802
G01 X7.8540 Y2.0167
G01 X7.8513 Y2.0534
G01 X7.8501 Y2.0817
G01 X7.8499 Y2.1001
G01 X7.8499 Y89.3001
G01 X7.8501 Y89.3184
G01 X7.8513 Y89.3467
G01 X7.8540 Y89.3834
G01 X7.8560 Y89.4017
G01 X7.8599 Y89.4296
G01 X7.8629 Y89.4478
G01 X7.8700 Y89.4839
G01 X7.8814 Y89.5291
G01 X7.8921 Y89.5643
G01 X7.8980 Y89.5818
G01 X7.9078 Y89.6083
G01 X7.9146 Y89.6253
G01 X7.9219 Y89.6423
G01 X7.9337 Y89.6679
G01 X7.9418 Y89.6844
G01 X7.9592 Y89.7169
G01 X7.9831 Y89.7569
G01 X8.0036 Y89.7875
G01 X8.0144 Y89.8024
G01 X8.0314 Y89.8250
G01 X8.0429 Y89.8393
G01 X8.0547 Y89.8534
G01 X8.0735 Y89.8745
G01 X8.0989 Y89.9011
G01 X8.1120 Y89.9140
G01 X8.1328 Y89.9331
G01 X8.1466 Y89.9453
G01 X8.1751 Y89.9687
G01 X8.1976 Y89.9856
G01 X8.2277 Y90.0068
G01 X8.2588 Y90.0265
G01 X8.2831 Y90.0408
G01 X8.2992 Y90.0497
G01 X8.3321 Y90.0663
G01 X8.3577 Y90.0781
G01 X8.3917 Y90.0922
G01 X8.4182 Y90.1020
G01 X8.4532 Y90.1135
G01 X8.4887 Y90.1233
G01 X8.5161 Y90.1300
G01 X8.5522 Y90.1371
G01 X8.5801 Y90.1415
G01 X8.6166 Y90.1460
G01 X8.6350 Y90.1476
G01 X8.6631 Y90.1492
G01 X8.6999 Y90.1501
G01 X117.8999 Y90.1501
G01 X117.9368 Y90.1492
G01 X117.9649 Y90.1476
G01 X117.9833 Y90.1460
G01 X118.0198 Y90.1415
G01 X118.0477 Y90.1371
G01 X118.0658 Y90.1338
G01 X118.1017 Y90.1257
G01 X118.1290 Y90.1186
G01 X118.1467 Y90.1135
G01 X118.1817 Y90.1020
G01 X118.2082 Y90.0922
G01 X118.2253 Y90.0854
G01 X118.2422 Y90.0781
G01 X118.2678 Y90.0663
G01 X118.3007 Y90.0497
G01 X118.3168 Y90.0409
G01 X118.3411 Y90.0265
G01 X118.3722 Y90.0068
G01 X118.3874 Y89.9964
G01 X118.4102 Y89.9798
G01 X118.4392 Y89.9572
G01 X118.4671 Y89.9331
G01 X118.4879 Y89.9140
G01 X118.5010 Y89.9011
G01 X118.5264 Y89.8745
G01 X118.5452 Y89.8534
G01 X118.5570 Y89.8393
G01 X118.5797 Y89.8103
G01 X118.5963 Y89.7875
G01 X118.6067 Y89.7723
G01 X118.6168 Y89.7569
G01 X118.6315 Y89.7328
G01 X118.6496 Y89.7008
G01 X118.6662 Y89.6679
G01 X118.6780 Y89.6423
G01 X118.6853 Y89.6254
G01 X118.6985 Y89.5910
G01 X118.7078 Y89.5644
G01 X118.7134 Y89.5468
G01 X118.7232 Y89.5113
G01 X118.7299 Y89.4839
G01 X118.7337 Y89.4659
G01 X118.7370 Y89.4478
G01 X118.7414 Y89.4199
G01 X118.7459 Y89.3834
G01 X118.7475 Y89.3650
G01 X118.7491 Y89.3369
G01 X118.7500 Y89.3001
G00 X118.7500 Y89.3001
G01 F250.00
G01 Z-1.2000
G01 F2500.00
G01 X118.7500 Y2.1001
G01 X118.7498 Y2.0817
G01 X118.7486 Y2.0534
G01 X118.7459 Y2.0167
G01 X118.7439 Y1.9984
G01 X118.7400 Y1.9705
G01 X118.7370 Y1.9523
G01 X118.7299 Y1.9162
G01 X118.7185 Y1.8710
G01 X118.7078 Y1.8358
G01 X118.7018 Y1.8183
G01 X118.6921 Y1.7918
G01 X118.6853 Y1.7747
G01 X118.6780 Y1.7578
G01 X118.6662 Y1.7322
G01 X118.6581 Y1.7157
G01 X118.6408 Y1.6832
G01 X118.6168 Y1.6432
G01 X118.5963 Y1.6126
G01 X118.5855 Y1.5977
G01 X118.5686 Y1.5752
G01 X118.5571 Y1.5608
G01 X118.5330 Y1.5329
G01 X118.5139 Y1.5121
G01 X118.5010 Y1.4990
G01 X118.4879 Y1.4861
G01 X118.4671 Y1.4670
G01 X118.4392 Y1.4430
G01 X118.4249 Y1.4315
G01 X118.4023 Y1.4145
G01 X118.3722 Y1.3933
G01 X118.3411 Y1.3736
G01 X118.3168 Y1.3593
G01 X118.3007 Y1.3504
G01 X118.2678 Y1.3338
G01 X118.2422 Y1.3220
G01 X118.2081 Y1.3079
G01 X118.1817 Y1.2982
G01 X118.1467 Y1.2866
G01 X118.1112 Y1.2768
G01 X118.0838 Y1.2701
G01 X118.0477 Y1.2630
G01 X118.0198 Y1.2586
G01 X117.9833 Y1.2541
G01 X117.9466 Y1.2514
G01 X117.9183 Y1.2502
G01 X117.8999 Y1.2500
G01 X8.6999 Y1.2500
G01 X8.6816 Y1.2502
G01 X8.6533 Y1.2514
G01 X8.6166 Y1.2541
G01 X8.5983 Y1.2561
G01 X8.5704 Y1.2600
G01 X8.5522 Y1.2630
G01 X8.5161 Y1.2702
G01 X8.4709 Y1.2815
G01 X8.4356 Y1.2922
G01 X8.4182 Y1.2982
G01 X8.3917 Y1.3079
G01 X8.3746 Y1.3147
G01 X8.3577 Y1.3220
G01 X8.3321 Y1.3338
G01 X8.3156 Y1.3419
G01 X8.2831 Y1.3593
G01 X8.2431 Y1.3832
G01 X8.2125 Y1.4037
G01 X8.1976 Y1.4145
G01 X8.1750 Y1.4315
G01 X8.1607 Y1.4430
G01 X8.1466 Y1.4548
G01 X8.1255 Y1.4736
G01 X8.0989 Y1.4990
G01 X8.0860 Y1.5121
G01 X8.0669 Y1.5329
G01 X8.0429 Y1.5608
G01 X8.0314 Y1.5751
G01 X8.0144 Y1.5977
G01 X7.9931 Y1.6278
G01 X7.9831 Y1.6432
G01 X7.9684 Y1.6673
G01 X7.9503 Y1.6993
G01 X7.9337 Y1.7322
G01 X7.9219 Y1.7578
G01 X7.9078 Y1.7918
G01 X7.8980 Y1.8183
G01 X7.8865 Y1.8533
G01 X7.8767 Y1.8888
G01 X7.8701 Y1.9162
G01 X7.8629 Y1.9523
G01 X7.8585 Y1.9802
G01 X7.8540 Y2.0167
G01 X7.8513 Y2.0534
G01 X7.8501 Y2.0817
G01 X7.8499 Y2.1001
G01 X7.8499 Y89.3001
G01 X7.8501 Y89.3184
G01 X7.8513 Y89.3467
G01 X7.8540 Y89.3834
G01 X7.8560 Y89.4017
G01 X7.8599 Y89.4296
G01 X7.8629 Y89.4478
G01 X7.8700 Y89.4839
G01 X7.8814 Y89.5291
G01 X7.8921 Y89.5643
G01 X7.8980 Y89.5818
G01 X7.9078 Y89.6083
G01 X7.9146 Y89.6253
G01 X7.9219 Y89.6423
G01 X7.9337 Y89.6679
G01 X7.9418 Y89.6844
G01 X7.9592 Y89.7169
G01 X7.9831 Y89.7569
G01 X8.0036 Y89.7875
G01 X8.0144 Y89.8024
G01 X8.0314 Y89.8250
G01 X8.0429 Y89.8393
G01 X8.0547 Y89.8534
G01 X8.0735 Y89.8745
G01 X8.0989 Y89.9011
G01 X8.1120 Y89.9140
G01 X8.1328 Y89.9331
G01 X8.1466 Y89.9453
G01 X8.1751 Y89.9687
G01 X8.1976 Y89.9856
G01 X8.2277 Y90.0068
G01 X8.2588 Y90.0265
G01 X8.2831 Y90.0408
G01 X8.2992 Y90.0497
G01 X8.3321 Y90.0663
G01 X8.3577 Y90.0781
G01 X8.3917 Y90.0922
G01 X8.4182 Y90.1020
G01 X8.4532 Y90.1135
G01 X8.4887 Y90.1233
G01 X8.5161 Y90.1300
G01 X8.5522 Y90.1371
G01 X8.5801 Y90.1415
G01 X8.6166 Y90.1460
G01 X8.6350 Y90.1476
G01 X8.6631 Y90.1492
G01 X8.6999 Y90.1501
G01 X117.8999 Y90.1501
G01 X117.9368 Y90.1492
G01 X117.9649 Y90.1476
G01 X117.9833 Y90.1460
G01 X118.0198 Y90.1415
G01 X118.0477 Y90.1371
G01 X118.0658 Y90.1338
G01 X118.1017 Y90.1257
G01 X118.1290 Y90.1186
G01 X118.1467 Y90.1135
G01 X118.1817 Y90.1020
G01 X118.2082 Y90.0922
G01 X118.2253 Y90.0854
G01 X118.2422 Y90.0781
G01 X118.2678 Y90.0663
G01 X118.3007 Y90.0497
G01 X118.3168 Y90.0409
G01 X118.3411 Y90.0265
G01 X118.3722 Y90.0068
G01 X118.3874 Y89.9964
G01 X118.4102 Y89.9798
G01 X118.4392 Y89.9572
G01 X118.4671 Y89.9331
G01 X118.4879 Y89.9140
G01 X118.5010 Y89.9011
G01 X118.5264 Y89.8745
G01 X118.5452 Y89.8534
G01 X118.5570 Y89.8393
G01 X118.5797 Y89.8103
G01 X118.5963 Y89.7875
G01 X118.6067 Y89.7723
G01 X118.6168 Y89.7569
G01 X118.6315 Y89.7328
G01 X118.6496 Y89.7008
G01 X118.6662 Y89.6679
G01 X118.6780 Y89.6423
G01 X118.6853 Y89.6254
G01 X118.6985 Y89.5910
G01 X118.7078 Y89.5644
G01 X118.7134 Y89.5468
G01 X118.7232 Y89.5113
G01 X118.7299 Y89.4839
G01 X118.7337 Y89.4659
G01 X118.7370 Y89.4478
G01 X118.7414 Y89.4199
G01 X118.7459 Y89.3834
G01 X118.7475 Y89.3650
G01 X118.7491 Y89.3369
G01 X118.7500 Y89.3001
G00 X118.7500 Y89.3001
G01 F250.00
G01 Z-1.3000
G01 F2500.00
G01 X118.7500 Y2.1001
G01 X118.7498 Y2.0817
G01 X118.7486 Y2.0534
G01 X118.7459 Y2.0167
G01 X118.7439 Y1.9984
G01 X118.7400 Y1.9705
G01 X118.7370 Y1.9523
G01 X118.7299 Y1.9162
G01 X118.7185 Y1.8710
G01 X118.7078 Y1.8358
G01 X118.7018 Y1.8183
G01 X118.6921 Y1.7918
G01 X118.6853 Y1.7747
G01 X118.6780 Y1.7578
G01 X118.6662 Y1.7322
G01 X118.6581 Y1.7157
G01 X118.6408 Y1.6832
G01 X118.6168 Y1.6432
G01 X118.5963 Y1.6126
G01 X118.5855 Y1.5977
G01 X118.5686 Y1.5752
G01 X118.5571 Y1.5608
G01 X118.5330 Y1.5329
G01 X118.5139 Y1.5121
G01 X118.5010 Y1.4990
G01 X118.4879 Y1.4861
G01 X118.4671 Y1.4670
G01 X118.4392 Y1.4430
G01 X118.4249 Y1.4315
G01 X118.4023 Y1.4145
G01 X118.3722 Y1.3933
G01 X118.3411 Y1.3736
G01 X118.3168 Y1.3593
G01 X118.3007 Y1.3504
G01 X118.2678 Y1.3338
G01 X118.2422 Y1.3220
G01 X118.2081 Y1.3079
G01 X118.1817 Y1.2982
G01 X118.1467 Y1.2866
G01 X118.1112 Y1.2768
G01 X118.0838 Y1.2701
G01 X118.0477 Y1.2630
G01 X118.0198 Y1.2586
G01 X117.9833 Y1.2541
G01 X117.9466 Y1.2514
G01 X117.9183 Y1.2502
G01 X117.8999 Y1.2500
G01 X8.6999 Y1.2500
G01 X8.6816 Y1.2502
G01 X8.6533 Y1.2514
G01 X8.6166 Y1.2541
G01 X8.5983 Y1.2561
G01 X8.5704 Y1.2600
G01 X8.5522 Y1.2630
G01 X8.5161 Y1.2702
G01 X8.4709 Y1.2815
G01 X8.4356 Y1.2922
G01 X8.4182 Y1.2982
G01 X8.3917 Y1.3079
G01 X8.3746 Y1.3147
G01 X8.3577 Y1.3220
G01 X8.3321 Y1.3338
G01 X8.3156 Y1.3419
G01 X8.2831 Y1.3593
G01 X8.2431 Y1.3832
G01 X8.2125 Y1.4037
G01 X8.1976 Y1.4145
G01 X8.1750 Y1.4315
G01 X8.1607 Y1.4430
G01 X8.1466 Y1.4548
G01 X8.1255 Y1.4736
G01 X8.0989 Y1.4990
G01 X8.0860 Y1.5121
G01 X8.0669 Y1.5329
G01 X8.0429 Y1.5608
G01 X8.0314 Y1.5751
G01 X8.0144 Y1.5977
G01 X7.9931 Y1.6278
G01 X7.9831 Y1.6432
G01 X7.9684 Y1.6673
G01 X7.9503 Y1.6993
G01 X7.9337 Y1.7322
G01 X7.9219 Y1.7578
G01 X7.9078 Y1.7918
G01 X7.8980 Y1.8183
G01 X7.8865 Y1.8533
G01 X7.8767 Y1.8888
G01 X7.8701 Y1.9162
G01 X7.8629 Y1.9523
G01 X7.8585 Y1.9802
G01 X7.8540 Y2.0167
G01 X7.8513 Y2.0534
G01 X7.8501 Y2.0817
G01 X7.8499 Y2.1001
G01 X7.8499 Y89.3001
G01 X7.8501 Y89.3184
G01 X7.8513 Y89.3467
G01 X7.8540 Y89.3834
G01 X7.8560 Y89.4017
G01 X7.8599 Y89.4296
G01 X7.8629 Y89.4478
G01 X7.8700 Y89.4839
G01 X7.8814 Y89.5291
G01 X7.8921 Y89.5643
G01 X7.8980 Y89.5818
G01 X7.9078 Y89.6083
G01 X7.9146 Y89.6253
G01 X7.9219 Y89.6423
G01 X7.9337 Y89.6679
G01 X7.9418 Y89.6844
G01 X7.9592 Y89.7169
G01 X7.9831 Y89.7569
G01 X8.0036 Y89.7875
G01 X8.0144 Y89.8024
G01 X8.0314 Y89.8250
G01 X8.0429 Y89.8393
G01 X8.0547 Y89.8534
G01 X8.0735 Y89.8745
G01 X8.0989 Y89.9011
G01 X8.1120 Y89.9140
G01 X8.1328 Y89.9331
G01 X8.1466 Y89.9453
G01 X8.1751 Y89.9687
G01 X8.1976 Y89.9856
G01 X8.2277 Y90.0068
G01 X8.2588 Y90.0265
G01 X8.2831 Y90.0408
G01 X8.2992 Y90.0497
G01 X8.3321 Y90.0663
G01 X8.3577 Y90.0781
G01 X8.3917 Y90.0922
G01 X8.4182 Y90.1020
G01 X8.4532 Y90.1135
G01 X8.4887 Y90.1233
G01 X8.5161 Y90.1300
G01 X8.5522 Y90.1371
G01 X8.5801 Y90.1415
G01 X8.6166 Y90.1460
G01 X8.6350 Y90.1476
G01 X8.6631 Y90.1492
G01 X8.6999 Y90.1501
G01 X117.8999 Y90.1501
G01 X117.9368 Y90.1492
G01 X117.9649 Y90.1476
G01 X117.9833 Y90.1460
G01 X118.0198 Y90.1415
G01 X118.0477 Y90.1371
G01 X118.0658 Y90.1338
G01 X118.1017 Y90.1257
G01 X118.1290 Y90.1186
G01 X118.1467 Y90.1135
G01 X118.1817 Y90.1020
G01 X118.2082 Y90.0922
G01 X118.2253 Y90.0854
G01 X118.2422 Y90.0781
G01 X118.2678 Y90.0663
G01 X118.3007 Y90.0497
G01 X118.3168 Y90.0409
G01 X118.3411 Y90.0265
G01 X118.3722 Y90.0068
G01 X118.3874 Y89.9964
G01 X118.4102 Y89.9798
G01 X118.4392 Y89.9572
G01 X118.4671 Y89.9331
G01 X118.4879 Y89.9140
G01 X118.5010 Y89.9011
G01 X118.5264 Y89.8745
G01 X118.5452 Y89.8534
G01 X118.5570 Y89.8393
G01 X118.5797 Y89.8103
G01 X118.5963 Y89.7875
G01 X118.6067 Y89.7723
G01 X118.6168 Y89.7569
G01 X118.6315 Y89.7328
G01 X118.6496 Y89.7008
G01 X118.6662 Y89.6679
G01 X118.6780 Y89.6423
G01 X118.6853 Y89.6254
G01 X118.6985 Y89.5910
G01 X118.7078 Y89.5644
G01 X118.7134 Y89.5468
G01 X118.7232 Y89.5113
G01 X118.7299 Y89.4839
G01 X118.7337 Y89.4659
G01 X118.7370 Y89.4478
G01 X118.7414 Y89.4199
G01 X118.7459 Y89.3834
G01 X118.7475 Y89.3650
G01 X118.7491 Y89.3369
G01 X118.7500 Y89.3001
G00 X118.7500 Y89.3001
G01 F250.00
G01 Z-1.4000
G01 F2500.00
G01 X118.7500 Y2.1001
G01 X118.7498 Y2.0817
G01 X118.7486 Y2.0534
G01 X118.7459 Y2.0167
G01 X118.7439 Y1.9984
G01 X118.7400 Y1.9705
G01 X118.7370 Y1.9523
G01 X118.7299 Y1.9162
G01 X118.7185 Y1.8710
G01 X118.7078 Y1.8358
G01 X118.7018 Y1.8183
G01 X118.6921 Y1.7918
G01 X118.6853 Y1.7747
G01 X118.6780 Y1.7578
G01 X118.6662 Y1.7322
G01 X118.6581 Y1.7157
G01 X118.6408 Y1.6832
G01 X118.6168 Y1.6432
G01 X118.5963 Y1.6126
G01 X118.5855 Y1.5977
G01 X118.5686 Y1.5752
G01 X118.5571 Y1.5608
G01 X118.5330 Y1.5329
G01 X118.5139 Y1.5121
G01 X118.5010 Y1.4990
G01 X118.4879 Y1.4861
G01 X118.4671 Y1.4670
G01 X118.4392 Y1.4430
G01 X118.4249 Y1.4315
G01 X118.4023 Y1.4145
G01 X118.3722 Y1.3933
G01 X118.3411 Y1.3736
G01 X118.3168 Y1.3593
G01 X118.3007 Y1.3504
G01 X118.2678 Y1.3338
G01 X118.2422 Y1.3220
G01 X118.2081 Y1.3079
G01 X118.1817 Y1.2982
G01 X118.1467 Y1.2866
G01 X118.1112 Y1.2768
G01 X118.0838 Y1.2701
G01 X118.0477 Y1.2630
G01 X118.0198 Y1.2586
G01 X117.9833 Y1.2541
G01 X117.9466 Y1.2514
G01 X117.9183 Y1.2502
G01 X117.8999 Y1.2500
G01 X8.6999 Y1.2500
G01 X8.6816 Y1.2502
G01 X8.6533 Y1.2514
G01 X8.6166 Y1.2541
G01 X8.5983 Y1.2561
G01 X8.5704 Y1.2600
G01 X8.5522 Y1.2630
G01 X8.5161 Y1.2702
G01 X8.4709 Y1.2815
G01 X8.4356 Y1.2922
G01 X8.4182 Y1.2982
G01 X8.3917 Y1.3079
G01 X8.3746 Y1.3147
G01 X8.3577 Y1.3220
G01 X8.3321 Y1.3338
G01 X8.3156 Y1.3419
G01 X8.2831 Y1.3593
G01 X8.2431 Y1.3832
G01 X8.2125 Y1.4037
G01 X8.1976 Y1.4145
G01 X8.1750 Y1.4315
G01 X8.1607 Y1.4430
G01 X8.1466 Y1.4548
G01 X8.1255 Y1.4736
G01 X8.0989 Y1.4990
G01 X8.0860 Y1.5121
G01 X8.0669 Y1.5329
G01 X8.0429 Y1.5608
G01 X8.0314 Y1.5751
G01 X8.0144 Y1.5977
G01 X7.9931 Y1.6278
G01 X7.9831 Y1.6432
G01 X7.9684 Y1.6673
G01 X7.9503 Y1.6993
G01 X7.9337 Y1.7322
G01 X7.9219 Y1.7578
G01 X7.9078 Y1.7918
G01 X7.8980 Y1.8183
G01 X7.8865 Y1.8533
G01 X7.8767 Y1.8888
G01 X7.8701 Y1.9162
G01 X7.8629 Y1.9523
G01 X7.8585 Y1.9802
G01 X7.8540 Y2.0167
G01 X7.8513 Y2.0534
G01 X7.8501 Y2.0817
G01 X7.8499 Y2.1001
G01 X7.8499 Y89.3001
G01 X7.8501 Y89.3184
G01 X7.8513 Y89.3467
G01 X7.8540 Y89.3834
G01 X7.8560 Y89.4017
G01 X7.8599 Y89.4296
G01 X7.8629 Y89.4478
G01 X7.8700 Y89.4839
G01 X7.8814 Y89.5291
G01 X7.8921 Y89.5643
G01 X7.8980 Y89.5818
G01 X7.9078 Y89.6083
G01 X7.9146 Y89.6253
G01 X7.9219 Y89.6423
G01 X7.9337 Y89.6679
G01 X7.9418 Y89.6844
G01 X7.9592 Y89.7169
G01 X7.9831 Y89.7569
G01 X8.0036 Y89.7875
G01 X8.0144 Y89.8024
G01 X8.0314 Y89.8250
G01 X8.0429 Y89.8393
G01 X8.0547 Y89.8534
G01 X8.0735 Y89.8745
G01 X8.0989 Y89.9011
G01 X8.1120 Y89.9140
G01 X8.1328 Y89.9331
G01 X8.1466 Y89.9453
G01 X8.1751 Y89.9687
G01 X8.1976 Y89.9856
G01 X8.2277 Y90.0068
G01 X8.2588 Y90.0265
G01 X8.2831 Y90.0408
G01 X8.2992 Y90.0497
G01 X8.3321 Y90.0663
G01 X8.3577 Y90.0781
G01 X8.3917 Y90.0922
G01 X8.4182 Y90.1020
G01 X8.4532 Y90.1135
G01 X8.4887 Y90.1233
G01 X8.5161 Y90.1300
G01 X8.5522 Y90.1371
G01 X8.5801 Y90.1415
G01 X8.6166 Y90.1460
G01 X8.6350 Y90.1476
G01 X8.6631 Y90.1492
G01 X8.6999 Y90.1501
G01 X117.8999 Y90.1501
G01 X117.9368 Y90.1492
G01 X117.9649 Y90.1476
G01 X117.9833 Y90.1460
G01 X118.0198 Y90.1415
G01 X118.0477 Y90.1371
G01 X118.0658 Y90.1338
G01 X118.1017 Y90.1257
G01 X118.1290 Y90.1186
G01 X118.1467 Y90.1135
G01 X118.1817 Y90.1020
G01 X118.2082 Y90.0922
G01 X118.2253 Y90.0854
G01 X118.2422 Y90.0781
G01 X118.2678 Y90.0663
G01 X118.3007 Y90.0497
G01 X118.3168 Y90.0409
G01 X118.3411 Y90.0265
G01 X118.3722 Y90.0068
G01 X118.3874 Y89.9964
G01 X118.4102 Y89.9798
G01 X118.4392 Y89.9572
G01 X118.4671 Y89.9331
G01 X118.4879 Y89.9140
G01 X118.5010 Y89.9011
G01 X118.5264 Y89.8745
G01 X118.5452 Y89.8534
G01 X118.5570 Y89.8393
G01 X118.5797 Y89.8103
G01 X118.5963 Y89.7875
G01 X118.6067 Y89.7723
G01 X118.6168 Y89.7569
G01 X118.6315 Y89.7328
G01 X118.6496 Y89.7008
G01 X118.6662 Y89.6679
G01 X118.6780 Y89.6423
G01 X118.6853 Y89.6254
G01 X118.6985 Y89.5910
G01 X118.7078 Y89.5644
G01 X118.7134 Y89.5468
G01 X118.7232 Y89.5113
G01 X118.7299 Y89.4839
G01 X118.7337 Y89.4659
G01 X118.7370 Y89.4478
G01 X118.7414 Y89.4199
G01 X118.7459 Y89.3834
G01 X118.7475 Y89.3650
G01 X118.7491 Y89.3369
G01 X118.7500 Y89.3001
G00 X118.7500 Y89.3001
G01 F250.00
G01 Z-1.5000
G01 F2500.00
G01 X118.7500 Y2.1001
G01 X118.7498 Y2.0817
G01 X118.7486 Y2.0534
G01 X118.7459 Y2.0167
G01 X118.7439 Y1.9984
G01 X118.7400 Y1.9705
G01 X118.7370 Y1.9523
G01 X118.7299 Y1.9162
G01 X118.7185 Y1.8710
G01 X118.7078 Y1.8358
G01 X118.7018 Y1.8183
G01 X118.6921 Y1.7918
G01 X118.6853 Y1.7747
G01 X118.6780 Y1.7578
G01 X118.6662 Y1.7322
G01 X118.6581 Y1.7157
G01 X118.6408 Y1.6832
G01 X118.6168 Y1.6432
G01 X118.5963 Y1.6126
G01 X118.5855 Y1.5977
G01 X118.5686 Y1.5752
G01 X118.5571 Y1.5608
G01 X118.5330 Y1.5329
G01 X118.5139 Y1.5121
G01 X118.5010 Y1.4990
G01 X118.4879 Y1.4861
G01 X118.4671 Y1.4670
G01 X118.4392 Y1.4430
G01 X118.4249 Y1.4315
G01 X118.4023 Y1.4145
G01 X118.3722 Y1.3933
G01 X118.3411 Y1.3736
G01 X118.3168 Y1.3593
G01 X118.3007 Y1.3504
G01 X118.2678 Y1.3338
G01 X118.2422 Y1.3220
G01 X118.2081 Y1.3079
G01 X118.1817 Y1.2982
G01 X118.1467 Y1.2866
G01 X118.1112 Y1.2768
G01 X118.0838 Y1.2701
G01 X118.0477 Y1.2630
G01 X118.0198 Y1.2586
G01 X117.9833 Y1.2541
G01 X117.9466 Y1.2514
G01 X117.9183 Y1.2502
G01 X117.8999 Y1.2500
G01 X8.6999 Y1.2500
G01 X8.6816 Y1.2502
G01 X8.6533 Y1.2514
G01 X8.6166 Y1.2541
G01 X8.5983 Y1.2561
G01 X8.5704 Y1.2600
G01 X8.5522 Y1.2630
G01 X8.5161 Y1.2702
G01 X8.4709 Y1.2815
G01 X8.4356 Y1.2922
G01 X8.4182 Y1.2982
G01 X8.3917 Y1.3079
G01 X8.3746 Y1.3147
G01 X8.3577 Y1.3220
G01 X8.3321 Y1.3338
G01 X8.3156 Y1.3419
G01 X8.2831 Y1.3593
G01 X8.2431 Y1.3832
G01 X8.2125 Y1.4037
G01 X8.1976 Y1.4145
G01 X8.1750 Y1.4315
G01 X8.1607 Y1.4430
G01 X8.1466 Y1.4548
G01 X8.1255 Y1.4736
G01 X8.0989 Y1.4990
G01 X8.0860 Y1.5121
G01 X8.0669 Y1.5329
G01 X8.0429 Y1.5608
G01 X8.0314 Y1.5751
G01 X8.0144 Y1.5977
G01 X7.9931 Y1.6278
G01 X7.9831 Y1.6432
G01 X7.9684 Y1.6673
G01 X7.9503 Y1.6993
G01 X7.9337 Y1.7322
G01 X7.9219 Y1.7578
G01 X7.9078 Y1.7918
G01 X7.8980 Y1.8183
G01 X7.8865 Y1.8533
G01 X7.8767 Y1.8888
G01 X7.8701 Y1.9162
G01 X7.8629 Y1.9523
G01 X7.8585 Y1.9802
G01 X7.8540 Y2.0167
G01 X7.8513 Y2.0534
G01 X7.8501 Y2.0817
G01 X7.8499 Y2.1001
G01 X7.8499 Y89.3001
G01 X7.8501 Y89.3184
G01 X7.8513 Y89.3467
G01 X7.8540 Y89.3834
G01 X7.8560 Y89.4017
G01 X7.8599 Y89.4296
G01 X7.8629 Y89.4478
G01 X7.8700 Y89.4839
G01 X7.8814 Y89.5291
G01 X7.8921 Y89.5643
G01 X7.8980 Y89.5818
G01 X7.9078 Y89.6083
G01 X7.9146 Y89.6253
G01 X7.9219 Y89.6423
G01 X7.9337 Y89.6679
G01 X7.9418 Y89.6844
G01 X7.9592 Y89.7169
G01 X7.9831 Y89.7569
G01 X8.0036 Y89.7875
G01 X8.0144 Y89.8024
G01 X8.0314 Y89.8250
G01 X8.0429 Y89.8393
G01 X8.0547 Y89.8534
G01 X8.0735 Y89.8745
G01 X8.0989 Y89.9011
G01 X8.1120 Y89.9140
G01 X8.1328 Y89.9331
G01 X8.1466 Y89.9453
G01 X8.1751 Y89.9687
G01 X8.1976 Y89.9856
G01 X8.2277 Y90.0068
G01 X8.2588 Y90.0265
G01 X8.2831 Y90.0408
G01 X8.2992 Y90.0497
G01 X8.3321 Y90.0663
G01 X8.3577 Y90.0781
G01 X8.3917 Y90.0922
G01 X8.4182 Y90.1020
G01 X8.4532 Y90.1135
G01 X8.4887 Y90.1233
G01 X8.5161 Y90.1300
G01 X8.5522 Y90.1371
G01 X8.5801 Y90.1415
G01 X8.6166 Y90.1460
G01 X8.6350 Y90.1476
G01 X8.6631 Y90.1492
G01 X8.6999 Y90.1501
G01 X117.8999 Y90.1501
G01 X117.9368 Y90.1492
G01 X117.9649 Y90.1476
G01 X117.9833 Y90.1460
G01 X118.0198 Y90.1415
G01 X118.0477 Y90.1371
G01 X118.0658 Y90.1338
G01 X118.1017 Y90.1257
G01 X118.1290 Y90.1186
G01 X118.1467 Y90.1135
G01 X118.1817 Y90.1020
G01 X118.2082 Y90.0922
G01 X118.2253 Y90.0854
G01 X118.2422 Y90.0781
G01 X118.2678 Y90.0663
G01 X118.3007 Y90.0497
G01 X118.3168 Y90.0409
G01 X118.3411 Y90.0265
G01 X118.3722 Y90.0068
G01 X118.3874 Y89.9964
G01 X118.4102 Y89.9798
G01 X118.4392 Y89.9572
G01 X118.4671 Y89.9331
G01 X118.4879 Y89.9140
G01 X118.5010 Y89.9011
G01 X118.5264 Y89.8745
G01 X118.5452 Y89.8534
G01 X118.5570 Y89.8393
G01 X118.5797 Y89.8103
G01 X118.5963 Y89.7875
G01 X118.6067 Y89.7723
G01 X118.6168 Y89.7569
G01 X118.6315 Y89.7328
G01 X118.6496 Y89.7008
G01 X118.6662 Y89.6679
G01 X118.6780 Y89.6423
G01 X118.6853 Y89.6254
G01 X118.6985 Y89.5910
G01 X118.7078 Y89.5644
G01 X118.7134 Y89.5468
G01 X118.7232 Y89.5113
G01 X118.7299 Y89.4839
G01 X118.7337 Y89.4659
G01 X118.7370 Y89.4478
G01 X118.7414 Y89.4199
G01 X118.7459 Y89.3834
G01 X118.7475 Y89.3650
G01 X118.7491 Y89.3369
G01 X118.7500 Y89.3001
G00 X118.7500 Y89.3001
G01 F250.00
G01 Z-1.6000
G01 F2500.00
G01 X118.7500 Y2.1001
G01 X118.7498 Y2.0817
G01 X118.7486 Y2.0534
G01 X118.7459 Y2.0167
G01 X118.7439 Y1.9984
G01 X118.7400 Y1.9705
G01 X118.7370 Y1.9523
G01 X118.7299 Y1.9162
G01 X118.7185 Y1.8710
G01 X118.7078 Y1.8358
G01 X118.7018 Y1.8183
G01 X118.6921 Y1.7918
G01 X118.6853 Y1.7747
G01 X118.6780 Y1.7578
G01 X118.6662 Y1.7322
G01 X118.6581 Y1.7157
G01 X118.6408 Y1.6832
G01 X118.6168 Y1.6432
G01 X118.5963 Y1.6126
G01 X118.5855 Y1.5977
G01 X118.5686 Y1.5752
G01 X118.5571 Y1.5608
G01 X118.5330 Y1.5329
G01 X118.5139 Y1.5121
G01 X118.5010 Y1.4990
G01 X118.4879 Y1.4861
G01 X118.4671 Y1.4670
G01 X118.4392 Y1.4430
G01 X118.4249 Y1.4315
G01 X118.4023 Y1.4145
G01 X118.3722 Y1.3933
G01 X118.3411 Y1.3736
G01 X118.3168 Y1.3593
G01 X118.3007 Y1.3504
G01 X118.2678 Y1.3338
G01 X118.2422 Y1.3220
G01 X118.2081 Y1.3079
G01 X118.1817 Y1.2982
G01 X118.1467 Y1.2866
G01 X118.1112 Y1.2768
G01 X118.0838 Y1.2701
G01 X118.0477 Y1.2630
G01 X118.0198 Y1.2586
G01 X117.9833 Y1.2541
G01 X117.9466 Y1.2514
G01 X117.9183 Y1.2502
G01 X117.8999 Y1.2500
G01 X8.6999 Y1.2500
G01 X8.6816 Y1.2502
G01 X8.6533 Y1.2514
G01 X8.6166 Y1.2541
G01 X8.5983 Y1.2561
G01 X8.5704 Y1.2600
G01 X8.5522 Y1.2630
G01 X8.5161 Y1.2702
G01 X8.4709 Y1.2815
G01 X8.4356 Y1.2922
G01 X8.4182 Y1.2982
G01 X8.3917 Y1.3079
G01 X8.3746 Y1.3147
G01 X8.3577 Y1.3220
G01 X8.3321 Y1.3338
G01 X8.3156 Y1.3419
G01 X8.2831 Y1.3593
G01 X8.2431 Y1.3832
G01 X8.2125 Y1.4037
G01 X8.1976 Y1.4145
G01 X8.1750 Y1.4315
G01 X8.1607 Y1.4430
G01 X8.1466 Y1.4548
G01 X8.1255 Y1.4736
G01 X8.0989 Y1.4990
G01 X8.0860 Y1.5121
G01 X8.0669 Y1.5329
G01 X8.0429 Y1.5608
G01 X8.0314 Y1.5751
G01 X8.0144 Y1.5977
G01 X7.9931 Y1.6278
G01 X7.9831 Y1.6432
G01 X7.9684 Y1.6673
G01 X7.9503 Y1.6993
G01 X7.9337 Y1.7322
G01 X7.9219 Y1.7578
G01 X7.9078 Y1.7918
G01 X7.8980 Y1.8183
G01 X7.8865 Y1.8533
G01 X7.8767 Y1.8888
G01 X7.8701 Y1.9162
G01 X7.8629 Y1.9523
G01 X7.8585 Y1.9802
G01 X7.8540 Y2.0167
G01 X7.8513 Y2.0534
G01 X7.8501 Y2.0817
G01 X7.8499 Y2.1001
G01 X7.8499 Y89.3001
G01 X7.8501 Y89.3184
G01 X7.8513 Y89.3467
G01 X7.8540 Y89.3834
G01 X7.8560 Y89.4017
G01 X7.8599 Y89.4296
G01 X7.8629 Y89.4478
G01 X7.8700 Y89.4839
G01 X7.8814 Y89.5291
G01 X7.8921 Y89.5643
G01 X7.8980 Y89.5818
G01 X7.9078 Y89.6083
G01 X7.9146 Y89.6253
G01 X7.9219 Y89.6423
G01 X7.9337 Y89.6679
G01 X7.9418 Y89.6844
G01 X7.9592 Y89.7169
G01 X7.9831 Y89.7569
G01 X8.0036 Y89.7875
G01 X8.0144 Y89.8024
G01 X8.0314 Y89.8250
G01 X8.0429 Y89.8393
G01 X8.0547 Y89.8534
G01 X8.0735 Y89.8745
G01 X8.0989 Y89.9011
G01 X8.1120 Y89.9140
G01 X8.1328 Y89.9331
G01 X8.1466 Y89.9453
G01 X8.1751 Y89.9687
G01 X8.1976 Y89.9856
G01 X8.2277 Y90.0068
G01 X8.2588 Y90.0265
G01 X8.2831 Y90.0408
G01 X8.2992 Y90.0497
G01 X8.3321 Y90.0663
G01 X8.3577 Y90.0781
G01 X8.3917 Y90.0922
G01 X8.4182 Y90.1020
G01 X8.4532 Y90.1135
G01 X8.4887 Y90.1233
G01 X8.5161 Y90.1300
G01 X8.5522 Y90.1371
G01 X8.5801 Y90.1415
G01 X8.6166 Y90.1460
G01 X8.6350 Y90.1476
G01 X8.6631 Y90.1492
G01 X8.6999 Y90.1501
G01 X117.8999 Y90.1501
G01 X117.9368 Y90.1492
G01 X117.9649 Y90.1476
G01 X117.9833 Y90.1460
G01 X118.0198 Y90.1415
G01 X118.0477 Y90.1371
G01 X118.0658 Y90.1338
G01 X118.1017 Y90.1257
G01 X118.1290 Y90.1186
G01 X118.1467 Y90.1135
G01 X118.1817 Y90.1020
G01 X118.2082 Y90.0922
G01 X118.2253 Y90.0854
G01 X118.2422 Y90.0781
G01 X118.2678 Y90.0663
G01 X118.3007 Y90.0497
G01 X118.3168 Y90.0409
G01 X118.3411 Y90.0265
G01 X118.3722 Y90.0068
G01 X118.3874 Y89.9964
G01 X118.4102 Y89.9798
G01 X118.4392 Y89.9572
G01 X118.4671 Y89.9331
G01 X118.4879 Y89.9140
G01 X118.5010 Y89.9011
G01 X118.5264 Y89.8745
G01 X118.5452 Y89.8534
G01 X118.5570 Y89.8393
G01 X118.5797 Y89.8103
G01 X118.5963 Y89.7875
G01 X118.6067 Y89.7723
G01 X118.6168 Y89.7569
G01 X118.6315 Y89.7328
G01 X118.6496 Y89.7008
G01 X118.6662 Y89.6679
G01 X118.6780 Y89.6423
G01 X118.6853 Y89.6254
G01 X118.6985 Y89.5910
G01 X118.7078 Y89.5644
G01 X118.7134 Y89.5468
G01 X118.7232 Y89.5113
G01 X118.7299 Y89.4839
G01 X118.7337 Y89.4659
G01 X118.7370 Y89.4478
G01 X118.7414 Y89.4199
G01 X118.7459 Y89.3834
G01 X118.7475 Y89.3650
G01 X118.7491 Y89.3369
G01 X118.7500 Y89.3001
G00 X118.7500 Y89.3001
G01 F250.00
G01 Z-1.7000
G01 F2500.00
G01 X118.7500 Y2.1001
G01 X118.7498 Y2.0817
G01 X118.7486 Y2.0534
G01 X118.7459 Y2.0167
G01 X118.7439 Y1.9984
G01 X118.7400 Y1.9705
G01 X118.7370 Y1.9523
G01 X118.7299 Y1.9162
G01 X118.7185 Y1.8710
G01 X118.7078 Y1.8358
G01 X118.7018 Y1.8183
G01 X118.6921 Y1.7918
G01 X118.6853 Y1.7747
G01 X118.6780 Y1.7578
G01 X118.6662 Y1.7322
G01 X118.6581 Y1.7157
G01 X118.6408 Y1.6832
G01 X118.6168 Y1.6432
G01 X118.5963 Y1.6126
G01 X118.5855 Y1.5977
G01 X118.5686 Y1.5752
G01 X118.5571 Y1.5608
G01 X118.5330 Y1.5329
G01 X118.5139 Y1.5121
G01 X118.5010 Y1.4990
G01 X118.4879 Y1.4861
G01 X118.4671 Y1.4670
G01 X118.4392 Y1.4430
G01 X118.4249 Y1.4315
G01 X118.4023 Y1.4145
G01 X118.3722 Y1.3933
G01 X118.3411 Y1.3736
G01 X118.3168 Y1.3593
G01 X118.3007 Y1.3504
G01 X118.2678 Y1.3338
G01 X118.2422 Y1.3220
G01 X118.2081 Y1.3079
G01 X118.1817 Y1.2982
G01 X118.1467 Y1.2866
G01 X118.1112 Y1.2768
G01 X118.0838 Y1.2701
G01 X118.0477 Y1.2630
G01 X118.0198 Y1.2586
G01 X117.9833 Y1.2541
G01 X117.9466 Y1.2514
G01 X117.9183 Y1.2502
G01 X117.8999 Y1.2500
G01 X8.6999 Y1.2500
G01 X8.6816 Y1.2502
G01 X8.6533 Y1.2514
G01 X8.6166 Y1.2541
G01 X8.5983 Y1.2561
G01 X8.5704 Y1.2600
G01 X8.5522 Y1.2630
G01 X8.5161 Y1.2702
G01 X8.4709 Y1.2815
G01 X8.4356 Y1.2922
G01 X8.4182 Y1.2982
G01 X8.3917 Y1.3079
G01 X8.3746 Y1.3147
G01 X8.3577 Y1.3220
G01 X8.3321 Y1.3338
G01 X8.3156 Y1.3419
G01 X8.2831 Y1.3593
G01 X8.2431 Y1.3832
G01 X8.2125 Y1.4037
G01 X8.1976 Y1.4145
G01 X8.1750 Y1.4315
G01 X8.1607 Y1.4430
G01 X8.1466 Y1.4548
G01 X8.1255 Y1.4736
G01 X8.0989 Y1.4990
G01 X8.0860 Y1.5121
G01 X8.0669 Y1.5329
G01 X8.0429 Y1.5608
G01 X8.0314 Y1.5751
G01 X8.0144 Y1.5977
G01 X7.9931 Y1.6278
G01 X7.9831 Y1.6432
G01 X7.9684 Y1.6673
G01 X7.9503 Y1.6993
G01 X7.9337 Y1.7322
G01 X7.9219 Y1.7578
G01 X7.9078 Y1.7918
G01 X7.8980 Y1.8183
G01 X7.8865 Y1.8533
G01 X7.8767 Y1.8888
G01 X7.8701 Y1.9162
G01 X7.8629 Y1.9523
G01 X7.8585 Y1.9802
G01 X7.8540 Y2.0167
G01 X7.8513 Y2.0534
G01 X7.8501 Y2.0817
G01 X7.8499 Y2.1001
G01 X7.8499 Y89.3001
G01 X7.8501 Y89.3184
G01 X7.8513 Y89.3467
G01 X7.8540 Y89.3834
G01 X7.8560 Y89.4017
G01 X7.8599 Y89.4296
G01 X7.8629 Y89.4478
G01 X7.8700 Y89.4839
G01 X7.8814 Y89.5291
G01 X7.8921 Y89.5643
G01 X7.8980 Y89.5818
G01 X7.9078 Y89.6083
G01 X7.9146 Y89.6253
G01 X7.9219 Y89.6423
G01 X7.9337 Y89.6679
G01 X7.9418 Y89.6844
G01 X7.9592 Y89.7169
G01 X7.9831 Y89.7569
G01 X8.0036 Y89.7875
G01 X8.0144 Y89.8024
G01 X8.0314 Y89.8250
G01 X8.0429 Y89.8393
G01 X8.0547 Y89.8534
G01 X8.0735 Y89.8745
G01 X8.0989 Y89.9011
G01 X8.1120 Y89.9140
G01 X8.1328 Y89.9331
G01 X8.1466 Y89.9453
G01 X8.1751 Y89.9687
G01 X8.1976 Y89.9856
G01 X8.2277 Y90.0068
G01 X8.2588 Y90.0265
G01 X8.2831 Y90.0408
G01 X8.2992 Y90.0497
G01 X8.3321 Y90.0663
G01 X8.3577 Y90.0781
G01 X8.3917 Y90.0922
G01 X8.4182 Y90.1020
G01 X8.4532 Y90.1135
G01 X8.4887 Y90.1233
G01 X8.5161 Y90.1300
G01 X8.5522 Y90.1371
G01 X8.5801 Y90.1415
G01 X8.6166 Y90.1460
G01 X8.6350 Y90.1476
G01 X8.6631 Y90.1492
G01 X8.6999 Y90.1501
G01 X117.8999 Y90.1501
G01 X117.9368 Y90.1492
G01 X117.9649 Y90.1476
G01 X117.9833 Y90.1460
G01 X118.0198 Y90.1415
G01 X118.0477 Y90.1371
G01 X118.0658 Y90.1338
G01 X118.1017 Y90.1257
G01 X118.1290 Y90.1186
G01 X118.1467 Y90.1135
G01 X118.1817 Y90.1020
G01 X118.2082 Y90.0922
G01 X118.2253 Y90.0854
G01 X118.2422 Y90.0781
G01 X118.2678 Y90.0663
G01 X118.3007 Y90.0497
G01 X118.3168 Y90.0409
G01 X118.3411 Y90.0265
G01 X118.3722 Y90.0068
G01 X118.3874 Y89.9964
G01 X118.4102 Y89.9798
G01 X118.4392 Y89.9572
G01 X118.4671 Y89.9331
G01 X118.4879 Y89.9140
G01 X118.5010 Y89.9011
G01 X118.5264 Y89.8745
G01 X118.5452 Y89.8534
G01 X118.5570 Y89.8393
G01 X118.5797 Y89.8103
G01 X118.5963 Y89.7875
G01 X118.6067 Y89.7723
G01 X118.6168 Y89.7569
G01 X118.6315 Y89.7328
G01 X118.6496 Y89.7008
G01 X118.6662 Y89.6679
G01 X118.6780 Y89.6423
G01 X118.6853 Y89.6254
G01 X118.6985 Y89.5910
G01 X118.7078 Y89.5644
G01 X118.7134 Y89.5468
G01 X118.7232 Y89.5113
G01 X118.7299 Y89.4839
G01 X118.7337 Y89.4659
G01 X118.7370 Y89.4478
G01 X118.7414 Y89.4199
G01 X118.7459 Y89.3834
G01 X118.7475 Y89.3650
G01 X118.7491 Y89.3369
G01 X118.7500 Y89.3001
G00 Z0.5000
M05
G00 Z0.5000
G00 Z15.00
G00 X0.0 Y0.0

